P3
400 225
255
127 182 219
126 182 219
126 182 219
126 182 219
126 182 219
126 181 218
126 181 218
126 181 218
126 181 218
125 181 218
125 181 218
125 181 218
125 181 218
125 181 218
125 181 218
125 181 218
125 181 218
124 181 218
124 181 218
124 180 218
124 180 218
124 180 218
124 180 218
124 180 218
123 180 218
123 180 218
123 180 218
123 180 218
123 180 218
123 180 218
123 180 218
123 180 218
122 179 217
122 179 217
122 179 217
122 179 217
122 179 217
122 179 217
122 179 217
121 179 217
121 179 217
121 179 217
121 179 217
121 179 217
121 178 217
121 178 217
120 178 217
120 178 217
120 178 217
120 178 217
120 178 217
120 178 217
120 178 217
119 178 217
119 178 217
119 178 217
119 178 217
119 177 216
119 177 216
119 177 216
118 177 216
118 177 216
118 177 216
118 177 216
118 177 216
118 177 216
118 177 216
117 177 216
117 176 216
117 176 216
117 176 216
117 176 216
117 176 216
116 176 216
116 176 216
116 176 216
116 176 216
116 176 216
116 176 216
116 176 216
115 175 215
115 175 215
115 175 215
115 175 215
115 175 215
115 175 215
114 175 215
114 175 215
114 175 215
114 175 215
114 175 215
114 174 215
114 174 215
113 174 215
113 174 215
113 174 215
113 174 215
113 174 215
113 174 215
112 174 215
112 174 215
112 174 215
112 174 215
112 173 214
112 173 214
112 173 214
111 173 214
111 173 214
111 173 214
111 173 214
111 173 214
111 173 214
111 173 214
110 173 214
110 172 214
110 172 214
110 172 214
110 172 214
110 172 214
110 172 214
109 172 214
109 172 214
109 172 214
109 172 214
109 172 214
109 172 214
109 172 214
108 171 213
108 171 213
108 171 213
108 171 213
108 171 213
108 171 213
108 171 213
107 171 213
107 171 213
107 171 213
107 171 213
107 171 213
107 171 213
107 170 213
107 170 213
106 170 213
106 170 213
106 170 213
106 170 213
106 170 213
106 170 213
106 170 213
106 170 213
106 170 213
105 170 213
105 170 213
105 170 213
105 170 213
105 170 213
105 169 212
105 169 212
105 169 212
105 169 212
105 169 212
104 169 212
104 169 212
104 169 212
104 169 212
104 169 212
104 169 212
104 169 212
104 169 212
104 169 212
104 169 212
104 169 212
104 169 212
104 169 212
103 169 212
103 169 212
103 169 212
103 169 212
103 169 212
103 168 212
103 168 212
103 168 212
103 168 212
103 168 212
103 168 212
103 168 212
103 168 212
103 168 212
103 168 212
103 168 212
103 168 212
103 168 212
103 168 212
103 168 212
103 168 212
103 168 212
103 168 212
103 168 212
103 168 212
103 168 212
103 168 212
103 168 212
103 168 212
103 168 212
103 168 212
103 168 212
103 168 212
103 168 212
103 168 212
103 168 212
103 168 212
103 168 212
103 168 212
103 168 212
103 168 212
103 168 212
103 168 212
103 168 212
103 168 212
103 168 212
103 168 212
103 169 212
103 169 212
103 169 212
103 169 212
103 169 212
104 169 212
104 169 212
104 169 212
104 169 212
104 169 212
104 169 212
104 169 212
104 169 212
104 169 212
104 169 212
104 169 212
104 169 212
104 169 212
105 169 212
105 169 212
105 169 212
105 169 212
105 169 212
105 170 213
105 170 213
105 170 213
105 170 213
105 170 213
106 170 213
106 170 213
106 170 213
106 170 213
106 170 213
106 170 213
106 170 213
106 170 213
106 170 213
107 170 213
107 170 213
107 171 213
107 171 213
107 171 213
107 171 213
107 171 213
107 171 213
108 171 213
108 171 213
108 171 213
108 171 213
108 171 213
108 171 213
108 171 213
109 172 214
109 172 214
109 172 214
109 172 214
109 172 214
109 172 214
109 172 214
110 172 214
110 172 214
110 172 214
110 172 214
110 172 214
110 172 214
110 173 214
111 173 214
111 173 214
111 173 214
111 173 214
111 173 214
111 173 214
111 173 214
112 173 214
112 173 214
112 173 214
112 174 215
112 174 215
112 174 215
112 174 215
113 174 215
113 174 215
113 174 215
113 174 215
113 174 215
113 174 215
114 174 215
114 174 215
114 175 215
114 175 215
114 175 215
114 175 215
114 175 215
115 175 215
115 175 215
115 175 215
115 175 215
115 175 215
115 175 215
116 176 216
116 176 216
116 176 216
116 176 216
116 176 216
116 176 216
116 176 216
117 176 216
117 176 216
117 176 216
117 176 216
117 176 216
117 177 216
118 177 216
118 177 216
118 177 216
118 177 216
118 177 216
118 177 216
118 177 216
119 177 216
119 177 216
119 177 216
119 178 217
119 178 217
119 178 217
119 178 217
120 178 217
120 178 217
120 178 217
120 178 217
120 178 217
120 178 217
120 178 217
121 178 217
121 178 217
121 179 217
121 179 217
121 179 217
121 179 217
121 179 217
122 179 217
122 179 217
122 179 217
122 179 217
122 179 217
122 179 217
122 179 217
123 180 218
123 180 218
123 180 218
123 180 218
123 180 218
123 180 218
123 180 218
123 180 218
124 180 218
124 180 218
124 180 218
124 180 218
124 180 218
124 181 218
124 181 218
125 181 218
125 181 218
125 181 218
125 181 218
125 181 218
125 181 218
125 181 218
125 181 218
126 181 218
126 181 218
126 181 218
126 181 218
126 182 219
126 182 219
126 182 219
126 182 219
127 182 219
127 182 219
127 182 219
127 182 219
126 182 219
126 182 219
126 182 219
126 182 219
126 181 218
126 181 218
126 181 218
126 181 218
125 181 218
125 181 218
125 181 218
125 181 218
125 181 218
125 181 218
125 181 218
125 181 218
124 181 218
124 181 218
124 180 218
124 180 218
124 180 218
124 180 218
124 180 218
124 180 218
123 180 218
123 180 218
123 180 218
123 180 218
123 180 218
123 180 218
123 180 218
122 179 217
122 179 217
122 179 217
122 179 217
122 179 217
122 179 217
122 179 217
121 179 217
121 179 217
121 179 217
121 179 217
121 179 217
121 179 217
121 178 217
120 178 217
120 178 217
120 178 217
120 178 217
120 178 217
120 178 217
120 178 217
119 178 217
119 178 217
119 178 217
119 178 217
119 177 216
119 177 216
119 177 216
118 177 216
118 177 216
118 177 216
118 177 216
118 177 216
118 177 216
118 177 216
117 177 216
117 176 216
117 176 216
117 176 216
117 176 216
117 176 216
116 176 216
116 176 216
116 176 216
116 176 216
116 176 216
116 176 216
116 176 216
115 175 215
115 175 215
115 175 215
115 175 215
115 175 215
115 175 215
114 175 215
114 175 215
114 175 215
114 175 215
114 175 215
114 174 215
114 174 215
113 174 215
113 174 215
113 174 215
113 174 215
113 174 215
113 174 215
112 174 215
112 174 215
112 174 215
112 174 215
112 173 214
112 173 214
112 173 214
111 173 214
111 173 214
111 173 214
111 173 214
111 173 214
111 173 214
111 173 214
110 173 214
110 173 214
110 172 214
110 172 214
110 172 214
110 172 214
110 172 214
109 172 214
109 172 214
109 172 214
109 172 214
109 172 214
109 172 214
109 172 214
108 171 213
108 171 213
108 171 213
108 171 213
108 171 213
108 171 213
108 171 213
108 171 213
107 171 213
107 171 213
107 171 213
107 171 213
107 171 213
107 171 213
107 170 213
107 170 213
106 170 213
106 170 213
106 170 213
106 170 213
106 170 213
106 170 213
106 170 213
106 170 213
106 170 213
105 170 213
105 170 213
105 170 213
105 170 213
105 170 213
105 169 212
105 169 212
105 169 212
105 169 212
105 169 212
104 169 212
104 169 212
104 169 212
104 169 212
104 169 212
104 169 212
104 169 212
104 169 212
104 169 212
104 169 212
104 169 212
104 169 212
104 169 212
104 169 212
104 169 212
104 169 212
103 169 212
103 169 212
103 169 212
103 169 212
103 169 212
103 168 212
103 168 212
103 168 212
103 168 212
103 168 212
103 168 212
103 168 212
103 168 212
103 168 212
103 168 212
103 168 212
103 168 212
103 168 212
103 168 212
103 168 212
103 168 212
103 168 212
103 168 212
103 168 212
103 168 212
103 168 212
103 168 212
103 168 212
103 168 212
103 168 212
103 168 212
103 168 212
103 168 212
103 168 212
103 168 212
103 169 212
103 169 212
103 169 212
103 169 212
103 169 212
103 169 212
104 169 212
104 169 212
104 169 212
104 169 212
104 169 212
104 169 212
104 169 212
104 169 212
104 169 212
104 169 212
104 169 212
104 169 212
104 169 212
104 169 212
105 169 212
105 169 212
105 169 212
105 169 212
105 169 212
105 169 212
105 170 213
105 170 213
105 170 213
105 170 213
105 170 213
106 170 213
106 170 213
106 170 213
106 170 213
106 170 213
106 170 213
106 170 213
106 170 213
106 170 213
107 170 213
107 170 213
107 171 213
107 171 213
107 171 213
107 171 213
107 171 213
107 171 213
107 171 213
108 171 213
108 171 213
108 171 213
108 171 213
108 171 213
108 171 213
108 171 213
109 172 214
109 172 214
109 172 214
109 172 214
109 172 214
109 172 214
109 172 214
110 172 214
110 172 214
110 172 214
110 172 214
110 172 214
110 172 214
110 173 214
111 173 214
111 173 214
111 173 214
111 173 214
111 173 214
111 173 214
111 173 214
112 173 214
112 173 214
112 173 214
112 174 215
112 174 215
112 174 215
112 174 215
113 174 215
113 174 215
113 174 215
113 174 215
113 174 215
113 174 215
114 174 215
114 174 215
114 175 215
114 175 215
114 175 215
114 175 215
115 175 215
115 175 215
115 175 215
115 175 215
115 175 215
115 175 215
115 175 215
116 176 216
116 176 216
116 176 216
116 176 216
116 176 216
116 176 216
116 176 216
117 176 216
117 176 216
117 176 216
117 176 216
117 176 216
117 177 216
118 177 216
118 177 216
118 177 216
118 177 216
118 177 216
118 177 216
118 177 216
119 177 216
119 177 216
119 177 216
119 178 217
119 178 217
119 178 217
119 178 217
120 178 217
120 178 217
120 178 217
120 178 217
120 178 217
120 178 217
120 178 217
121 178 217
121 179 217
121 179 217
121 179 217
121 179 217
121 179 217
121 179 217
122 179 217
122 179 217
122 179 217
122 179 217
122 179 217
122 179 217
122 179 217
123 180 218
123 180 218
123 180 218
123 180 218
123 180 218
123 180 218
123 180 218
124 180 218
124 180 218
124 180 218
124 180 218
124 180 218
124 180 218
124 181 218
124 181 218
125 181 218
125 181 218
125 181 218
125 181 218
125 181 218
125 181 218
125 181 218
125 181 218
126 181 218
126 181 218
126 181 218
126 181 218
126 182 219
126 182 219
126 182 219
126 182 219
127 182 219
127 182 219
127 182 219
127 182 219
127 182 219
127 182 219
127 182 219
127 182 219
127 182 219
126 182 219
126 182 219
126 182 219
126 182 219
126 181 218
126 181 218
126 181 218
126 181 218
125 181 218
125 181 218
125 181 218
125 181 218
125 181 218
125 181 218
125 181 218
124 181 218
124 181 218
124 180 218
124 180 218
124 180 218
124 180 218
124 180 218
124 180 218
123 180 218
123 180 218
123 180 218
123 180 218
123 180 218
123 180 218
123 180 218
122 179 217
122 179 217
122 179 217
122 179 217
122 179 217
122 179 217
122 179 217
121 179 217
121 179 217
121 179 217
121 179 217
121 179 217
121 179 217
121 178 217
120 178 217
120 178 217
120 178 217
120 178 217
120 178 217
120 178 217
120 178 217
119 178 217
119 178 217
119 178 217
119 178 217
119 177 216
119 177 216
119 177 216
118 177 216
118 177 216
118 177 216
118 177 216
118 177 216
118 177 216
118 177 216
117 177 216
117 176 216
117 176 216
117 176 216
117 176 216
117 176 216
116 176 216
116 176 216
116 176 216
116 176 216
116 176 216
116 176 216
116 176 216
115 175 215
115 175 215
115 175 215
115 175 215
115 175 215
115 175 215
114 175 215
114 175 215
114 175 215
114 175 215
114 175 215
114 174 215
114 174 215
113 174 215
113 174 215
113 174 215
113 174 215
113 174 215
113 174 215
112 174 215
112 174 215
112 174 215
112 174 215
112 173 214
112 173 214
112 173 214
111 173 214
111 173 214
111 173 214
111 173 214
111 173 214
111 173 214
111 173 214
110 173 214
110 173 214
110 172 214
110 172 214
110 172 214
110 172 214
110 172 214
109 172 214
109 172 214
109 172 214
109 172 214
109 172 214
109 172 214
109 172 214
108 171 213
108 171 213
108 171 213
108 171 213
108 171 213
108 171 213
108 171 213
108 171 213
107 171 213
107 171 213
107 171 213
107 171 213
107 171 213
107 171 213
107 170 213
107 170 213
106 170 213
106 170 213
106 170 213
106 170 213
106 170 213
106 170 213
106 170 213
106 170 213
106 170 213
106 170 213
105 170 213
105 170 213
105 170 213
105 170 213
105 170 213
105 169 212
105 169 212
105 169 212
105 169 212
105 169 212
105 169 212
104 169 212
104 169 212
104 169 212
104 169 212
104 169 212
104 169 212
104 169 212
104 169 212
104 169 212
104 169 212
104 169 212
104 169 212
104 169 212
104 169 212
104 169 212
104 169 212
104 169 212
104 169 212
103 169 212
103 169 212
103 169 212
103 169 212
103 169 212
103 169 212
103 169 212
103 169 212
103 169 212
103 169 212
103 169 212
103 169 212
103 169 212
103 169 212
103 169 212
103 169 212
103 169 212
103 169 212
103 169 212
103 169 212
103 169 212
103 169 212
103 169 212
103 169 212
103 169 212
103 169 212
103 169 212
104 169 212
104 169 212
104 169 212
104 169 212
104 169 212
104 169 212
104 169 212
104 169 212
104 169 212
104 169 212
104 169 212
104 169 212
104 169 212
104 169 212
104 169 212
104 169 212
104 169 212
104 169 212
104 169 212
105 169 212
105 169 212
105 169 212
105 169 212
105 169 212
105 169 212
105 170 213
105 170 213
105 170 213
105 170 213
105 170 213
106 170 213
106 170 213
106 170 213
106 170 213
106 170 213
106 170 213
106 170 213
106 170 213
106 170 213
106 170 213
107 170 213
107 170 213
107 171 213
107 171 213
107 171 213
107 171 213
107 171 213
107 171 213
108 171 213
108 171 213
108 171 213
108 171 213
108 171 213
108 171 213
108 171 213
108 171 213
109 172 214
109 172 214
109 172 214
109 172 214
109 172 214
109 172 214
109 172 214
110 172 214
110 172 214
110 172 214
110 172 214
110 172 214
110 173 214
110 173 214
111 173 214
111 173 214
111 173 214
111 173 214
111 173 214
111 173 214
111 173 214
112 173 214
112 173 214
112 173 214
112 174 215
112 174 215
112 174 215
113 174 215
113 174 215
113 174 215
113 174 215
113 174 215
113 174 215
113 174 215
114 174 215
114 174 215
114 175 215
114 175 215
114 175 215
114 175 215
115 175 215
115 175 215
115 175 215
115 175 215
115 175 215
115 175 215
115 175 215
116 176 216
116 176 216
116 176 216
116 176 216
116 176 216
116 176 216
116 176 216
117 176 216
117 176 216
117 176 216
117 176 216
117 176 216
117 177 216
118 177 216
118 177 216
118 177 216
118 177 216
118 177 216
118 177 216
118 177 216
119 177 216
119 177 216
119 177 216
119 178 217
119 178 217
119 178 217
119 178 217
120 178 217
120 178 217
120 178 217
120 178 217
120 178 217
120 178 217
120 178 217
121 178 217
121 179 217
121 179 217
121 179 217
121 179 217
121 179 217
121 179 217
122 179 217
122 179 217
122 179 217
122 179 217
122 179 217
122 179 217
122 179 217
123 180 218
123 180 218
123 180 218
123 180 218
123 180 218
123 180 218
123 180 218
124 180 218
124 180 218
124 180 218
124 180 218
124 180 218
124 180 218
124 181 218
124 181 218
125 181 218
125 181 218
125 181 218
125 181 218
125 181 218
125 181 218
125 181 218
126 181 218
126 181 218
126 181 218
126 181 218
126 182 219
126 182 219
126 182 219
126 182 219
126 182 219
127 182 219
127 182 219
127 182 219
127 182 219
127 182 219
127 182 219
127 182 219
127 182 219
127 182 219
127 182 219
127 182 219
127 182 219
127 182 219
126 182 219
126 182 219
126 182 219
126 182 219
126 181 218
126 181 218
126 181 218
126 181 218
125 181 218
125 181 218
125 181 218
125 181 218
125 181 218
125 181 218
125 181 218
125 181 218
124 181 218
124 180 218
124 180 218
124 180 218
124 180 218
124 180 218
124 180 218
123 180 218
123 180 218
123 180 218
123 180 218
123 180 218
123 180 218
123 180 218
122 179 217
122 179 217
122 179 217
122 179 217
122 179 217
122 179 217
122 179 217
122 179 217
121 179 217
121 179 217
121 179 217
121 179 217
121 179 217
121 178 217
121 178 217
120 178 217
120 178 217
120 178 217
120 178 217
120 178 217
120 178 217
119 178 217
119 178 217
119 178 217
119 178 217
119 177 216
119 177 216
119 177 216
118 177 216
118 177 216
118 177 216
118 177 216
118 177 216
118 177 216
118 177 216
117 177 216
117 177 216
117 176 216
117 176 216
117 176 216
117 176 216
117 176 216
116 176 216
116 176 216
116 176 216
116 176 216
116 176 216
116 176 216
115 175 215
115 175 215
115 175 215
115 175 215
115 175 215
115 175 215
115 175 215
114 175 215
114 175 215
114 175 215
114 175 215
114 174 215
114 174 215
113 174 215
113 174 215
113 174 215
113 174 215
113 174 215
113 174 215
113 174 215
112 174 215
112 174 215
112 174 215
112 173 214
112 173 214
112 173 214
111 173 214
111 173 214
111 173 214
111 173 214
111 173 214
111 173 214
111 173 214
110 173 214
110 173 214
110 172 214
110 172 214
110 172 214
110 172 214
110 172 214
109 172 214
109 172 214
109 172 214
109 172 214
109 172 214
109 172 214
109 172 214
108 171 213
108 171 213
108 171 213
108 171 213
108 171 213
108 171 213
108 171 213
108 171 213
108 171 213
107 171 213
107 171 213
107 171 213
107 171 213
107 171 213
107 171 213
107 170 213
107 170 213
106 170 213
106 170 213
106 170 213
106 170 213
106 170 213
106 170 213
106 170 213
106 170 213
106 170 213
106 170 213
105 170 213
105 170 213
105 170 213
105 170 213
105 170 213
105 170 213
105 169 212
105 169 212
105 169 212
105 169 212
105 169 212
105 169 212
104 169 212
104 169 212
104 169 212
104 169 212
104 169 212
104 169 212
104 169 212
104 169 212
104 169 212
104 169 212
104 169 212
104 169 212
104 169 212
104 169 212
104 169 212
104 169 212
104 169 212
104 169 212
104 169 212
104 169 212
104 169 212
104 169 212
104 169 212
104 169 212
104 169 212
104 169 212
104 169 212
104 169 212
104 169 212
104 169 212
104 169 212
104 169 212
104 169 212
104 169 212
104 169 212
104 169 212
104 169 212
104 169 212
104 169 212
104 169 212
104 169 212
104 169 212
104 169 212
104 169 212
104 169 212
104 169 212
104 169 212
104 169 212
104 169 212
104 169 212
104 169 212
104 169 212
104 169 212
104 169 212
104 169 212
104 169 212
105 169 212
105 169 212
105 169 212
105 169 212
105 169 212
105 169 212
105 170 213
105 170 213
105 170 213
105 170 213
105 170 213
105 170 213
106 170 213
106 170 213
106 170 213
106 170 213
106 170 213
106 170 213
106 170 213
106 170 213
106 170 213
106 170 213
107 170 213
107 170 213
107 171 213
107 171 213
107 171 213
107 171 213
107 171 213
107 171 213
107 171 213
108 171 213
108 171 213
108 171 213
108 171 213
108 171 213
108 171 213
108 171 213
109 172 214
109 172 214
109 172 214
109 172 214
109 172 214
109 172 214
109 172 214
109 172 214
110 172 214
110 172 214
110 172 214
110 172 214
110 172 214
110 173 214
110 173 214
111 173 214
111 173 214
111 173 214
111 173 214
111 173 214
111 173 214
111 173 214
112 173 214
112 173 214
112 173 214
112 174 215
112 174 215
112 174 215
113 174 215
113 174 215
113 174 215
113 174 215
113 174 215
113 174 215
113 174 215
114 174 215
114 174 215
114 175 215
114 175 215
114 175 215
114 175 215
114 175 215
115 175 215
115 175 215
115 175 215
115 175 215
115 175 215
115 175 215
116 176 216
116 176 216
116 176 216
116 176 216
116 176 216
116 176 216
116 176 216
117 176 216
117 176 216
117 176 216
117 176 216
117 177 216
117 177 216
118 177 216
118 177 216
118 177 216
118 177 216
118 177 216
118 177 216
118 177 216
119 177 216
119 177 216
119 177 216
119 178 217
119 178 217
119 178 217
119 178 217
120 178 217
120 178 217
120 178 217
120 178 217
120 178 217
120 178 217
121 178 217
121 178 217
121 179 217
121 179 217
121 179 217
121 179 217
121 179 217
122 179 217
122 179 217
122 179 217
122 179 217
122 179 217
122 179 217
122 179 217
122 179 217
123 180 218
123 180 218
123 180 218
123 180 218
123 180 218
123 180 218
123 180 218
124 180 218
124 180 218
124 180 218
124 180 218
124 180 218
124 181 218
124 181 218
125 181 218
125 181 218
125 181 218
125 181 218
125 181 218
125 181 218
125 181 218
125 181 218
126 181 218
126 181 218
126 181 218
126 181 218
126 182 219
126 182 219
126 182 219
126 182 219
127 182 219
127 182 219
127 182 219
127 182 219
127 182 219
127 182 219
127 182 219
127 182 219
128 182 219
128 182 219
127 182 219
127 182 219
127 182 219
127 182 219
127 182 219
127 182 219
127 182 219
127 182 219
126 182 219
126 182 219
126 182 219
126 182 219
126 181 218
126 181 218
126 181 218
126 181 218
125 181 218
125 181 218
125 181 218
125 181 218
125 181 218
125 181 218
125 181 218
125 181 218
124 181 218
124 181 218
124 180 218
124 180 218
124 180 218
124 180 218
124 180 218
123 180 218
123 180 218
123 180 218
123 180 218
123 180 218
123 180 218
123 180 218
123 180 218
122 179 217
122 179 217
122 179 217
122 179 217
122 179 217
122 179 217
122 179 217
121 179 217
121 179 217
121 179 217
121 179 217
121 179 217
121 178 217
121 178 217
120 178 217
120 178 217
120 178 217
120 178 217
120 178 217
120 178 217
119 178 217
119 178 217
119 178 217
119 178 217
119 177 216
119 177 216
119 177 216
118 177 216
118 177 216
118 177 216
118 177 216
118 177 216
118 177 216
118 177 216
117 177 216
117 177 216
117 176 216
117 176 216
117 176 216
117 176 216
117 176 216
116 176 216
116 176 216
116 176 216
116 176 216
116 176 216
116 176 216
115 175 215
115 175 215
115 175 215
115 175 215
115 175 215
115 175 215
115 175 215
114 175 215
114 175 215
114 175 215
114 175 215
114 174 215
114 174 215
113 174 215
113 174 215
113 174 215
113 174 215
113 174 215
113 174 215
113 174 215
112 174 215
112 174 215
112 174 215
112 173 214
112 173 214
112 173 214
111 173 214
111 173 214
111 173 214
111 173 214
111 173 214
111 173 214
111 173 214
110 173 214
110 173 214
110 172 214
110 172 214
110 172 214
110 172 214
110 172 214
109 172 214
109 172 214
109 172 214
109 172 214
109 172 214
109 172 214
109 172 214
109 172 214
108 171 213
108 171 213
108 171 213
108 171 213
108 171 213
108 171 213
108 171 213
108 171 213
107 171 213
107 171 213
107 171 213
107 171 213
107 171 213
107 171 213
107 170 213
107 170 213
107 170 213
106 170 213
106 170 213
106 170 213
106 170 213
106 170 213
106 170 213
106 170 213
106 170 213
106 170 213
106 170 213
105 170 213
105 170 213
105 170 213
105 170 213
105 170 213
105 170 213
105 169 212
105 169 212
105 169 212
105 169 212
105 169 212
105 169 212
105 169 212
105 169 212
105 169 212
104 169 212
104 169 212
104 169 212
104 169 212
104 169 212
104 169 212
104 169 212
104 169 212
104 169 212
104 169 212
104 169 212
104 169 212
104 169 212
104 169 212
104 169 212
104 169 212
104 169 212
104 169 212
104 169 212
104 169 212
104 169 212
104 169 212
104 169 212
104 169 212
104 169 212
104 169 212
104 169 212
104 169 212
104 169 212
104 169 212
104 169 212
104 169 212
104 169 212
104 169 212
104 169 212
104 169 212
104 169 212
104 169 212
104 169 212
104 169 212
104 169 212
104 169 212
104 169 212
104 169 212
104 169 212
105 169 212
105 169 212
105 169 212
105 169 212
105 169 212
105 169 212
105 169 212
105 170 213
105 170 213
105 170 213
105 170 213
105 170 213
105 170 213
105 170 213
106 170 213
106 170 213
106 170 213
106 170 213
106 170 213
106 170 213
106 170 213
106 170 213
106 170 213
106 170 213
107 170 213
107 170 213
107 171 213
107 171 213
107 171 213
107 171 213
107 171 213
107 171 213
107 171 213
108 171 213
108 171 213
108 171 213
108 171 213
108 171 213
108 171 213
108 171 213
108 171 213
109 172 214
109 172 214
109 172 214
109 172 214
109 172 214
109 172 214
109 172 214
109 172 214
110 172 214
110 172 214
110 172 214
110 172 214
110 172 214
110 173 214
110 173 214
111 173 214
111 173 214
111 173 214
111 173 214
111 173 214
111 173 214
112 173 214
112 173 214
112 173 214
112 173 214
112 174 215
112 174 215
112 174 215
113 174 215
113 174 215
113 174 215
113 174 215
113 174 215
113 174 215
113 174 215
114 174 215
114 174 215
114 175 215
114 175 215
114 175 215
114 175 215
114 175 215
115 175 215
115 175 215
115 175 215
115 175 215
115 175 215
115 175 215
116 176 216
116 176 216
116 176 216
116 176 216
116 176 216
116 176 216
117 176 216
117 176 216
117 176 216
117 176 216
117 176 216
117 177 216
117 177 216
118 177 216
118 177 216
118 177 216
118 177 216
118 177 216
118 177 216
118 177 216
119 177 216
119 177 216
119 177 216
119 178 217
119 178 217
119 178 217
120 178 217
120 178 217
120 178 217
120 178 217
120 178 217
120 178 217
120 178 217
121 178 217
121 178 217
121 179 217
121 179 217
121 179 217
121 179 217
121 179 217
122 179 217
122 179 217
122 179 217
122 179 217
122 179 217
122 179 217
122 179 217
123 180 218
123 180 218
123 180 218
123 180 218
123 180 218
123 180 218
123 180 218
123 180 218
124 180 218
124 180 218
124 180 218
124 180 218
124 180 218
124 181 218
124 181 218
125 181 218
125 181 218
125 181 218
125 181 218
125 181 218
125 181 218
125 181 218
125 181 218
126 181 218
126 181 218
126 181 218
126 181 218
126 182 219
126 182 219
126 182 219
126 182 219
127 182 219
127 182 219
127 182 219
127 182 219
127 182 219
127 182 219
127 182 219
127 182 219
128 182 219
128 182 219
128 183 219
128 183 219
128 182 219
128 182 219
127 182 219
127 182 219
127 182 219
127 182 219
127 182 219
127 182 219
127 182 219
127 182 219
127 182 219
126 182 219
126 182 219
126 182 219
126 182 219
126 181 218
126 181 218
126 181 218
125 181 218
125 181 218
125 181 218
125 181 218
125 181 218
125 181 218
125 181 218
125 181 218
124 181 218
124 181 218
124 180 218
124 180 218
124 180 218
124 180 218
124 180 218
124 180 218
123 180 218
123 180 218
123 180 218
123 180 218
123 180 218
123 180 218
123 180 218
122 179 217
122 179 217
122 179 217
122 179 217
122 179 217
122 179 217
122 179 217
121 179 217
121 179 217
121 179 217
121 179 217
121 179 217
121 178 217
121 178 217
120 178 217
120 178 217
120 178 217
120 178 217
120 178 217
120 178 217
120 178 217
119 178 217
119 178 217
119 178 217
119 177 216
119 177 216
119 177 216
118 177 216
118 177 216
118 177 216
118 177 216
118 177 216
118 177 216
118 177 216
117 177 216
117 177 216
117 176 216
117 176 216
117 176 216
117 176 216
117 176 216
116 176 216
116 176 216
116 176 216
116 176 216
116 176 216
116 176 216
115 175 215
115 175 215
115 175 215
115 175 215
115 175 215
115 175 215
115 175 215
114 175 215
114 175 215
114 175 215
114 175 215
114 175 215
114 174 215
113 174 215
113 174 215
113 174 215
113 174 215
113 174 215
113 174 215
113 174 215
112 174 215
112 174 215
112 174 215
112 173 214
112 173 214
112 173 214
112 173 214
111 173 214
111 173 214
111 173 214
111 173 214
111 173 214
111 173 214
111 173 214
110 173 214
110 172 214
110 172 214
110 172 214
110 172 214
110 172 214
110 172 214
109 172 214
109 172 214
109 172 214
109 172 214
109 172 214
109 172 214
109 172 214
109 172 214
108 171 213
108 171 213
108 171 213
108 171 213
108 171 213
108 171 213
108 171 213
108 171 213
107 171 213
107 171 213
107 171 213
107 171 213
107 171 213
107 171 213
107 170 213
107 170 213
107 170 213
106 170 213
106 170 213
106 170 213
106 170 213
106 170 213
106 170 213
106 170 213
106 170 213
106 170 213
106 170 213
106 170 213
105 170 213
105 170 213
105 170 213
105 170 213
105 170 213
105 170 213
105 170 213
105 169 212
105 169 212
105 169 212
105 169 212
105 169 212
105 169 212
105 169 212
105 169 212
105 169 212
105 169 212
104 169 212
104 169 212
104 169 212
104 169 212
104 169 212
104 169 212
104 169 212
104 169 212
104 169 212
104 169 212
104 169 212
104 169 212
104 169 212
104 169 212
104 169 212
104 169 212
104 169 212
104 169 212
104 169 212
104 169 212
104 169 212
104 169 212
104 169 212
104 169 212
104 169 212
104 169 212
104 169 212
104 169 212
104 169 212
104 169 212
104 169 212
104 169 212
104 169 212
105 169 212
105 169 212
105 169 212
105 169 212
105 169 212
105 169 212
105 169 212
105 169 212
105 169 212
105 170 213
105 170 213
105 170 213
105 170 213
105 170 213
105 170 213
105 170 213
106 170 213
106 170 213
106 170 213
106 170 213
106 170 213
106 170 213
106 170 213
106 170 213
106 170 213
106 170 213
106 170 213
107 170 213
107 170 213
107 170 213
107 171 213
107 171 213
107 171 213
107 171 213
107 171 213
107 171 213
108 171 213
108 171 213
108 171 213
108 171 213
108 171 213
108 171 213
108 171 213
108 171 213
108 171 213
109 172 214
109 172 214
109 172 214
109 172 214
109 172 214
109 172 214
109 172 214
110 172 214
110 172 214
110 172 214
110 172 214
110 172 214
110 172 214
110 173 214
111 173 214
111 173 214
111 173 214
111 173 214
111 173 214
111 173 214
111 173 214
112 173 214
112 173 214
112 173 214
112 173 214
112 174 215
112 174 215
112 174 215
113 174 215
113 174 215
113 174 215
113 174 215
113 174 215
113 174 215
113 174 215
114 174 215
114 175 215
114 175 215
114 175 215
114 175 215
114 175 215
115 175 215
115 175 215
115 175 215
115 175 215
115 175 215
115 175 215
115 175 215
116 176 216
116 176 216
116 176 216
116 176 216
116 176 216
116 176 216
117 176 216
117 176 216
117 176 216
117 176 216
117 176 216
117 177 216
117 177 216
118 177 216
118 177 216
118 177 216
118 177 216
118 177 216
118 177 216
118 177 216
119 177 216
119 177 216
119 177 216
119 178 217
119 178 217
119 178 217
120 178 217
120 178 217
120 178 217
120 178 217
120 178 217
120 178 217
120 178 217
121 178 217
121 178 217
121 179 217
121 179 217
121 179 217
121 179 217
121 179 217
122 179 217
122 179 217
122 179 217
122 179 217
122 179 217
122 179 217
122 179 217
123 180 218
123 180 218
123 180 218
123 180 218
123 180 218
123 180 218
123 180 218
124 180 218
124 180 218
124 180 218
124 180 218
124 180 218
124 180 218
124 181 218
124 181 218
125 181 218
125 181 218
125 181 218
125 181 218
125 181 218
125 181 218
125 181 218
125 181 218
126 181 218
126 181 218
126 181 218
126 182 219
126 182 219
126 182 219
126 182 219
127 182 219
127 182 219
127 182 219
127 182 219
127 182 219
127 182 219
127 182 219
127 182 219
128 182 219
128 182 219
128 182 219
128 183 219
128 183 219
128 183 219
128 183 219
128 183 219
128 183 219
128 183 219
128 182 219
128 182 219
127 182 219
127 182 219
127 182 219
127 182 219
127 182 219
127 182 219
127 182 219
127 182 219
126 182 219
126 182 219
126 182 219
126 182 219
126 181 218
126 181 218
126 181 218
126 181 218
125 181 218
125 181 218
125 181 218
125 181 218
125 181 218
125 181 218
125 181 218
124 181 218
124 181 218
124 180 218
124 180 218
124 180 218
124 180 218
124 180 218
124 180 218
123 180 218
123 180 218
123 180 218
123 180 218
123 180 218
123 180 218
123 180 218
122 179 217
122 179 217
122 179 217
122 179 217
122 179 217
122 179 217
122 179 217
121 179 217
121 179 217
121 179 217
121 179 217
121 179 217
121 178 217
121 178 217
120 178 217
120 178 217
120 178 217
120 178 217
120 178 217
120 178 217
120 178 217
119 178 217
119 178 217
119 178 217
119 177 216
119 177 216
119 177 216
118 177 216
118 177 216
118 177 216
118 177 216
118 177 216
118 177 216
118 177 216
117 177 216
117 177 216
117 176 216
117 176 216
117 176 216
117 176 216
117 176 216
116 176 216
116 176 216
116 176 216
116 176 216
116 176 216
116 176 216
115 175 215
115 175 215
115 175 215
115 175 215
115 175 215
115 175 215
115 175 215
114 175 215
114 175 215
114 175 215
114 175 215
114 175 215
114 174 215
113 174 215
113 174 215
113 174 215
113 174 215
113 174 215
113 174 215
113 174 215
112 174 215
112 174 215
112 174 215
112 173 214
112 173 214
112 173 214
112 173 214
111 173 214
111 173 214
111 173 214
111 173 214
111 173 214
111 173 214
111 173 214
110 173 214
110 173 214
110 172 214
110 172 214
110 172 214
110 172 214
110 172 214
109 172 214
109 172 214
109 172 214
109 172 214
109 172 214
109 172 214
109 172 214
109 172 214
108 171 213
108 171 213
108 171 213
108 171 213
108 171 213
108 171 213
108 171 213
108 171 213
107 171 213
107 171 213
107 171 213
107 171 213
107 171 213
107 171 213
107 171 213
107 171 213
107 170 213
107 170 213
106 170 213
106 170 213
106 170 213
106 170 213
106 170 213
106 170 213
106 170 213
106 170 213
106 170 213
106 170 213
106 170 213
106 170 213
105 170 213
105 170 213
105 170 213
105 170 213
105 170 213
105 170 213
105 170 213
105 170 213
105 169 212
105 169 212
105 169 212
105 169 212
105 169 212
105 169 212
105 169 212
105 169 212
105 169 212
105 169 212
105 169 212
105 169 212
105 169 212
105 169 212
105 169 212
104 169 212
104 169 212
104 169 212
104 169 212
104 169 212
104 169 212
104 169 212
104 169 212
104 169 212
104 169 212
104 169 212
105 169 212
104 169 212
105 169 212
105 169 212
105 169 212
105 169 212
105 169 212
105 169 212
105 169 212
105 169 212
105 169 212
105 169 212
105 169 212
105 169 212
105 169 212
105 170 213
105 170 213
105 170 213
105 170 213
105 170 213
105 170 213
105 170 213
105 170 213
105 170 213
106 170 213
106 170 213
106 170 213
106 170 213
106 170 213
106 170 213
106 170 213
106 170 213
106 170 213
106 170 213
106 170 213
106 170 213
107 170 213
107 170 213
107 170 213
107 171 213
107 171 213
107 171 213
107 171 213
107 171 213
107 171 213
107 171 213
108 171 213
108 171 213
108 171 213
108 171 213
108 171 213
108 171 213
108 171 213
108 171 213
109 172 214
109 172 214
109 172 214
109 172 214
109 172 214
109 172 214
109 172 214
109 172 214
110 172 214
110 172 214
110 172 214
110 172 214
110 172 214
110 173 214
110 173 214
111 173 214
111 173 214
111 173 214
111 173 214
111 173 214
111 173 214
111 173 214
112 173 214
112 173 214
112 173 214
112 173 214
112 174 215
112 174 215
112 174 215
113 174 215
113 174 215
113 174 215
113 174 215
113 174 215
113 174 215
113 174 215
114 174 215
114 175 215
114 175 215
114 175 215
114 175 215
114 175 215
115 175 215
115 175 215
115 175 215
115 175 215
115 175 215
115 175 215
115 175 215
116 176 216
116 176 216
116 176 216
116 176 216
116 176 216
116 176 216
117 176 216
117 176 216
117 176 216
117 176 216
117 176 216
117 177 216
117 177 216
118 177 216
118 177 216
118 177 216
118 177 216
118 177 216
118 177 216
119 177 216
119 177 216
119 177 216
119 177 216
119 178 217
119 178 217
119 178 217
120 178 217
120 178 217
120 178 217
120 178 217
120 178 217
120 178 217
120 178 217
121 178 217
121 178 217
121 179 217
121 179 217
121 179 217
121 179 217
121 179 217
122 179 217
122 179 217
122 179 217
122 179 217
122 179 217
122 179 217
122 179 217
123 180 218
123 180 218
123 180 218
123 180 218
123 180 218
123 180 218
123 180 218
124 180 218
124 180 218
124 180 218
124 180 218
124 180 218
124 180 218
124 181 218
124 181 218
125 181 218
125 181 218
125 181 218
125 181 218
125 181 218
125 181 218
125 181 218
126 181 218
126 181 218
126 181 218
126 181 218
126 182 219
126 182 219
126 182 219
126 182 219
127 182 219
127 182 219
127 182 219
127 182 219
127 182 219
127 182 219
127 182 219
127 182 219
128 182 219
128 182 219
128 183 219
128 183 219
128 183 219
128 183 219
128 183 219
129 183 219
128 183 219
128 183 219
128 183 219
128 183 219
128 183 219
128 183 219
128 182 219
128 182 219
127 182 219
127 182 219
127 182 219
127 182 219
127 182 219
127 182 219
127 182 219
127 182 219
126 182 219
126 182 219
126 182 219
126 182 219
126 181 218
126 181 218
126 181 218
126 181 218
125 181 218
125 181 218
125 181 218
125 181 218
125 181 218
125 181 218
125 181 218
125 181 218
124 181 218
124 181 218
124 180 218
124 180 218
124 180 218
124 180 218
124 180 218
123 180 218
123 180 218
123 180 218
123 180 218
123 180 218
123 180 218
123 180 218
122 179 217
122 179 217
122 179 217
122 179 217
122 179 217
122 179 217
122 179 217
121 179 217
121 179 217
121 179 217
121 179 217
121 179 217
121 179 217
121 178 217
120 178 217
120 178 217
120 178 217
120 178 217
120 178 217
120 178 217
120 178 217
119 178 217
119 178 217
119 178 217
119 177 216
119 177 216
119 177 216
119 177 216
118 177 216
118 177 216
118 177 216
118 177 216
118 177 216
118 177 216
117 177 216
117 177 216
117 176 216
117 176 216
117 176 216
117 176 216
117 176 216
116 176 216
116 176 216
116 176 216
116 176 216
116 176 216
116 176 216
115 175 215
115 175 215
115 175 215
115 175 215
115 175 215
115 175 215
115 175 215
114 175 215
114 175 215
114 175 215
114 175 215
114 175 215
114 174 215
113 174 215
113 174 215
113 174 215
113 174 215
113 174 215
113 174 215
113 174 215
112 174 215
112 174 215
112 174 215
112 174 215
112 173 214
112 173 214
112 173 214
111 173 214
111 173 214
111 173 214
111 173 214
111 173 214
111 173 214
111 173 214
110 173 214
110 173 214
110 172 214
110 172 214
110 172 214
110 172 214
110 172 214
110 172 214
109 172 214
109 172 214
109 172 214
109 172 214
109 172 214
109 172 214
109 172 214
109 172 214
108 171 213
108 171 213
108 171 213
108 171 213
108 171 213
108 171 213
108 171 213
108 171 213
107 171 213
107 171 213
107 171 213
107 171 213
107 171 213
107 171 213
107 171 213
107 171 213
107 170 213
107 170 213
107 170 213
106 170 213
106 170 213
106 170 213
106 170 213
106 170 213
106 170 213
106 170 213
106 170 213
106 170 213
106 170 213
106 170 213
106 170 213
106 170 213
105 170 213
105 170 213
105 170 213
105 170 213
105 170 213
105 170 213
105 170 213
105 170 213
105 170 213
105 170 213
105 169 212
105 169 212
105 169 212
105 169 212
105 169 212
105 169 212
105 169 212
105 169 212
105 169 212
105 169 212
105 169 212
105 169 212
105 169 212
105 169 212
105 169 212
105 169 212
105 169 212
105 169 212
105 169 212
105 169 212
105 169 212
105 169 212
105 169 212
105 169 212
105 169 212
105 169 212
105 169 212
105 169 212
105 170 213
105 170 213
105 170 213
105 170 213
105 170 213
105 170 213
105 170 213
105 170 213
105 170 213
105 170 213
106 170 213
106 170 213
106 170 213
106 170 213
106 170 213
106 170 213
106 170 213
106 170 213
106 170 213
106 170 213
106 170 213
106 170 213
106 170 213
107 170 213
107 170 213
107 170 213
107 171 213
107 171 213
107 171 213
107 171 213
107 171 213
107 171 213
107 171 213
107 171 213
108 171 213
108 171 213
108 171 213
108 171 213
108 171 213
108 171 213
108 171 213
108 171 213
109 172 214
109 172 214
109 172 214
109 172 214
109 172 214
109 172 214
109 172 214
109 172 214
110 172 214
110 172 214
110 172 214
110 172 214
110 172 214
110 172 214
110 173 214
110 173 214
111 173 214
111 173 214
111 173 214
111 173 214
111 173 214
111 173 214
111 173 214
112 173 214
112 173 214
112 173 214
112 174 215
112 174 215
112 174 215
112 174 215
113 174 215
113 174 215
113 174 215
113 174 215
113 174 215
113 174 215
114 174 215
114 174 215
114 175 215
114 175 215
114 175 215
114 175 215
114 175 215
115 175 215
115 175 215
115 175 215
115 175 215
115 175 215
115 175 215
115 175 215
116 176 216
116 176 216
116 176 216
116 176 216
116 176 216
116 176 216
117 176 216
117 176 216
117 176 216
117 176 216
117 176 216
117 177 216
117 177 216
118 177 216
118 177 216
118 177 216
118 177 216
118 177 216
118 177 216
119 177 216
119 177 216
119 177 216
119 177 216
119 178 217
119 178 217
119 178 217
120 178 217
120 178 217
120 178 217
120 178 217
120 178 217
120 178 217
120 178 217
121 178 217
121 178 217
121 179 217
121 179 217
121 179 217
121 179 217
121 179 217
122 179 217
122 179 217
122 179 217
122 179 217
122 179 217
122 179 217
122 179 217
123 180 218
123 180 218
123 180 218
123 180 218
123 180 218
123 180 218
123 180 218
124 180 218
124 180 218
124 180 218
124 180 218
124 180 218
124 181 218
124 181 218
125 181 218
125 181 218
125 181 218
125 181 218
125 181 218
125 181 218
125 181 218
125 181 218
126 181 218
126 181 218
126 181 218
126 181 218
126 182 219
126 182 219
126 182 219
126 182 219
127 182 219
127 182 219
127 182 219
127 182 219
127 182 219
127 182 219
127 182 219
127 182 219
128 182 219
128 182 219
128 183 219
128 183 219
128 183 219
128 183 219
128 183 219
128 183 219
129 183 219
129 183 219
129 183 219
129 183 219
129 183 219
128 183 219
128 183 219
128 183 219
128 183 219
128 183 219
128 183 219
128 182 219
128 182 219
127 182 219
127 182 219
127 182 219
127 182 219
127 182 219
127 182 219
127 182 219
127 182 219
126 182 219
126 182 219
126 182 219
126 182 219
126 181 218
126 181 218
126 181 218
126 181 218
125 181 218
125 181 218
125 181 218
125 181 218
125 181 218
125 181 218
125 181 218
124 181 218
124 181 218
124 180 218
124 180 218
124 180 218
124 180 218
124 180 218
124 180 218
123 180 218
123 180 218
123 180 218
123 180 218
123 180 218
123 180 218
123 180 218
122 179 217
122 179 217
122 179 217
122 179 217
122 179 217
122 179 217
122 179 217
121 179 217
121 179 217
121 179 217
121 179 217
121 179 217
121 178 217
120 178 217
120 178 217
120 178 217
120 178 217
120 178 217
120 178 217
120 178 217
119 178 217
119 178 217
119 178 217
119 178 217
119 177 216
119 177 216
119 177 216
118 177 216
118 177 216
118 177 216
118 177 216
118 177 216
118 177 216
117 177 216
117 177 216
117 176 216
117 176 216
117 176 216
117 176 216
117 176 216
116 176 216
116 176 216
116 176 216
116 176 216
116 176 216
116 176 216
116 176 216
115 175 215
115 175 215
115 175 215
115 175 215
115 175 215
115 175 215
114 175 215
114 175 215
114 175 215
114 175 215
114 175 215
114 174 215
114 174 215
113 174 215
113 174 215
113 174 215
113 174 215
113 174 215
113 174 215
113 174 215
112 174 215
112 174 215
112 174 215
112 173 214
112 173 214
112 173 214
111 173 214
111 173 214
111 173 214
111 173 214
111 173 214
111 173 214
111 173 214
111 173 214
110 173 214
110 172 214
110 172 214
110 172 214
110 172 214
110 172 214
110 172 214
109 172 214
109 172 214
109 172 214
109 172 214
109 172 214
109 172 214
109 172 214
109 172 214
108 171 213
108 171 213
108 171 213
108 171 213
108 171 213
108 171 213
108 171 213
108 171 213
108 171 213
107 171 213
107 171 213
107 171 213
107 171 213
107 171 213
107 171 213
107 171 213
107 171 213
107 170 213
107 170 213
107 170 213
106 170 213
106 170 213
106 170 213
106 170 213
106 170 213
106 170 213
106 170 213
106 170 213
106 170 213
106 170 213
106 170 213
106 170 213
106 170 213
106 170 213
106 170 213
106 170 213
105 170 213
105 170 213
105 170 213
105 170 213
105 170 213
105 170 213
105 170 213
105 170 213
105 170 213
105 170 213
105 170 213
105 170 213
105 170 213
105 170 213
105 170 213
105 170 213
105 170 213
105 170 213
105 170 213
105 170 213
105 170 213
105 170 213
105 170 213
105 170 213
105 170 213
105 170 213
105 170 213
105 170 213
105 170 213
105 170 213
105 170 213
105 170 213
105 170 213
105 170 213
105 170 213
105 170 213
106 170 213
106 170 213
106 170 213
106 170 213
106 170 213
106 170 213
106 170 213
106 170 213
106 170 213
106 170 213
106 170 213
106 170 213
106 170 213
106 170 213
106 170 213
106 170 213
107 170 213
107 170 213
107 170 213
107 171 213
107 171 213
107 171 213
107 171 213
107 171 213
107 171 213
107 171 213
107 171 213
108 171 213
108 171 213
108 171 213
108 171 213
108 171 213
108 171 213
108 171 213
108 171 213
108 171 213
109 172 214
109 172 214
109 172 214
109 172 214
109 172 214
109 172 214
109 172 214
109 172 214
110 172 214
110 172 214
110 172 214
110 172 214
110 172 214
110 173 214
110 173 214
111 173 214
111 173 214
111 173 214
111 173 214
111 173 214
111 173 214
111 173 214
111 173 214
112 173 214
112 173 214
112 173 214
112 174 215
112 174 215
112 174 215
112 174 215
113 174 215
113 174 215
113 174 215
113 174 215
113 174 215
113 174 215
114 174 215
114 174 215
114 175 215
114 175 215
114 175 215
114 175 215
114 175 215
115 175 215
115 175 215
115 175 215
115 175 215
115 175 215
115 175 215
116 176 216
116 176 216
116 176 216
116 176 216
116 176 216
116 176 216
116 176 216
117 176 216
117 176 216
117 176 216
117 176 216
117 176 216
117 177 216
118 177 216
118 177 216
118 177 216
118 177 216
118 177 216
118 177 216
118 177 216
119 177 216
119 177 216
119 177 216
119 178 217
119 178 217
119 178 217
119 178 217
120 178 217
120 178 217
120 178 217
120 178 217
120 178 217
120 178 217
120 178 217
121 178 217
121 179 217
121 179 217
121 179 217
121 179 217
121 179 217
122 179 217
122 179 217
122 179 217
122 179 217
122 179 217
122 179 217
122 179 217
123 180 218
123 180 218
123 180 218
123 180 218
123 180 218
123 180 218
123 180 218
123 180 218
124 180 218
124 180 218
124 180 218
124 180 218
124 180 218
124 181 218
124 181 218
125 181 218
125 181 218
125 181 218
125 181 218
125 181 218
125 181 218
125 181 218
126 181 218
126 181 218
126 181 218
126 181 218
126 182 219
126 182 219
126 182 219
126 182 219
127 182 219
127 182 219
127 182 219
127 182 219
127 182 219
127 182 219
127 182 219
127 182 219
128 182 219
128 182 219
128 183 219
128 183 219
128 183 219
128 183 219
128 183 219
128 183 219
129 183 219
129 183 219
129 183 219
129 183 219
129 183 219
129 183 219
129 183 219
129 183 219
129 183 219
129 183 219
128 183 219
128 183 219
128 183 219
128 183 219
128 183 219
128 183 219
128 182 219
128 182 219
127 182 219
127 182 219
127 182 219
127 182 219
127 182 219
127 182 219
127 182 219
127 182 219
126 182 219
126 182 219
126 182 219
126 182 219
126 181 218
126 181 218
126 181 218
126 181 218
125 181 218
125 181 218
125 181 218
125 181 218
125 181 218
125 181 218
125 181 218
125 181 218
124 181 218
124 180 218
124 180 218
124 180 218
124 180 218
124 180 218
124 180 218
123 180 218
123 180 218
123 180 218
123 180 218
123 180 218
123 180 218
123 180 218
122 179 217
122 179 217
122 179 217
122 179 217
122 179 217
122 179 217
122 179 217
121 179 217
121 179 217
121 179 217
121 179 217
121 179 217
121 178 217
121 178 217
120 178 217
120 178 217
120 178 217
120 178 217
120 178 217
120 178 217
119 178 217
119 178 217
119 178 217
119 178 217
119 177 216
119 177 216
119 177 216
118 177 216
118 177 216
118 177 216
118 177 216
118 177 216
118 177 216
118 177 216
117 177 216
117 176 216
117 176 216
117 176 216
117 176 216
117 176 216
116 176 216
116 176 216
116 176 216
116 176 216
116 176 216
116 176 216
116 176 216
115 175 215
115 175 215
115 175 215
115 175 215
115 175 215
115 175 215
114 175 215
114 175 215
114 175 215
114 175 215
114 175 215
114 174 215
114 174 215
113 174 215
113 174 215
113 174 215
113 174 215
113 174 215
113 174 215
113 174 215
112 174 215
112 174 215
112 174 215
112 173 214
112 173 214
112 173 214
112 173 214
111 173 214
111 173 214
111 173 214
111 173 214
111 173 214
111 173 214
111 173 214
110 173 214
110 173 214
110 172 214
110 172 214
110 172 214
110 172 214
110 172 214
110 172 214
109 172 214
109 172 214
109 172 214
109 172 214
109 172 214
109 172 214
109 172 214
109 172 214
108 171 213
108 171 213
108 171 213
108 171 213
108 171 213
108 171 213
108 171 213
108 171 213
108 171 213
108 171 213
107 171 213
107 171 213
107 171 213
107 171 213
107 171 213
107 171 213
107 171 213
107 171 213
107 170 213
107 170 213
107 170 213
106 170 213
106 170 213
106 170 213
106 170 213
106 170 213
106 170 213
106 170 213
106 170 213
106 170 213
106 170 213
106 170 213
106 170 213
106 170 213
106 170 213
106 170 213
106 170 213
106 170 213
106 170 213
106 170 213
106 170 213
106 170 213
105 170 213
105 170 213
105 170 213
105 170 213
105 170 213
105 170 213
105 170 213
105 170 213
105 170 213
105 170 213
105 170 213
105 170 213
105 170 213
105 170 213
105 170 213
105 170 213
105 170 213
105 170 213
106 170 213
106 170 213
106 170 213
106 170 213
106 170 213
106 170 213
106 170 213
106 170 213
106 170 213
106 170 213
106 170 213
106 170 213
106 170 213
106 170 213
106 170 213
106 170 213
106 170 213
106 170 213
106 170 213
106 170 213
106 170 213
107 170 213
107 170 213
107 170 213
107 171 213
107 171 213
107 171 213
107 171 213
107 171 213
107 171 213
107 171 213
107 171 213
108 171 213
108 171 213
108 171 213
108 171 213
108 171 213
108 171 213
108 171 213
108 171 213
108 171 213
108 171 213
109 172 214
109 172 214
109 172 214
109 172 214
109 172 214
109 172 214
109 172 214
109 172 214
110 172 214
110 172 214
110 172 214
110 172 214
110 172 214
110 172 214
110 173 214
110 173 214
111 173 214
111 173 214
111 173 214
111 173 214
111 173 214
111 173 214
111 173 214
112 173 214
112 173 214
112 173 214
112 173 214
112 174 215
112 174 215
112 174 215
113 174 215
113 174 215
113 174 215
113 174 215
113 174 215
113 174 215
113 174 215
114 174 215
114 174 215
114 175 215
114 175 215
114 175 215
114 175 215
114 175 215
115 175 215
115 175 215
115 175 215
115 175 215
115 175 215
115 175 215
116 176 216
116 176 216
116 176 216
116 176 216
116 176 216
116 176 216
116 176 216
117 176 216
117 176 216
117 176 216
117 176 216
117 176 216
117 177 216
118 177 216
118 177 216
118 177 216
118 177 216
118 177 216
118 177 216
118 177 216
119 177 216
119 177 216
119 177 216
119 178 217
119 178 217
119 178 217
119 178 217
120 178 217
120 178 217
120 178 217
120 178 217
120 178 217
120 178 217
121 178 217
121 178 217
121 179 217
121 179 217
121 179 217
121 179 217
121 179 217
122 179 217
122 179 217
122 179 217
122 179 217
122 179 217
122 179 217
122 179 217
123 180 218
123 180 218
123 180 218
123 180 218
123 180 218
123 180 218
123 180 218
124 180 218
124 180 218
124 180 218
124 180 218
124 180 218
124 180 218
124 181 218
124 181 218
125 181 218
125 181 218
125 181 218
125 181 218
125 181 218
125 181 218
125 181 218
126 181 218
126 181 218
126 181 218
126 181 218
126 182 219
126 182 219
126 182 219
126 182 219
127 182 219
127 182 219
127 182 219
127 182 219
127 182 219
127 182 219
127 182 219
127 182 219
128 182 219
128 182 219
128 183 219
128 183 219
128 183 219
128 183 219
128 183 219
128 183 219
129 183 219
129 183 219
129 183 219
129 183 219
129 183 219
129 183 219
129 183 219
129 183 219
129 183 219
129 183 219
129 183 219
129 183 219
129 183 219
129 183 219
129 183 219
128 183 219
128 183 219
128 183 219
128 183 219
128 183 219
128 183 219
128 182 219
128 182 219
127 182 219
127 182 219
127 182 219
127 182 219
127 182 219
127 182 219
127 182 219
127 182 219
126 182 219
126 182 219
126 182 219
126 182 219
126 181 218
126 181 218
126 181 218
125 181 218
125 181 218
125 181 218
125 181 218
125 181 218
125 181 218
125 181 218
125 181 218
124 181 218
124 181 218
124 180 218
124 180 218
124 180 218
124 180 218
124 180 218
123 180 218
123 180 218
123 180 218
123 180 218
123 180 218
123 180 218
123 180 218
122 179 217
122 179 217
122 179 217
122 179 217
122 179 217
122 179 217
122 179 217
121 179 217
121 179 217
121 179 217
121 179 217
121 179 217
121 178 217
121 178 217
120 178 217
120 178 217
120 178 217
120 178 217
120 178 217
120 178 217
120 178 217
119 178 217
119 178 217
119 178 217
119 177 216
119 177 216
119 177 216
118 177 216
118 177 216
118 177 216
118 177 216
118 177 216
118 177 216
118 177 216
117 177 216
117 176 216
117 176 216
117 176 216
117 176 216
117 176 216
116 176 216
116 176 216
116 176 216
116 176 216
116 176 216
116 176 216
116 176 216
115 175 215
115 175 215
115 175 215
115 175 215
115 175 215
115 175 215
115 175 215
114 175 215
114 175 215
114 175 215
114 175 215
114 175 215
114 174 215
113 174 215
113 174 215
113 174 215
113 174 215
113 174 215
113 174 215
113 174 215
112 174 215
112 174 215
112 174 215
112 174 215
112 173 214
112 173 214
112 173 214
111 173 214
111 173 214
111 173 214
111 173 214
111 173 214
111 173 214
111 173 214
111 173 214
110 173 214
110 172 214
110 172 214
110 172 214
110 172 214
110 172 214
110 172 214
109 172 214
109 172 214
109 172 214
109 172 214
109 172 214
109 172 214
109 172 214
109 172 214
109 172 214
108 171 213
108 171 213
108 171 213
108 171 213
108 171 213
108 171 213
108 171 213
108 171 213
108 171 213
108 171 213
107 171 213
107 171 213
107 171 213
107 171 213
107 171 213
107 171 213
107 171 213
107 171 213
107 171 213
107 171 213
107 170 213
107 170 213
107 170 213
106 170 213
106 170 213
106 170 213
106 170 213
106 170 213
106 170 213
106 170 213
106 170 213
106 170 213
106 170 213
106 170 213
106 170 213
106 170 213
106 170 213
106 170 213
106 170 213
106 170 213
106 170 213
106 170 213
106 170 213
106 170 213
106 170 213
106 170 213
106 170 213
106 170 213
106 170 213
106 170 213
106 170 213
106 170 213
106 170 213
106 170 213
106 170 213
106 170 213
106 170 213
106 170 213
106 170 213
106 170 213
106 170 213
106 170 213
106 170 213
106 170 213
106 170 213
106 170 213
106 170 213
106 170 213
106 170 213
106 170 213
106 170 213
106 170 213
106 170 213
107 170 213
107 170 213
107 170 213
107 170 213
107 171 213
107 171 213
107 171 213
107 171 213
107 171 213
107 171 213
107 171 213
107 171 213
107 171 213
108 171 213
108 171 213
108 171 213
108 171 213
108 171 213
108 171 213
108 171 213
108 171 213
108 171 213
108 171 213
109 172 214
109 172 214
109 172 214
109 172 214
109 172 214
109 172 214
109 172 214
109 172 214
110 172 214
110 172 214
110 172 214
110 172 214
110 172 214
110 172 214
110 172 214
110 173 214
111 173 214
111 173 214
111 173 214
111 173 214
111 173 214
111 173 214
111 173 214
111 173 214
112 173 214
112 173 214
112 173 214
112 174 215
112 174 215
112 174 215
112 174 215
113 174 215
113 174 215
113 174 215
113 174 215
113 174 215
113 174 215
113 174 215
114 174 215
114 175 215
114 175 215
114 175 215
114 175 215
114 175 215
115 175 215
115 175 215
115 175 215
115 175 215
115 175 215
115 175 215
115 175 215
116 176 216
116 176 216
116 176 216
116 176 216
116 176 216
116 176 216
116 176 216
117 176 216
117 176 216
117 176 216
117 176 216
117 177 216
117 177 216
118 177 216
118 177 216
118 177 216
118 177 216
118 177 216
118 177 216
118 177 216
119 177 216
119 177 216
119 177 216
119 178 217
119 178 217
119 178 217
120 178 217
120 178 217
120 178 217
120 178 217
120 178 217
120 178 217
120 178 217
121 178 217
121 178 217
121 179 217
121 179 217
121 179 217
121 179 217
121 179 217
122 179 217
122 179 217
122 179 217
122 179 217
122 179 217
122 179 217
122 179 217
123 180 218
123 180 218
123 180 218
123 180 218
123 180 218
123 180 218
123 180 218
124 180 218
124 180 218
124 180 218
124 180 218
124 180 218
124 181 218
124 181 218
125 181 218
125 181 218
125 181 218
125 181 218
125 181 218
125 181 218
125 181 218
125 181 218
126 181 218
126 181 218
126 181 218
126 182 219
126 182 219
126 182 219
126 182 219
127 182 219
127 182 219
127 182 219
127 182 219
127 182 219
127 182 219
127 182 219
127 182 219
128 182 219
128 182 219
128 183 219
128 183 219
128 183 219
128 183 219
128 183 219
128 183 219
129 183 219
129 183 219
129 183 219
129 183 219
129 183 219
129 183 219
129 183 219
129 183 219
129 183 219
130 184 220
130 184 220
130 184 220
129 183 219
129 183 219
129 183 219
129 183 219
129 183 219
129 183 219
129 183 219
129 183 219
128 183 219
128 183 219
128 183 219
128 183 219
128 183 219
128 183 219
128 182 219
128 182 219
127 182 219
127 182 219
127 182 219
127 182 219
127 182 219
127 182 219
127 182 219
127 182 219
126 182 219
126 182 219
126 182 219
126 182 219
126 181 218
126 181 218
126 181 218
126 181 218
125 181 218
125 181 218
125 181 218
125 181 218
125 181 218
125 181 218
125 181 218
124 181 218
124 181 218
124 180 218
124 180 218
124 180 218
124 180 218
124 180 218
123 180 218
123 180 218
123 180 218
123 180 218
123 180 218
123 180 218
123 180 218
122 179 217
122 179 217
122 179 217
122 179 217
122 179 217
122 179 217
122 179 217
121 179 217
121 179 217
121 179 217
121 179 217
121 179 217
121 178 217
121 178 217
120 178 217
120 178 217
120 178 217
120 178 217
120 178 217
120 178 217
120 178 217
119 178 217
119 178 217
119 178 217
119 177 216
119 177 216
119 177 216
118 177 216
118 177 216
118 177 216
118 177 216
118 177 216
118 177 216
118 177 216
117 177 216
117 177 216
117 176 216
117 176 216
117 176 216
117 176 216
117 176 216
116 176 216
116 176 216
116 176 216
116 176 216
116 176 216
116 176 216
115 175 215
115 175 215
115 175 215
115 175 215
115 175 215
115 175 215
115 175 215
114 175 215
114 175 215
114 175 215
114 175 215
114 175 215
114 174 215
113 174 215
113 174 215
113 174 215
113 174 215
113 174 215
113 174 215
113 174 215
112 174 215
112 174 215
112 174 215
112 174 215
112 173 214
112 173 214
112 173 214
112 173 214
111 173 214
111 173 214
111 173 214
111 173 214
111 173 214
111 173 214
111 173 214
110 173 214
110 173 214
110 172 214
110 172 214
110 172 214
110 172 214
110 172 214
110 172 214
109 172 214
109 172 214
109 172 214
109 172 214
109 172 214
109 172 214
109 172 214
109 172 214
109 172 214
108 171 213
108 171 213
108 171 213
108 171 213
108 171 213
108 171 213
108 171 213
108 171 213
108 171 213
108 171 213
108 171 213
107 171 213
107 171 213
107 171 213
107 171 213
107 171 213
107 171 213
107 171 213
107 171 213
107 171 213
107 171 213
107 171 213
107 170 213
107 170 213
107 170 213
107 170 213
106 170 213
106 170 213
106 170 213
106 170 213
106 170 213
106 170 213
106 170 213
106 170 213
106 170 213
106 170 213
106 170 213
106 170 213
106 170 213
106 170 213
106 170 213
106 170 213
106 170 213
106 170 213
106 170 213
106 170 213
106 170 213
106 170 213
106 170 213
106 170 213
106 170 213
106 170 213
106 170 213
106 170 213
106 170 213
106 170 213
106 170 213
106 170 213
106 170 213
106 170 213
106 170 213
106 170 213
106 170 213
106 170 213
107 170 213
107 170 213
107 170 213
107 170 213
107 171 213
107 171 213
107 171 213
107 171 213
107 171 213
107 171 213
107 171 213
107 171 213
107 171 213
107 171 213
107 171 213
108 171 213
108 171 213
108 171 213
108 171 213
108 171 213
108 171 213
108 171 213
108 171 213
108 171 213
108 171 213
108 171 213
109 172 214
109 172 214
109 172 214
109 172 214
109 172 214
109 172 214
109 172 214
109 172 214
109 172 214
110 172 214
110 172 214
110 172 214
110 172 214
110 172 214
110 172 214
110 173 214
110 173 214
111 173 214
111 173 214
111 173 214
111 173 214
111 173 214
111 173 214
111 173 214
112 173 214
112 173 214
112 173 214
112 173 214
112 174 215
112 174 215
112 174 215
112 174 215
113 174 215
113 174 215
113 174 215
113 174 215
113 174 215
113 174 215
113 174 215
114 174 215
114 175 215
114 175 215
114 175 215
114 175 215
114 175 215
115 175 215
115 175 215
115 175 215
115 175 215
115 175 215
115 175 215
115 175 215
116 176 216
116 176 216
116 176 216
116 176 216
116 176 216
116 176 216
117 176 216
117 176 216
117 176 216
117 176 216
117 176 216
117 177 216
117 177 216
118 177 216
118 177 216
118 177 216
118 177 216
118 177 216
118 177 216
118 177 216
119 177 216
119 177 216
119 177 216
119 178 217
119 178 217
119 178 217
120 178 217
120 178 217
120 178 217
120 178 217
120 178 217
120 178 217
120 178 217
121 178 217
121 178 217
121 179 217
121 179 217
121 179 217
121 179 217
121 179 217
122 179 217
122 179 217
122 179 217
122 179 217
122 179 217
122 179 217
123 180 218
123 180 218
123 180 218
123 180 218
123 180 218
123 180 218
123 180 218
123 180 218
124 180 218
124 180 218
124 180 218
124 180 218
124 180 218
124 181 218
124 181 218
125 181 218
125 181 218
125 181 218
125 181 218
125 181 218
125 181 218
125 181 218
126 181 218
126 181 218
126 181 218
126 181 218
126 182 219
126 182 219
126 182 219
126 182 219
127 182 219
127 182 219
127 182 219
127 182 219
127 182 219
127 182 219
127 182 219
127 182 219
128 182 219
128 182 219
128 183 219
128 183 219
128 183 219
128 183 219
128 183 219
128 183 219
129 183 219
129 183 219
129 183 219
129 183 219
129 183 219
129 183 219
129 183 219
129 183 219
130 184 220
130 184 220
130 184 220
130 184 220
130 184 220
130 184 220
130 184 220
130 184 220
129 183 219
129 183 219
129 183 219
129 183 219
129 183 219
129 183 219
129 183 219
129 183 219
129 183 219
128 183 219
128 183 219
128 183 219
128 183 219
128 183 219
128 183 219
128 182 219
128 182 219
127 182 219
127 182 219
127 182 219
127 182 219
127 182 219
127 182 219
127 182 219
127 182 219
126 182 219
126 182 219
126 182 219
126 181 218
126 181 218
126 181 218
126 181 218
125 181 218
125 181 218
125 181 218
125 181 218
125 181 218
125 181 218
125 181 218
125 181 218
124 181 218
124 180 218
124 180 218
124 180 218
124 180 218
124 180 218
124 180 218
123 180 218
123 180 218
123 180 218
123 180 218
123 180 218
123 180 218
123 180 218
122 179 217
122 179 217
122 179 217
122 179 217
122 179 217
122 179 217
122 179 217
121 179 217
121 179 217
121 179 217
121 179 217
121 179 217
121 178 217
120 178 217
120 178 217
120 178 217
120 178 217
120 178 217
120 178 217
120 178 217
119 178 217
119 178 217
119 178 217
119 177 216
119 177 216
119 177 216
119 177 216
118 177 216
118 177 216
118 177 216
118 177 216
118 177 216
118 177 216
117 177 216
117 177 216
117 176 216
117 176 216
117 176 216
117 176 216
117 176 216
116 176 216
116 176 216
116 176 216
116 176 216
116 176 216
116 176 216
115 175 215
115 175 215
115 175 215
115 175 215
115 175 215
115 175 215
115 175 215
114 175 215
114 175 215
114 175 215
114 175 215
114 175 215
114 174 215
114 174 215
113 174 215
113 174 215
113 174 215
113 174 215
113 174 215
113 174 215
113 174 215
112 174 215
112 174 215
112 174 215
112 173 214
112 173 214
112 173 214
112 173 214
111 173 214
111 173 214
111 173 214
111 173 214
111 173 214
111 173 214
111 173 214
111 173 214
110 173 214
110 173 214
110 172 214
110 172 214
110 172 214
110 172 214
110 172 214
110 172 214
109 172 214
109 172 214
109 172 214
109 172 214
109 172 214
109 172 214
109 172 214
109 172 214
109 172 214
109 172 214
108 171 213
108 171 213
108 171 213
108 171 213
108 171 213
108 171 213
108 171 213
108 171 213
108 171 213
108 171 213
108 171 213
107 171 213
107 171 213
107 171 213
107 171 213
107 171 213
107 171 213
107 171 213
107 171 213
107 171 213
107 171 213
107 171 213
107 171 213
107 171 213
107 170 213
107 170 213
107 170 213
107 170 213
107 170 213
107 170 213
107 170 213
106 170 213
106 170 213
106 170 213
106 170 213
106 170 213
106 170 213
106 170 213
106 170 213
106 170 213
106 170 213
106 170 213
106 170 213
106 170 213
106 170 213
106 170 213
106 170 213
106 170 213
106 170 213
106 170 213
106 170 213
107 170 213
107 170 213
107 170 213
107 170 213
107 170 213
107 170 213
107 170 213
107 171 213
107 171 213
107 171 213
107 171 213
107 171 213
107 171 213
107 171 213
107 171 213
107 171 213
107 171 213
107 171 213
107 171 213
107 171 213
108 171 213
108 171 213
108 171 213
108 171 213
108 171 213
108 171 213
108 171 213
108 171 213
108 171 213
108 171 213
108 171 213
109 172 214
109 172 214
109 172 214
109 172 214
109 172 214
109 172 214
109 172 214
109 172 214
109 172 214
109 172 214
110 172 214
110 172 214
110 172 214
110 172 214
110 172 214
110 172 214
110 173 214
110 173 214
111 173 214
111 173 214
111 173 214
111 173 214
111 173 214
111 173 214
111 173 214
111 173 214
112 173 214
112 173 214
112 173 214
112 174 215
112 174 215
112 174 215
112 174 215
113 174 215
113 174 215
113 174 215
113 174 215
113 174 215
113 174 215
113 174 215
114 174 215
114 174 215
114 175 215
114 175 215
114 175 215
114 175 215
114 175 215
115 175 215
115 175 215
115 175 215
115 175 215
115 175 215
115 175 215
115 175 215
116 176 216
116 176 216
116 176 216
116 176 216
116 176 216
116 176 216
117 176 216
117 176 216
117 176 216
117 176 216
117 176 216
117 177 216
117 177 216
118 177 216
118 177 216
118 177 216
118 177 216
118 177 216
118 177 216
119 177 216
119 177 216
119 177 216
119 177 216
119 178 217
119 178 217
119 178 217
120 178 217
120 178 217
120 178 217
120 178 217
120 178 217
120 178 217
120 178 217
121 178 217
121 179 217
121 179 217
121 179 217
121 179 217
121 179 217
122 179 217
122 179 217
122 179 217
122 179 217
122 179 217
122 179 217
122 179 217
122 179 217
123 180 218
123 180 218
123 180 218
123 180 218
123 180 218
123 180 218
124 180 218
124 180 218
124 180 218
124 180 218
124 180 218
124 180 218
124 181 218
124 181 218
125 181 218
125 181 218
125 181 218
125 181 218
125 181 218
125 181 218
125 181 218
126 181 218
126 181 218
126 181 218
126 181 218
126 182 219
126 182 219
126 182 219
127 182 219
127 182 219
127 182 219
127 182 219
127 182 219
127 182 219
127 182 219
127 182 219
128 182 219
128 182 219
128 183 219
128 183 219
128 183 219
128 183 219
128 183 219
128 183 219
129 183 219
129 183 219
129 183 219
129 183 219
129 183 219
129 183 219
129 183 219
129 183 219
129 183 219
130 184 220
130 184 220
130 184 220
130 184 220
130 184 220
130 184 220
130 184 220
130 184 220
130 184 220
130 184 220
130 184 220
130 184 220
130 184 220
129 183 219
129 183 219
129 183 219
129 183 219
129 183 219
129 183 219
129 183 219
129 183 219
128 183 219
128 183 219
128 183 219
128 183 219
128 183 219
128 183 219
128 182 219
128 182 219
127 182 219
127 182 219
127 182 219
127 182 219
127 182 219
127 182 219
127 182 219
127 182 219
126 182 219
126 182 219
126 182 219
126 182 219
126 181 218
126 181 218
126 181 218
125 181 218
125 181 218
125 181 218
125 181 218
125 181 218
125 181 218
125 181 218
125 181 218
124 181 218
124 181 218
124 180 218
124 180 218
124 180 218
124 180 218
124 180 218
123 180 218
123 180 218
123 180 218
123 180 218
123 180 218
123 180 218
123 180 218
122 179 217
122 179 217
122 179 217
122 179 217
122 179 217
122 179 217
122 179 217
121 179 217
121 179 217
121 179 217
121 179 217
121 179 217
121 178 217
121 178 217
120 178 217
120 178 217
120 178 217
120 178 217
120 178 217
120 178 217
119 178 217
119 178 217
119 178 217
119 177 216
119 177 216
119 177 216
119 177 216
118 177 216
118 177 216
118 177 216
118 177 216
118 177 216
118 177 216
118 177 216
117 177 216
117 176 216
117 176 216
117 176 216
117 176 216
117 176 216
116 176 216
116 176 216
116 176 216
116 176 216
116 176 216
116 176 216
116 176 216
115 175 215
115 175 215
115 175 215
115 175 215
115 175 215
115 175 215
114 175 215
114 175 215
114 175 215
114 175 215
114 175 215
114 174 215
114 174 215
113 174 215
113 174 215
113 174 215
113 174 215
113 174 215
113 174 215
113 174 215
112 174 215
112 174 215
112 174 215
112 174 215
112 173 214
112 173 214
112 173 214
112 173 214
111 173 214
111 173 214
111 173 214
111 173 214
111 173 214
111 173 214
111 173 214
111 173 214
110 173 214
110 173 214
110 172 214
110 172 214
110 172 214
110 172 214
110 172 214
110 172 214
109 172 214
109 172 214
109 172 214
109 172 214
109 172 214
109 172 214
109 172 214
109 172 214
109 172 214
109 172 214
108 171 213
108 171 213
108 171 213
108 171 213
108 171 213
108 171 213
108 171 213
108 171 213
108 171 213
108 171 213
108 171 213
108 171 213
108 171 213
107 171 213
107 171 213
107 171 213
107 171 213
107 171 213
107 171 213
107 171 213
107 171 213
107 171 213
107 171 213
107 171 213
107 171 213
107 171 213
107 171 213
107 171 213
107 171 213
107 171 213
107 171 213
107 171 213
107 170 213
107 170 213
107 170 213
107 170 213
107 170 213
107 170 213
107 170 213
107 170 213
107 170 213
107 170 213
107 170 213
107 171 213
107 171 213
107 171 213
107 171 213
107 171 213
107 171 213
107 171 213
107 171 213
107 171 213
107 171 213
107 171 213
107 171 213
107 171 213
107 171 213
107 171 213
107 171 213
107 171 213
107 171 213
107 171 213
107 171 213
108 171 213
108 171 213
108 171 213
108 171 213
108 171 213
108 171 213
108 171 213
108 171 213
108 171 213
108 171 213
108 171 213
108 171 213
108 171 213
109 172 214
109 172 214
109 172 214
109 172 214
109 172 214
109 172 214
109 172 214
109 172 214
109 172 214
109 172 214
110 172 214
110 172 214
110 172 214
110 172 214
110 172 214
110 172 214
110 173 214
110 173 214
111 173 214
111 173 214
111 173 214
111 173 214
111 173 214
111 173 214
111 173 214
111 173 214
112 173 214
112 173 214
112 173 214
112 173 214
112 174 215
112 174 215
112 174 215
112 174 215
113 174 215
113 174 215
113 174 215
113 174 215
113 174 215
113 174 215
113 174 215
114 174 215
114 175 215
114 175 215
114 175 215
114 175 215
114 175 215
114 175 215
115 175 215
115 175 215
115 175 215
115 175 215
115 175 215
115 175 215
116 176 216
116 176 216
116 176 216
116 176 216
116 176 216
116 176 216
116 176 216
117 176 216
117 176 216
117 176 216
117 176 216
117 176 216
117 177 216
118 177 216
118 177 216
118 177 216
118 177 216
118 177 216
118 177 216
118 177 216
119 177 216
119 177 216
119 177 216
119 178 217
119 178 217
119 178 217
119 178 217
120 178 217
120 178 217
120 178 217
120 178 217
120 178 217
120 178 217
121 178 217
121 178 217
121 179 217
121 179 217
121 179 217
121 179 217
121 179 217
122 179 217
122 179 217
122 179 217
122 179 217
122 179 217
122 179 217
122 179 217
123 180 218
123 180 218
123 180 218
123 180 218
123 180 218
123 180 218
123 180 218
124 180 218
124 180 218
124 180 218
124 180 218
124 180 218
124 181 218
124 181 218
125 181 218
125 181 218
125 181 218
125 181 218
125 181 218
125 181 218
125 181 218
126 181 218
126 181 218
126 181 218
126 181 218
126 182 219
126 182 219
126 182 219
126 182 219
127 182 219
127 182 219
127 182 219
127 182 219
127 182 219
127 182 219
127 182 219
127 182 219
128 182 219
128 182 219
128 183 219
128 183 219
128 183 219
128 183 219
128 183 219
128 183 219
129 183 219
129 183 219
129 183 219
129 183 219
129 183 219
129 183 219
129 183 219
129 183 219
130 184 220
130 184 220
130 184 220
130 184 220
130 184 220
130 184 220
130 184 220
130 184 220
131 184 220
131 184 220
130 184 220
130 184 220
130 184 220
130 184 220
130 184 220
130 184 220
130 184 220
130 184 220
129 183 219
129 183 219
129 183 219
129 183 219
129 183 219
129 183 219
129 183 219
129 183 219
129 183 219
128 183 219
128 183 219
128 183 219
128 183 219
128 183 219
128 183 219
128 182 219
128 182 219
127 182 219
127 182 219
127 182 219
127 182 219
127 182 219
127 182 219
127 182 219
126 182 219
126 182 219
126 182 219
126 182 219
126 181 218
126 181 218
126 181 218
126 181 218
125 181 218
125 181 218
125 181 218
125 181 218
125 181 218
125 181 218
125 181 218
124 181 218
124 181 218
124 180 218
124 180 218
124 180 218
124 180 218
124 180 218
123 180 218
123 180 218
123 180 218
123 180 218
123 180 218
123 180 218
123 180 218
122 179 217
122 179 217
122 179 217
122 179 217
122 179 217
122 179 217
122 179 217
121 179 217
121 179 217
121 179 217
121 179 217
121 179 217
121 178 217
121 178 217
120 178 217
120 178 217
120 178 217
120 178 217
120 178 217
120 178 217
120 178 217
119 178 217
119 178 217
119 178 217
119 177 216
119 177 216
119 177 216
118 177 216
118 177 216
118 177 216
118 177 216
118 177 216
118 177 216
118 177 216
117 177 216
117 176 216
117 176 216
117 176 216
117 176 216
117 176 216
116 176 216
116 176 216
116 176 216
116 176 216
116 176 216
116 176 216
116 176 216
115 175 215
115 175 215
115 175 215
115 175 215
115 175 215
115 175 215
115 175 215
114 175 215
114 175 215
114 175 215
114 175 215
114 175 215
114 174 215
114 174 215
113 174 215
113 174 215
113 174 215
113 174 215
113 174 215
113 174 215
113 174 215
112 174 215
112 174 215
112 174 215
112 173 214
112 173 214
112 173 214
112 173 214
111 173 214
111 173 214
111 173 214
111 173 214
111 173 214
111 173 214
111 173 214
111 173 214
110 173 214
110 173 214
110 173 214
110 172 214
110 172 214
110 172 214
110 172 214
110 172 214
110 172 214
109 172 214
109 172 214
109 172 214
109 172 214
109 172 214
109 172 214
109 172 214
109 172 214
109 172 214
109 172 214
109 172 214
108 171 213
108 171 213
108 171 213
108 171 213
108 171 213
108 171 213
108 171 213
108 171 213
108 171 213
108 171 213
108 171 213
108 171 213
108 171 213
108 171 213
108 171 213
107 171 213
107 171 213
107 171 213
107 171 213
107 171 213
107 171 213
107 171 213
107 171 213
107 171 213
107 171 213
107 171 213
107 171 213
107 171 213
107 171 213
107 171 213
107 171 213
107 171 213
107 171 213
107 171 213
107 171 213
107 171 213
107 171 213
107 171 213
107 171 213
107 171 213
107 171 213
107 171 213
107 171 213
107 171 213
107 171 213
107 171 213
107 171 213
107 171 213
107 171 213
107 171 213
107 171 213
107 171 213
107 171 213
108 171 213
108 171 213
108 171 213
108 171 213
108 171 213
108 171 213
108 171 213
108 171 213
108 171 213
108 171 213
108 171 213
108 171 213
108 171 213
108 171 213
108 171 213
109 172 214
109 172 214
109 172 214
109 172 214
109 172 214
109 172 214
109 172 214
109 172 214
109 172 214
109 172 214
110 172 214
110 172 214
110 172 214
110 172 214
110 172 214
110 172 214
110 172 214
110 173 214
110 173 214
111 173 214
111 173 214
111 173 214
111 173 214
111 173 214
111 173 214
111 173 214
111 173 214
111 173 214
112 173 214
112 173 214
112 173 214
112 174 215
112 174 215
112 174 215
112 174 215
113 174 215
113 174 215
113 174 215
113 174 215
113 174 215
113 174 215
113 174 215
114 174 215
114 174 215
114 175 215
114 175 215
114 175 215
114 175 215
114 175 215
115 175 215
115 175 215
115 175 215
115 175 215
115 175 215
115 175 215
115 175 215
116 176 216
116 176 216
116 176 216
116 176 216
116 176 216
116 176 216
116 176 216
117 176 216
117 176 216
117 176 216
117 176 216
117 176 216
117 177 216
118 177 216
118 177 216
118 177 216
118 177 216
118 177 216
118 177 216
118 177 216
119 177 216
119 177 216
119 177 216
119 178 217
119 178 217
119 178 217
120 178 217
120 178 217
120 178 217
120 178 217
120 178 217
120 178 217
120 178 217
121 178 217
121 178 217
121 179 217
121 179 217
121 179 217
121 179 217
121 179 217
122 179 217
122 179 217
122 179 217
122 179 217
122 179 217
122 179 217
122 179 217
123 180 218
123 180 218
123 180 218
123 180 218
123 180 218
123 180 218
124 180 218
124 180 218
124 180 218
124 180 218
124 180 218
124 180 218
124 181 218
124 181 218
125 181 218
125 181 218
125 181 218
125 181 218
125 181 218
125 181 218
125 181 218
126 181 218
126 181 218
126 181 218
126 181 218
126 182 219
126 182 219
126 182 219
127 182 219
127 182 219
127 182 219
127 182 219
127 182 219
127 182 219
127 182 219
127 182 219
128 182 219
128 182 219
128 183 219
128 183 219
128 183 219
128 183 219
128 183 219
128 183 219
129 183 219
129 183 219
129 183 219
129 183 219
129 183 219
129 183 219
129 183 219
129 183 219
129 183 219
130 184 220
130 184 220
130 184 220
130 184 220
130 184 220
130 184 220
130 184 220
130 184 220
131 184 220
131 184 220
131 184 220
131 184 220
131 184 220
131 184 220
130 184 220
130 184 220
130 184 220
130 184 220
130 184 220
130 184 220
130 184 220
130 184 220
130 184 220
129 183 219
129 183 219
129 183 219
129 183 219
129 183 219
129 183 219
129 183 219
129 183 219
128 183 219
128 183 219
128 183 219
128 183 219
128 183 219
128 183 219
128 182 219
128 182 219
127 182 219
127 182 219
127 182 219
127 182 219
127 182 219
127 182 219
127 182 219
127 182 219
126 182 219
126 182 219
126 182 219
126 182 219
126 181 218
126 181 218
126 181 218
125 181 218
125 181 218
125 181 218
125 181 218
125 181 218
125 181 218
125 181 218
125 181 218
124 181 218
124 180 218
124 180 218
124 180 218
124 180 218
124 180 218
124 180 218
123 180 218
123 180 218
123 180 218
123 180 218
123 180 218
123 180 218
123 180 218
122 179 217
122 179 217
122 179 217
122 179 217
122 179 217
122 179 217
122 179 217
121 179 217
121 179 217
121 179 217
121 179 217
121 179 217
121 178 217
120 178 217
120 178 217
120 178 217
120 178 217
120 178 217
120 178 217
120 178 217
119 178 217
119 178 217
119 178 217
119 177 216
119 177 216
119 177 216
119 177 216
118 177 216
118 177 216
118 177 216
118 177 216
118 177 216
118 177 216
117 177 216
117 177 216
117 176 216
117 176 216
117 176 216
117 176 216
117 176 216
116 176 216
116 176 216
116 176 216
116 176 216
116 176 216
116 176 216
115 175 215
115 175 215
115 175 215
115 175 215
115 175 215
115 175 215
115 175 215
114 175 215
114 175 215
114 175 215
114 175 215
114 175 215
114 174 215
114 174 215
113 174 215
113 174 215
113 174 215
113 174 215
113 174 215
113 174 215
113 174 215
112 174 215
112 174 215
112 174 215
112 174 215
112 173 214
112 173 214
112 173 214
112 173 214
111 173 214
111 173 214
111 173 214
111 173 214
111 173 214
111 173 214
111 173 214
111 173 214
110 173 214
110 173 214
110 173 214
110 172 214
110 172 214
110 172 214
110 172 214
110 172 214
110 172 214
110 172 214
109 172 214
109 172 214
109 172 214
109 172 214
109 172 214
109 172 214
109 172 214
109 172 214
109 172 214
109 172 214
109 172 214
109 172 214
108 171 213
108 171 213
108 171 213
108 171 213
108 171 213
108 171 213
108 171 213
108 171 213
108 171 213
108 171 213
108 171 213
108 171 213
108 171 213
108 171 213
108 171 213
108 171 213
108 171 213
108 171 213
108 171 213
108 171 213
107 171 213
107 171 213
107 171 213
107 171 213
107 171 213
107 171 213
107 171 213
107 171 213
107 171 213
107 171 213
107 171 213
107 171 213
107 171 213
107 171 213
107 171 213
107 171 213
107 171 213
107 171 213
108 171 213
108 171 213
108 171 213
108 171 213
108 171 213
108 171 213
108 171 213
108 171 213
108 171 213
108 171 213
108 171 213
108 171 213
108 171 213
108 171 213
108 171 213
108 171 213
108 171 213
108 171 213
108 171 213
108 171 213
109 172 214
109 172 214
109 172 214
109 172 214
109 172 214
109 172 214
109 172 214
109 172 214
109 172 214
109 172 214
109 172 214
109 172 214
110 172 214
110 172 214
110 172 214
110 172 214
110 172 214
110 172 214
110 172 214
110 173 214
110 173 214
111 173 214
111 173 214
111 173 214
111 173 214
111 173 214
111 173 214
111 173 214
111 173 214
111 173 214
112 173 214
112 173 214
112 173 214
112 173 214
112 174 215
112 174 215
112 174 215
112 174 215
113 174 215
113 174 215
113 174 215
113 174 215
113 174 215
113 174 215
113 174 215
114 174 215
114 174 215
114 175 215
114 175 215
114 175 215
114 175 215
114 175 215
115 175 215
115 175 215
115 175 215
115 175 215
115 175 215
115 175 215
116 176 216
116 176 216
116 176 216
116 176 216
116 176 216
116 176 216
116 176 216
117 176 216
117 176 216
117 176 216
117 176 216
117 176 216
117 177 216
117 177 216
118 177 216
118 177 216
118 177 216
118 177 216
118 177 216
118 177 216
118 177 216
119 177 216
119 177 216
119 177 216
119 178 217
119 178 217
119 178 217
120 178 217
120 178 217
120 178 217
120 178 217
120 178 217
120 178 217
120 178 217
121 178 217
121 179 217
121 179 217
121 179 217
121 179 217
121 179 217
121 179 217
122 179 217
122 179 217
122 179 217
122 179 217
122 179 217
122 179 217
123 180 218
123 180 218
123 180 218
123 180 218
123 180 218
123 180 218
123 180 218
124 180 218
124 180 218
124 180 218
124 180 218
124 180 218
124 180 218
124 181 218
125 181 218
125 181 218
125 181 218
125 181 218
125 181 218
125 181 218
125 181 218
125 181 218
126 181 218
126 181 218
126 181 218
126 182 219
126 182 219
126 182 219
126 182 219
127 182 219
127 182 219
127 182 219
127 182 219
127 182 219
127 182 219
127 182 219
127 182 219
128 182 219
128 182 219
128 183 219
128 183 219
128 183 219
128 183 219
128 183 219
128 183 219
129 183 219
129 183 219
129 183 219
129 183 219
129 183 219
129 183 219
129 183 219
129 183 219
130 184 220
130 184 220
130 184 220
130 184 220
130 184 220
130 184 220
130 184 220
130 184 220
130 184 220
131 184 220
131 184 220
131 184 220
131 184 220
131 185 220
131 184 220
131 184 220
131 184 220
131 184 220
131 184 220
131 184 220
130 184 220
130 184 220
130 184 220
130 184 220
130 184 220
130 184 220
130 184 220
130 184 220
130 184 220
129 183 219
129 183 219
129 183 219
129 183 219
129 183 219
129 183 219
129 183 219
129 183 219
128 183 219
128 183 219
128 183 219
128 183 219
128 183 219
128 183 219
128 182 219
128 182 219
127 182 219
127 182 219
127 182 219
127 182 219
127 182 219
127 182 219
127 182 219
126 182 219
126 182 219
126 182 219
126 182 219
126 181 218
126 181 218
126 181 218
126 181 218
125 181 218
125 181 218
125 181 218
125 181 218
125 181 218
125 181 218
125 181 218
124 181 218
124 181 218
124 180 218
124 180 218
124 180 218
124 180 218
124 180 218
123 180 218
123 180 218
123 180 218
123 180 218
123 180 218
123 180 218
123 180 218
122 179 217
122 179 217
122 179 217
122 179 217
122 179 217
122 179 217
122 179 217
121 179 217
121 179 217
121 179 217
121 179 217
121 179 217
121 178 217
121 178 217
120 178 217
120 178 217
120 178 217
120 178 217
120 178 217
120 178 217
119 178 217
119 178 217
119 178 217
119 178 217
119 177 216
119 177 216
119 177 216
118 177 216
118 177 216
118 177 216
118 177 216
118 177 216
118 177 216
117 177 216
117 177 216
117 176 216
117 176 216
117 176 216
117 176 216
117 176 216
116 176 216
116 176 216
116 176 216
116 176 216
116 176 216
116 176 216
116 176 216
115 175 215
115 175 215
115 175 215
115 175 215
115 175 215
115 175 215
115 175 215
114 175 215
114 175 215
114 175 215
114 175 215
114 175 215
114 174 215
114 174 215
113 174 215
113 174 215
113 174 215
113 174 215
113 174 215
113 174 215
113 174 215
112 174 215
112 174 215
112 174 215
112 174 215
112 173 214
112 173 214
112 173 214
112 173 214
111 173 214
111 173 214
111 173 214
111 173 214
111 173 214
111 173 214
111 173 214
111 173 214
111 173 214
110 173 214
110 173 214
110 172 214
110 172 214
110 172 214
110 172 214
110 172 214
110 172 214
110 172 214
110 172 214
109 172 214
109 172 214
109 172 214
109 172 214
109 172 214
109 172 214
109 172 214
109 172 214
109 172 214
109 172 214
109 172 214
109 172 214
109 172 214
108 171 213
108 171 213
108 171 213
108 171 213
108 171 213
108 171 213
108 171 213
108 171 213
108 171 213
108 171 213
108 171 213
108 171 213
108 171 213
108 171 213
108 171 213
108 171 213
108 171 213
108 171 213
108 171 213
108 171 213
108 171 213
108 171 213
108 171 213
108 171 213
108 171 213
108 171 213
108 171 213
108 171 213
108 171 213
108 171 213
108 171 213
108 171 213
108 171 213
108 171 213
108 171 213
108 171 213
108 171 213
108 171 213
108 171 213
108 171 213
108 171 213
108 171 213
108 171 213
108 171 213
108 171 213
108 171 213
108 171 213
108 171 213
109 172 214
109 172 214
109 172 214
109 172 214
109 172 214
109 172 214
109 172 214
109 172 214
109 172 214
109 172 214
109 172 214
109 172 214
109 172 214
110 172 214
110 172 214
110 172 214
110 172 214
110 172 214
110 172 214
110 172 214
110 172 214
110 173 214
110 173 214
111 173 214
111 173 214
111 173 214
111 173 214
111 173 214
111 173 214
111 173 214
111 173 214
111 173 214
112 173 214
112 173 214
112 173 214
112 173 214
112 174 215
112 174 215
112 174 215
112 174 215
113 174 215
113 174 215
113 174 215
113 174 215
113 174 215
113 174 215
113 174 215
114 174 215
114 174 215
114 175 215
114 175 215
114 175 215
114 175 215
114 175 215
115 175 215
115 175 215
115 175 215
115 175 215
115 175 215
115 175 215
115 175 215
116 176 216
116 176 216
116 176 216
116 176 216
116 176 216
116 176 216
116 176 216
117 176 216
117 176 216
117 176 216
117 176 216
117 176 216
117 177 216
117 177 216
118 177 216
118 177 216
118 177 216
118 177 216
118 177 216
118 177 216
119 177 216
119 177 216
119 177 216
119 178 217
119 178 217
119 178 217
119 178 217
120 178 217
120 178 217
120 178 217
120 178 217
120 178 217
120 178 217
120 178 217
121 178 217
121 179 217
121 179 217
121 179 217
121 179 217
121 179 217
122 179 217
122 179 217
122 179 217
122 179 217
122 179 217
122 179 217
122 179 217
123 180 218
123 180 218
123 180 218
123 180 218
123 180 218
123 180 218
123 180 218
124 180 218
124 180 218
124 180 218
124 180 218
124 180 218
124 181 218
124 181 218
125 181 218
125 181 218
125 181 218
125 181 218
125 181 218
125 181 218
125 181 218
126 181 218
126 181 218
126 181 218
126 181 218
126 182 219
126 182 219
126 182 219
127 182 219
127 182 219
127 182 219
127 182 219
127 182 219
127 182 219
127 182 219
127 182 219
128 182 219
128 182 219
128 183 219
128 183 219
128 183 219
128 183 219
128 183 219
128 183 219
129 183 219
129 183 219
129 183 219
129 183 219
129 183 219
129 183 219
129 183 219
129 183 219
130 184 220
130 184 220
130 184 220
130 184 220
130 184 220
130 184 220
130 184 220
130 184 220
130 184 220
131 184 220
131 184 220
131 184 220
131 184 220
131 184 220
131 184 220
131 184 220
132 185 220
131 185 220
131 185 220
131 184 220
131 184 220
131 184 220
131 184 220
131 184 220
131 184 220
131 184 220
130 184 220
130 184 220
130 184 220
130 184 220
130 184 220
130 184 220
130 184 220
130 184 220
129 183 219
129 183 219
129 183 219
129 183 219
129 183 219
129 183 219
129 183 219
129 183 219
128 183 219
128 183 219
128 183 219
128 183 219
128 183 219
128 183 219
128 182 219
128 182 219
127 182 219
127 182 219
127 182 219
127 182 219
127 182 219
127 182 219
127 182 219
127 182 219
126 182 219
126 182 219
126 182 219
126 182 219
126 181 218
126 181 218
126 181 218
125 181 218
125 181 218
125 181 218
125 181 218
125 181 218
125 181 218
125 181 218
125 181 218
124 181 218
124 180 218
124 180 218
124 180 218
124 180 218
124 180 218
124 180 218
123 180 218
123 180 218
123 180 218
123 180 218
123 180 218
123 180 218
122 179 217
122 179 217
122 179 217
122 179 217
122 179 217
122 179 217
122 179 217
121 179 217
121 179 217
121 179 217
121 179 217
121 179 217
121 178 217
121 178 217
120 178 217
120 178 217
120 178 217
120 178 217
120 178 217
120 178 217
120 178 217
119 178 217
119 178 217
119 178 217
119 177 216
119 177 216
119 177 216
118 177 216
118 177 216
118 177 216
118 177 216
118 177 216
118 177 216
118 177 216
117 177 216
117 177 216
117 176 216
117 176 216
117 176 216
117 176 216
117 176 216
116 176 216
116 176 216
116 176 216
116 176 216
116 176 216
116 176 216
115 175 215
115 175 215
115 175 215
115 175 215
115 175 215
115 175 215
115 175 215
114 175 215
114 175 215
114 175 215
114 175 215
114 175 215
114 175 215
114 174 215
114 174 215
113 174 215
113 174 215
113 174 215
113 174 215
113 174 215
113 174 215
113 174 215
112 174 215
112 174 215
112 174 215
112 174 215
112 173 214
112 173 214
112 173 214
112 173 214
111 173 214
111 173 214
111 173 214
111 173 214
111 173 214
111 173 214
111 173 214
111 173 214
111 173 214
110 173 214
110 173 214
110 173 214
110 172 214
110 172 214
110 172 214
110 172 214
110 172 214
110 172 214
110 172 214
110 172 214
109 172 214
109 172 214
109 172 214
109 172 214
109 172 214
109 172 214
109 172 214
109 172 214
109 172 214
109 172 214
109 172 214
109 172 214
109 172 214
109 172 214
109 172 214
108 171 213
108 171 213
108 171 213
108 171 213
108 171 213
108 171 213
108 171 213
108 171 213
108 171 213
108 171 213
108 171 213
108 171 213
108 171 213
108 171 213
108 171 213
108 171 213
108 171 213
108 171 213
108 171 213
108 171 213
108 171 213
108 171 213
108 171 213
108 171 213
108 171 213
108 171 213
108 171 213
108 171 213
108 171 213
108 171 213
108 171 213
108 171 213
108 171 213
108 171 213
108 171 213
108 171 213
109 172 214
109 172 214
109 172 214
109 172 214
109 172 214
109 172 214
109 172 214
109 172 214
109 172 214
109 172 214
109 172 214
109 172 214
109 172 214
109 172 214
109 172 214
110 172 214
110 172 214
110 172 214
110 172 214
110 172 214
110 172 214
110 172 214
110 172 214
110 173 214
110 173 214
110 173 214
111 173 214
111 173 214
111 173 214
111 173 214
111 173 214
111 173 214
111 173 214
111 173 214
111 173 214
112 173 214
112 173 214
112 173 214
112 173 214
112 174 215
112 174 215
112 174 215
112 174 215
113 174 215
113 174 215
113 174 215
113 174 215
113 174 215
113 174 215
113 174 215
113 174 215
114 174 215
114 175 215
114 175 215
114 175 215
114 175 215
114 175 215
114 175 215
115 175 215
115 175 215
115 175 215
115 175 215
115 175 215
115 175 215
115 175 215
116 176 216
116 176 216
116 176 216
116 176 216
116 176 216
116 176 216
117 176 216
117 176 216
117 176 216
117 176 216
117 176 216
117 177 216
117 177 216
118 177 216
118 177 216
118 177 216
118 177 216
118 177 216
118 177 216
118 177 216
119 177 216
119 177 216
119 177 216
119 178 217
119 178 217
119 178 217
120 178 217
120 178 217
120 178 217
120 178 217
120 178 217
120 178 217
120 178 217
121 178 217
121 178 217
121 179 217
121 179 217
121 179 217
121 179 217
121 179 217
122 179 217
122 179 217
122 179 217
122 179 217
122 179 217
122 179 217
122 179 217
123 180 218
123 180 218
123 180 218
123 180 218
123 180 218
123 180 218
124 180 218
124 180 218
124 180 218
124 180 218
124 180 218
124 180 218
124 181 218
125 181 218
125 181 218
125 181 218
125 181 218
125 181 218
125 181 218
125 181 218
125 181 218
126 181 218
126 181 218
126 181 218
126 182 219
126 182 219
126 182 219
126 182 219
127 182 219
127 182 219
127 182 219
127 182 219
127 182 219
127 182 219
127 182 219
127 182 219
128 182 219
128 182 219
128 183 219
128 183 219
128 183 219
128 183 219
128 183 219
128 183 219
129 183 219
129 183 219
129 183 219
129 183 219
129 183 219
129 183 219
129 183 219
129 183 219
130 184 220
130 184 220
130 184 220
130 184 220
130 184 220
130 184 220
130 184 220
130 184 220
131 184 220
131 184 220
131 184 220
131 184 220
131 184 220
131 184 220
131 184 220
131 185 220
131 185 220
132 185 220
132 185 220
132 185 220
132 185 220
132 185 220
131 185 220
131 185 220
131 184 220
131 184 220
131 184 220
131 184 220
131 184 220
131 184 220
130 184 220
130 184 220
130 184 220
130 184 220
130 184 220
130 184 220
130 184 220
130 184 220
130 184 220
129 183 219
129 183 219
129 183 219
129 183 219
129 183 219
129 183 219
129 183 219
129 183 219
128 183 219
128 183 219
128 183 219
128 183 219
128 183 219
128 183 219
128 182 219
128 182 219
127 182 219
127 182 219
127 182 219
127 182 219
127 182 219
127 182 219
127 182 219
126 182 219
126 182 219
126 182 219
126 182 219
126 181 218
126 181 218
126 181 218
126 181 218
125 181 218
125 181 218
125 181 218
125 181 218
125 181 218
125 181 218
125 181 218
124 181 218
124 181 218
124 180 218
124 180 218
124 180 218
124 180 218
124 180 218
123 180 218
123 180 218
123 180 218
123 180 218
123 180 218
123 180 218
123 180 218
122 179 217
122 179 217
122 179 217
122 179 217
122 179 217
122 179 217
121 179 217
121 179 217
121 179 217
121 179 217
121 179 217
121 179 217
121 178 217
120 178 217
120 178 217
120 178 217
120 178 217
120 178 217
120 178 217
120 178 217
119 178 217
119 178 217
119 178 217
119 177 216
119 177 216
119 177 216
119 177 216
118 177 216
118 177 216
118 177 216
118 177 216
118 177 216
118 177 216
117 177 216
117 177 216
117 176 216
117 176 216
117 176 216
117 176 216
117 176 216
116 176 216
116 176 216
116 176 216
116 176 216
116 176 216
116 176 216
116 176 216
115 175 215
115 175 215
115 175 215
115 175 215
115 175 215
115 175 215
115 175 215
114 175 215
114 175 215
114 175 215
114 175 215
114 175 215
114 174 215
114 174 215
113 174 215
113 174 215
113 174 215
113 174 215
113 174 215
113 174 215
113 174 215
113 174 215
112 174 215
112 174 215
112 174 215
112 174 215
112 173 214
112 173 214
112 173 214
112 173 214
111 173 214
111 173 214
111 173 214
111 173 214
111 173 214
111 173 214
111 173 214
111 173 214
111 173 214
111 173 214
110 173 214
110 173 214
110 172 214
110 172 214
110 172 214
110 172 214
110 172 214
110 172 214
110 172 214
110 172 214
110 172 214
110 172 214
109 172 214
109 172 214
109 172 214
109 172 214
109 172 214
109 172 214
109 172 214
109 172 214
109 172 214
109 172 214
109 172 214
109 172 214
109 172 214
109 172 214
109 172 214
109 172 214
109 172 214
109 172 214
109 172 214
109 172 214
109 172 214
108 171 213
109 172 214
108 171 213
108 171 213
108 171 213
108 171 213
108 171 213
108 171 213
108 171 213
108 171 213
108 171 213
108 171 213
108 171 213
109 172 214
109 172 214
109 172 214
109 172 214
109 172 214
109 172 214
109 172 214
109 172 214
109 172 214
109 172 214
109 172 214
109 172 214
109 172 214
109 172 214
109 172 214
109 172 214
109 172 214
109 172 214
109 172 214
109 172 214
109 172 214
109 172 214
110 172 214
110 172 214
110 172 214
110 172 214
110 172 214
110 172 214
110 172 214
110 172 214
110 172 214
110 172 214
110 173 214
110 173 214
111 173 214
111 173 214
111 173 214
111 173 214
111 173 214
111 173 214
111 173 214
111 173 214
111 173 214
111 173 214
112 173 214
112 173 214
112 173 214
112 173 214
112 174 215
112 174 215
112 174 215
112 174 215
113 174 215
113 174 215
113 174 215
113 174 215
113 174 215
113 174 215
113 174 215
113 174 215
114 174 215
114 174 215
114 175 215
114 175 215
114 175 215
114 175 215
114 175 215
115 175 215
115 175 215
115 175 215
115 175 215
115 175 215
115 175 215
115 175 215
116 176 216
116 176 216
116 176 216
116 176 216
116 176 216
116 176 216
116 176 216
117 176 216
117 176 216
117 176 216
117 176 216
117 176 216
117 177 216
117 177 216
118 177 216
118 177 216
118 177 216
118 177 216
118 177 216
118 177 216
119 177 216
119 177 216
119 177 216
119 177 216
119 178 217
119 178 217
119 178 217
120 178 217
120 178 217
120 178 217
120 178 217
120 178 217
120 178 217
120 178 217
121 178 217
121 179 217
121 179 217
121 179 217
121 179 217
121 179 217
122 179 217
122 179 217
122 179 217
122 179 217
122 179 217
122 179 217
122 179 217
123 180 218
123 180 218
123 180 218
123 180 218
123 180 218
123 180 218
123 180 218
124 180 218
124 180 218
124 180 218
124 180 218
124 180 218
124 181 218
124 181 218
125 181 218
125 181 218
125 181 218
125 181 218
125 181 218
125 181 218
125 181 218
126 181 218
126 181 218
126 181 218
126 181 218
126 182 219
126 182 219
126 182 219
126 182 219
127 182 219
127 182 219
127 182 219
127 182 219
127 182 219
127 182 219
127 182 219
128 182 219
128 182 219
128 183 219
128 183 219
128 183 219
128 183 219
128 183 219
128 183 219
129 183 219
129 183 219
129 183 219
129 183 219
129 183 219
129 183 219
129 183 219
129 183 219
130 184 220
130 184 220
130 184 220
130 184 220
130 184 220
130 184 220
130 184 220
130 184 220
131 184 220
131 184 220
131 184 220
131 184 220
131 184 220
131 184 220
131 184 220
131 185 220
131 185 220
132 185 220
132 185 220
132 185 220
132 185 220
132 185 220
132 185 220
132 185 220
132 185 220
132 185 220
132 185 220
132 185 220
131 185 220
131 185 220
131 184 220
131 184 220
131 184 220
131 184 220
131 184 220
131 184 220
130 184 220
130 184 220
130 184 220
130 184 220
130 184 220
130 184 220
130 184 220
130 184 220
130 184 220
129 183 219
129 183 219
129 183 219
129 183 219
129 183 219
129 183 219
129 183 219
129 183 219
128 183 219
128 183 219
128 183 219
128 183 219
128 183 219
128 182 219
128 182 219
127 182 219
127 182 219
127 182 219
127 182 219
127 182 219
127 182 219
127 182 219
127 182 219
126 182 219
126 182 219
126 182 219
126 182 219
126 181 218
126 181 218
126 181 218
125 181 218
125 181 218
125 181 218
125 181 218
125 181 218
125 181 218
125 181 218
124 181 218
124 181 218
124 180 218
124 180 218
124 180 218
124 180 218
124 180 218
123 180 218
123 180 218
123 180 218
123 180 218
123 180 218
123 180 218
123 180 218
122 179 217
122 179 217
122 179 217
122 179 217
122 179 217
122 179 217
122 179 217
121 179 217
121 179 217
121 179 217
121 179 217
121 179 217
121 178 217
121 178 217
120 178 217
120 178 217
120 178 217
120 178 217
120 178 217
120 178 217
119 178 217
119 178 217
119 178 217
119 178 217
119 177 216
119 177 216
119 177 216
118 177 216
118 177 216
118 177 216
118 177 216
118 177 216
118 177 216
118 177 216
117 177 216
117 176 216
117 176 216
117 176 216
117 176 216
117 176 216
116 176 216
116 176 216
116 176 216
116 176 216
116 176 216
116 176 216
116 176 216
115 175 215
115 175 215
115 175 215
115 175 215
115 175 215
115 175 215
115 175 215
114 175 215
114 175 215
114 175 215
114 175 215
114 175 215
114 175 215
114 174 215
114 174 215
113 174 215
113 174 215
113 174 215
113 174 215
113 174 215
113 174 215
113 174 215
113 174 215
112 174 215
112 174 215
112 174 215
112 174 215
112 173 214
112 173 214
112 173 214
112 173 214
111 173 214
111 173 214
111 173 214
111 173 214
111 173 214
111 173 214
111 173 214
111 173 214
111 173 214
111 173 214
111 173 214
110 173 214
110 173 214
110 172 214
110 172 214
110 172 214
110 172 214
110 172 214
110 172 214
110 172 214
110 172 214
110 172 214
110 172 214
110 172 214
109 172 214
109 172 214
109 172 214
109 172 214
109 172 214
109 172 214
109 172 214
109 172 214
109 172 214
109 172 214
109 172 214
109 172 214
109 172 214
109 172 214
109 172 214
109 172 214
109 172 214
109 172 214
109 172 214
109 172 214
109 172 214
109 172 214
109 172 214
109 172 214
109 172 214
109 172 214
109 172 214
109 172 214
109 172 214
109 172 214
109 172 214
109 172 214
109 172 214
109 172 214
109 172 214
109 172 214
109 172 214
109 172 214
109 172 214
109 172 214
109 172 214
109 172 214
109 172 214
109 172 214
109 172 214
109 172 214
110 172 214
110 172 214
110 172 214
110 172 214
110 172 214
110 172 214
110 172 214
110 172 214
110 172 214
110 172 214
110 173 214
110 173 214
110 173 214
111 173 214
111 173 214
111 173 214
111 173 214
111 173 214
111 173 214
111 173 214
111 173 214
111 173 214
111 173 214
112 173 214
112 173 214
112 173 214
112 173 214
112 173 214
112 174 215
112 174 215
112 174 215
112 174 215
113 174 215
113 174 215
113 174 215
113 174 215
113 174 215
113 174 215
113 174 215
113 174 215
114 174 215
114 174 215
114 175 215
114 175 215
114 175 215
114 175 215
114 175 215
114 175 215
115 175 215
115 175 215
115 175 215
115 175 215
115 175 215
115 175 215
115 175 215
116 176 216
116 176 216
116 176 216
116 176 216
116 176 216
116 176 216
116 176 216
117 176 216
117 176 216
117 176 216
117 176 216
117 176 216
117 177 216
118 177 216
118 177 216
118 177 216
118 177 216
118 177 216
118 177 216
118 177 216
119 177 216
119 177 216
119 177 216
119 178 217
119 178 217
119 178 217
119 178 217
120 178 217
120 178 217
120 178 217
120 178 217
120 178 217
120 178 217
121 178 217
121 178 217
121 179 217
121 179 217
121 179 217
121 179 217
121 179 217
122 179 217
122 179 217
122 179 217
122 179 217
122 179 217
122 179 217
122 179 217
123 180 218
123 180 218
123 180 218
123 180 218
123 180 218
123 180 218
123 180 218
124 180 218
124 180 218
124 180 218
124 180 218
124 180 218
124 181 218
124 181 218
125 181 218
125 181 218
125 181 218
125 181 218
125 181 218
125 181 218
125 181 218
126 181 218
126 181 218
126 181 218
126 182 219
126 182 219
126 182 219
126 182 219
127 182 219
127 182 219
127 182 219
127 182 219
127 182 219
127 182 219
127 182 219
128 182 219
128 182 219
128 183 219
128 183 219
128 183 219
128 183 219
128 183 219
128 183 219
129 183 219
129 183 219
129 183 219
129 183 219
129 183 219
129 183 219
129 183 219
129 183 219
130 184 220
130 184 220
130 184 220
130 184 220
130 184 220
130 184 220
130 184 220
130 184 220
130 184 220
131 184 220
131 184 220
131 184 220
131 184 220
131 184 220
131 184 220
131 185 220
131 185 220
132 185 220
132 185 220
132 185 220
132 185 220
132 185 220
132 185 220
132 185 220
133 185 220
132 185 220
132 185 220
132 185 220
132 185 220
132 185 220
132 185 220
132 185 220
132 185 220
131 185 220
131 185 220
131 185 220
131 184 220
131 184 220
131 184 220
131 184 220
131 184 220
131 184 220
130 184 220
130 184 220
130 184 220
130 184 220
130 184 220
130 184 220
130 184 220
130 184 220
129 183 219
129 183 219
129 183 219
129 183 219
129 183 219
129 183 219
129 183 219
129 183 219
128 183 219
128 183 219
128 183 219
128 183 219
128 183 219
128 183 219
128 182 219
128 182 219
127 182 219
127 182 219
127 182 219
127 182 219
127 182 219
127 182 219
127 182 219
126 182 219
126 182 219
126 182 219
126 182 219
126 181 218
126 181 218
126 181 218
126 181 218
125 181 218
125 181 218
125 181 218
125 181 218
125 181 218
125 181 218
125 181 218
124 181 218
124 181 218
124 180 218
124 180 218
124 180 218
124 180 218
124 180 218
123 180 218
123 180 218
123 180 218
123 180 218
123 180 218
123 180 218
123 180 218
122 179 217
122 179 217
122 179 217
122 179 217
122 179 217
122 179 217
122 179 217
121 179 217
121 179 217
121 179 217
121 179 217
121 178 217
121 178 217
120 178 217
120 178 217
120 178 217
120 178 217
120 178 217
120 178 217
120 178 217
119 178 217
119 178 217
119 178 217
119 177 216
119 177 216
119 177 216
118 177 216
118 177 216
118 177 216
118 177 216
118 177 216
118 177 216
118 177 216
117 177 216
117 177 216
117 176 216
117 176 216
117 176 216
117 176 216
117 176 216
116 176 216
116 176 216
116 176 216
116 176 216
116 176 216
116 176 216
116 176 216
115 175 215
115 175 215
115 175 215
115 175 215
115 175 215
115 175 215
115 175 215
114 175 215
114 175 215
114 175 215
114 175 215
114 175 215
114 175 215
114 174 215
114 174 215
113 174 215
113 174 215
113 174 215
113 174 215
113 174 215
113 174 215
113 174 215
113 174 215
112 174 215
112 174 215
112 174 215
112 174 215
112 174 215
112 173 214
112 173 214
112 173 214
112 173 214
111 173 214
111 173 214
111 173 214
111 173 214
111 173 214
111 173 214
111 173 214
111 173 214
111 173 214
111 173 214
111 173 214
110 173 214
110 173 214
110 173 214
110 172 214
110 172 214
110 172 214
110 172 214
110 172 214
110 172 214
110 172 214
110 172 214
110 172 214
110 172 214
110 172 214
110 172 214
110 172 214
109 172 214
109 172 214
109 172 214
109 172 214
109 172 214
109 172 214
109 172 214
109 172 214
109 172 214
109 172 214
109 172 214
109 172 214
109 172 214
109 172 214
109 172 214
109 172 214
109 172 214
109 172 214
109 172 214
109 172 214
109 172 214
109 172 214
109 172 214
109 172 214
109 172 214
109 172 214
109 172 214
109 172 214
109 172 214
109 172 214
109 172 214
109 172 214
110 172 214
110 172 214
110 172 214
110 172 214
110 172 214
110 172 214
110 172 214
110 172 214
110 172 214
110 172 214
110 172 214
110 172 214
110 172 214
110 173 214
110 173 214
110 173 214
111 173 214
111 173 214
111 173 214
111 173 214
111 173 214
111 173 214
111 173 214
111 173 214
111 173 214
111 173 214
111 173 214
112 173 214
112 173 214
112 173 214
112 173 214
112 173 214
112 174 215
112 174 215
112 174 215
112 174 215
113 174 215
113 174 215
113 174 215
113 174 215
113 174 215
113 174 215
113 174 215
113 174 215
114 174 215
114 174 215
114 175 215
114 175 215
114 175 215
114 175 215
114 175 215
114 175 215
115 175 215
115 175 215
115 175 215
115 175 215
115 175 215
115 175 215
115 175 215
116 176 216
116 176 216
116 176 216
116 176 216
116 176 216
116 176 216
116 176 216
117 176 216
117 176 216
117 176 216
117 176 216
117 176 216
117 177 216
117 177 216
118 177 216
118 177 216
118 177 216
118 177 216
118 177 216
118 177 216
119 177 216
119 177 216
119 177 216
119 177 216
119 178 217
119 178 217
119 178 217
120 178 217
120 178 217
120 178 217
120 178 217
120 178 217
120 178 217
120 178 217
121 178 217
121 179 217
121 179 217
121 179 217
121 179 217
121 179 217
121 179 217
122 179 217
122 179 217
122 179 217
122 179 217
122 179 217
122 179 217
123 180 218
123 180 218
123 180 218
123 180 218
123 180 218
123 180 218
123 180 218
124 180 218
124 180 218
124 180 218
124 180 218
124 180 218
124 181 218
124 181 218
125 181 218
125 181 218
125 181 218
125 181 218
125 181 218
125 181 218
125 181 218
126 181 218
126 181 218
126 181 218
126 181 218
126 182 219
126 182 219
126 182 219
126 182 219
127 182 219
127 182 219
127 182 219
127 182 219
127 182 219
127 182 219
127 182 219
128 182 219
128 182 219
128 183 219
128 183 219
128 183 219
128 183 219
128 183 219
128 183 219
129 183 219
129 183 219
129 183 219
129 183 219
129 183 219
129 183 219
129 183 219
129 183 219
130 184 220
130 184 220
130 184 220
130 184 220
130 184 220
130 184 220
130 184 220
130 184 220
131 184 220
131 184 220
131 184 220
131 184 220
131 184 220
131 184 220
131 185 220
131 185 220
132 185 220
132 185 220
132 185 220
132 185 220
132 185 220
132 185 220
132 185 220
132 185 220
132 185 220
133 185 220
133 185 220
133 185 220
133 185 220
132 185 220
132 185 220
132 185 220
132 185 220
132 185 220
132 185 220
132 185 220
132 185 220
132 185 220
131 185 220
131 185 220
131 184 220
131 184 220
131 184 220
131 184 220
131 184 220
131 184 220
131 184 220
130 184 220
130 184 220
130 184 220
130 184 220
130 184 220
130 184 220
130 184 220
130 184 220
129 183 219
129 183 219
129 183 219
129 183 219
129 183 219
129 183 219
129 183 219
129 183 219
128 183 219
128 183 219
128 183 219
128 183 219
128 183 219
128 183 219
128 182 219
128 182 219
127 182 219
127 182 219
127 182 219
127 182 219
127 182 219
127 182 219
127 182 219
126 182 219
126 182 219
126 182 219
126 182 219
126 181 218
126 181 218
126 181 218
125 181 218
125 181 218
125 181 218
125 181 218
125 181 218
125 181 218
125 181 218
124 181 218
124 181 218
124 180 218
124 180 218
124 180 218
124 180 218
124 180 218
123 180 218
123 180 218
123 180 218
123 180 218
123 180 218
123 180 218
123 180 218
122 179 217
122 179 217
122 179 217
122 179 217
122 179 217
122 179 217
122 179 217
121 179 217
121 179 217
121 179 217
121 179 217
121 179 217
121 178 217
121 178 217
120 178 217
120 178 217
120 178 217
120 178 217
120 178 217
120 178 217
119 178 217
119 178 217
119 178 217
119 178 217
119 177 216
119 177 216
119 177 216
118 177 216
118 177 216
118 177 216
118 177 216
118 177 216
118 177 216
118 177 216
117 177 216
117 176 216
117 176 216
117 176 216
117 176 216
117 176 216
117 176 216
116 176 216
116 176 216
116 176 216
116 176 216
116 176 216
116 176 216
116 176 216
115 175 215
115 175 215
115 175 215
115 175 215
115 175 215
115 175 215
115 175 215
114 175 215
114 175 215
114 175 215
114 175 215
114 175 215
114 175 215
114 174 215
114 174 215
113 174 215
113 174 215
113 174 215
113 174 215
113 174 215
113 174 215
113 174 215
113 174 215
112 174 215
112 174 215
112 174 215
112 174 215
112 174 215
112 173 214
112 173 214
112 173 214
112 173 214
112 173 214
111 173 214
111 173 214
111 173 214
111 173 214
111 173 214
111 173 214
111 173 214
111 173 214
111 173 214
111 173 214
111 173 214
111 173 214
110 173 214
110 173 214
110 173 214
110 173 214
110 172 214
110 172 214
110 172 214
110 172 214
110 172 214
110 172 214
110 172 214
110 172 214
110 172 214
110 172 214
110 172 214
110 172 214
110 172 214
110 172 214
110 172 214
110 172 214
110 172 214
110 172 214
110 172 214
110 172 214
110 172 214
110 172 214
110 172 214
110 172 214
110 172 214
110 172 214
110 172 214
110 172 214
110 172 214
110 172 214
110 172 214
110 172 214
110 172 214
110 172 214
110 172 214
110 172 214
110 172 214
110 172 214
110 172 214
110 172 214
110 172 214
110 172 214
110 172 214
110 172 214
110 172 214
110 172 214
110 173 214
110 173 214
110 173 214
110 173 214
111 173 214
111 173 214
111 173 214
111 173 214
111 173 214
111 173 214
111 173 214
111 173 214
111 173 214
111 173 214
111 173 214
111 173 214
112 173 214
112 173 214
112 173 214
112 173 214
112 173 214
112 174 215
112 174 215
112 174 215
112 174 215
112 174 215
113 174 215
113 174 215
113 174 215
113 174 215
113 174 215
113 174 215
113 174 215
113 174 215
114 174 215
114 174 215
114 175 215
114 175 215
114 175 215
114 175 215
114 175 215
114 175 215
115 175 215
115 175 215
115 175 215
115 175 215
115 175 215
115 175 215
115 175 215
116 176 216
116 176 216
116 176 216
116 176 216
116 176 216
116 176 216
116 176 216
117 176 216
117 176 216
117 176 216
117 176 216
117 176 216
117 176 216
117 177 216
118 177 216
118 177 216
118 177 216
118 177 216
118 177 216
118 177 216
118 177 216
119 177 216
119 177 216
119 177 216
119 178 217
119 178 217
119 178 217
119 178 217
120 178 217
120 178 217
120 178 217
120 178 217
120 178 217
120 178 217
121 178 217
121 178 217
121 179 217
121 179 217
121 179 217
121 179 217
121 179 217
122 179 217
122 179 217
122 179 217
122 179 217
122 179 217
122 179 217
122 179 217
123 180 218
123 180 218
123 180 218
123 180 218
123 180 218
123 180 218
123 180 218
124 180 218
124 180 218
124 180 218
124 180 218
124 180 218
124 181 218
124 181 218
125 181 218
125 181 218
125 181 218
125 181 218
125 181 218
125 181 218
125 181 218
126 181 218
126 181 218
126 181 218
126 182 219
126 182 219
126 182 219
126 182 219
127 182 219
127 182 219
127 182 219
127 182 219
127 182 219
127 182 219
127 182 219
128 182 219
128 182 219
128 183 219
128 183 219
128 183 219
128 183 219
128 183 219
128 183 219
129 183 219
129 183 219
129 183 219
129 183 219
129 183 219
129 183 219
129 183 219
129 183 219
130 184 220
130 184 220
130 184 220
130 184 220
130 184 220
130 184 220
130 184 220
130 184 220
130 184 220
131 184 220
131 184 220
131 184 220
131 184 220
131 184 220
131 184 220
131 185 220
131 185 220
132 185 220
132 185 220
132 185 220
132 185 220
132 185 220
132 185 220
132 185 220
132 185 220
132 185 220
133 185 220
133 185 220
133 185 220
133 186 221
133 186 221
133 185 220
133 185 220
133 185 220
133 185 220
132 185 220
132 185 220
132 185 220
132 185 220
132 185 220
132 185 220
132 185 220
132 185 220
132 185 220
131 185 220
131 185 220
131 184 220
131 184 220
131 184 220
131 184 220
131 184 220
131 184 220
131 184 220
130 184 220
130 184 220
130 184 220
130 184 220
130 184 220
130 184 220
130 184 220
130 184 220
129 183 219
129 183 219
129 183 219
129 183 219
129 183 219
129 183 219
129 183 219
129 183 219
128 183 219
128 183 219
128 183 219
128 183 219
128 183 219
128 182 219
128 182 219
127 182 219
127 182 219
127 182 219
127 182 219
127 182 219
127 182 219
127 182 219
127 182 219
126 182 219
126 182 219
126 182 219
126 181 218
126 181 218
126 181 218
126 181 218
125 181 218
125 181 218
125 181 218
125 181 218
125 181 218
125 181 218
125 181 218
124 181 218
124 181 218
124 180 218
124 180 218
124 180 218
124 180 218
124 180 218
123 180 218
123 180 218
123 180 218
123 180 218
123 180 218
123 180 218
123 180 218
122 179 217
122 179 217
122 179 217
122 179 217
122 179 217
122 179 217
121 179 217
121 179 217
121 179 217
121 179 217
121 179 217
121 179 217
121 178 217
120 178 217
120 178 217
120 178 217
120 178 217
120 178 217
120 178 217
120 178 217
119 178 217
119 178 217
119 178 217
119 177 216
119 177 216
119 177 216
118 177 216
118 177 216
118 177 216
118 177 216
118 177 216
118 177 216
118 177 216
117 177 216
117 177 216
117 176 216
117 176 216
117 176 216
117 176 216
117 176 216
116 176 216
116 176 216
116 176 216
116 176 216
116 176 216
116 176 216
116 176 216
115 175 215
115 175 215
115 175 215
115 175 215
115 175 215
115 175 215
115 175 215
115 175 215
114 175 215
114 175 215
114 175 215
114 175 215
114 175 215
114 175 215
114 174 215
114 174 215
113 174 215
113 174 215
113 174 215
113 174 215
113 174 215
113 174 215
113 174 215
113 174 215
113 174 215
112 174 215
112 174 215
112 174 215
112 174 215
112 174 215
112 173 214
112 173 214
112 173 214
112 173 214
112 173 214
111 173 214
111 173 214
111 173 214
111 173 214
111 173 214
111 173 214
111 173 214
111 173 214
111 173 214
111 173 214
111 173 214
111 173 214
111 173 214
111 173 214
110 173 214
110 173 214
110 173 214
110 173 214
110 173 214
110 173 214
110 172 214
110 172 214
110 172 214
110 172 214
110 172 214
110 172 214
110 172 214
110 172 214
110 172 214
110 172 214
110 172 214
110 172 214
110 172 214
110 172 214
110 172 214
110 172 214
110 172 214
110 172 214
110 172 214
110 172 214
110 172 214
110 172 214
110 172 214
110 172 214
110 172 214
110 172 214
110 172 214
110 172 214
110 172 214
110 172 214
110 172 214
110 173 214
110 173 214
110 173 214
110 173 214
110 173 214
111 173 214
111 173 214
111 173 214
111 173 214
111 173 214
111 173 214
111 173 214
111 173 214
111 173 214
111 173 214
111 173 214
111 173 214
111 173 214
111 173 214
112 173 214
112 173 214
112 173 214
112 173 214
112 173 214
112 174 215
112 174 215
112 174 215
112 174 215
112 174 215
113 174 215
113 174 215
113 174 215
113 174 215
113 174 215
113 174 215
113 174 215
113 174 215
113 174 215
114 174 215
114 174 215
114 175 215
114 175 215
114 175 215
114 175 215
114 175 215
114 175 215
115 175 215
115 175 215
115 175 215
115 175 215
115 175 215
115 175 215
115 175 215
115 175 215
116 176 216
116 176 216
116 176 216
116 176 216
116 176 216
116 176 216
116 176 216
117 176 216
117 176 216
117 176 216
117 176 216
117 176 216
117 177 216
117 177 216
118 177 216
118 177 216
118 177 216
118 177 216
118 177 216
118 177 216
119 177 216
119 177 216
119 177 216
119 177 216
119 178 217
119 178 217
119 178 217
120 178 217
120 178 217
120 178 217
120 178 217
120 178 217
120 178 217
120 178 217
121 178 217
121 178 217
121 179 217
121 179 217
121 179 217
121 179 217
121 179 217
122 179 217
122 179 217
122 179 217
122 179 217
122 179 217
122 179 217
123 180 218
123 180 218
123 180 218
123 180 218
123 180 218
123 180 218
123 180 218
124 180 218
124 180 218
124 180 218
124 180 218
124 180 218
124 181 218
124 181 218
125 181 218
125 181 218
125 181 218
125 181 218
125 181 218
125 181 218
125 181 218
126 181 218
126 181 218
126 181 218
126 181 218
126 182 219
126 182 219
126 182 219
127 182 219
127 182 219
127 182 219
127 182 219
127 182 219
127 182 219
127 182 219
127 182 219
128 182 219
128 182 219
128 183 219
128 183 219
128 183 219
128 183 219
128 183 219
129 183 219
129 183 219
129 183 219
129 183 219
129 183 219
129 183 219
129 183 219
129 183 219
130 184 220
130 184 220
130 184 220
130 184 220
130 184 220
130 184 220
130 184 220
130 184 220
131 184 220
131 184 220
131 184 220
131 184 220
131 184 220
131 184 220
131 184 220
131 185 220
131 185 220
132 185 220
132 185 220
132 185 220
132 185 220
132 185 220
132 185 220
132 185 220
132 185 220
132 185 220
133 185 220
133 185 220
133 185 220
133 185 220
133 186 221
133 186 221
133 186 221
133 186 221
133 186 221
133 186 221
133 186 221
133 185 220
133 185 220
133 185 220
133 185 220
132 185 220
132 185 220
132 185 220
132 185 220
132 185 220
132 185 220
132 185 220
132 185 220
132 185 220
131 185 220
131 185 220
131 184 220
131 184 220
131 184 220
131 184 220
131 184 220
131 184 220
130 184 220
130 184 220
130 184 220
130 184 220
130 184 220
130 184 220
130 184 220
130 184 220
130 184 220
129 183 219
129 183 219
129 183 219
129 183 219
129 183 219
129 183 219
129 183 219
128 183 219
128 183 219
128 183 219
128 183 219
128 183 219
128 183 219
128 182 219
128 182 219
127 182 219
127 182 219
127 182 219
127 182 219
127 182 219
127 182 219
127 182 219
126 182 219
126 182 219
126 182 219
126 182 219
126 181 218
126 181 218
126 181 218
125 181 218
125 181 218
125 181 218
125 181 218
125 181 218
125 181 218
125 181 218
124 181 218
124 181 218
124 180 218
124 180 218
124 180 218
124 180 218
124 180 218
123 180 218
123 180 218
123 180 218
123 180 218
123 180 218
123 180 218
123 180 218
122 179 217
122 179 217
122 179 217
122 179 217
122 179 217
122 179 217
122 179 217
121 179 217
121 179 217
121 179 217
121 179 217
121 179 217
121 178 217
121 178 217
120 178 217
120 178 217
120 178 217
120 178 217
120 178 217
120 178 217
119 178 217
119 178 217
119 178 217
119 178 217
119 177 216
119 177 216
119 177 216
118 177 216
118 177 216
118 177 216
118 177 216
118 177 216
118 177 216
118 177 216
117 177 216
117 177 216
117 176 216
117 176 216
117 176 216
117 176 216
117 176 216
116 176 216
116 176 216
116 176 216
116 176 216
116 176 216
116 176 216
116 176 216
115 175 215
115 175 215
115 175 215
115 175 215
115 175 215
115 175 215
115 175 215
115 175 215
114 175 215
114 175 215
114 175 215
114 175 215
114 175 215
114 175 215
114 174 215
114 174 215
113 174 215
113 174 215
113 174 215
113 174 215
113 174 215
113 174 215
113 174 215
113 174 215
113 174 215
113 174 215
112 174 215
112 174 215
112 174 215
112 174 215
112 174 215
112 173 214
112 173 214
112 173 214
112 173 214
112 173 214
112 173 214
111 173 214
111 173 214
111 173 214
111 173 214
111 173 214
111 173 214
111 173 214
111 173 214
111 173 214
111 173 214
111 173 214
111 173 214
111 173 214
111 173 214
111 173 214
111 173 214
111 173 214
111 173 214
110 173 214
110 173 214
110 173 214
110 173 214
110 173 214
110 173 214
110 173 214
110 173 214
110 173 214
110 173 214
110 173 214
110 173 214
110 173 214
110 173 214
110 173 214
110 173 214
110 173 214
110 173 214
110 173 214
110 173 214
110 173 214
110 173 214
110 173 214
110 173 214
111 173 214
111 173 214
111 173 214
111 173 214
111 173 214
111 173 214
111 173 214
111 173 214
111 173 214
111 173 214
111 173 214
111 173 214
111 173 214
111 173 214
111 173 214
111 173 214
111 173 214
111 173 214
112 173 214
112 173 214
112 173 214
112 173 214
112 173 214
112 173 214
112 174 215
112 174 215
112 174 215
112 174 215
112 174 215
112 174 215
113 174 215
113 174 215
113 174 215
113 174 215
113 174 215
113 174 215
113 174 215
113 174 215
113 174 215
114 174 215
114 174 215
114 175 215
114 175 215
114 175 215
114 175 215
114 175 215
114 175 215
115 175 215
115 175 215
115 175 215
115 175 215
115 175 215
115 175 215
115 175 215
115 175 215
116 176 216
116 176 216
116 176 216
116 176 216
116 176 216
116 176 216
116 176 216
117 176 216
117 176 216
117 176 216
117 176 216
117 176 216
117 177 216
117 177 216
118 177 216
118 177 216
118 177 216
118 177 216
118 177 216
118 177 216
118 177 216
119 177 216
119 177 216
119 177 216
119 178 217
119 178 217
119 178 217
119 178 217
120 178 217
120 178 217
120 178 217
120 178 217
120 178 217
120 178 217
121 178 217
121 178 217
121 179 217
121 179 217
121 179 217
121 179 217
121 179 217
122 179 217
122 179 217
122 179 217
122 179 217
122 179 217
122 179 217
122 179 217
123 180 218
123 180 218
123 180 218
123 180 218
123 180 218
123 180 218
123 180 218
124 180 218
124 180 218
124 180 218
124 180 218
124 180 218
124 181 218
124 181 218
125 181 218
125 181 218
125 181 218
125 181 218
125 181 218
125 181 218
125 181 218
126 181 218
126 181 218
126 181 218
126 182 219
126 182 219
126 182 219
126 182 219
127 182 219
127 182 219
127 182 219
127 182 219
127 182 219
127 182 219
127 182 219
128 182 219
128 182 219
128 183 219
128 183 219
128 183 219
128 183 219
128 183 219
128 183 219
129 183 219
129 183 219
129 183 219
129 183 219
129 183 219
129 183 219
129 183 219
129 183 219
130 184 220
130 184 220
130 184 220
130 184 220
130 184 220
130 184 220
130 184 220
130 184 220
131 184 220
131 184 220
131 184 220
131 184 220
131 184 220
131 184 220
131 185 220
131 185 220
132 185 220
132 185 220
132 185 220
132 185 220
132 185 220
132 185 220
132 185 220
132 185 220
132 185 220
133 185 220
133 185 220
133 185 220
133 185 220
133 186 221
133 186 221
133 186 221
133 186 221
133 186 221
134 186 221
134 186 221
134 186 221
133 186 221
133 186 221
133 186 221
133 186 221
133 186 221
133 185 220
133 185 220
133 185 220
133 185 220
132 185 220
132 185 220
132 185 220
132 185 220
132 185 220
132 185 220
132 185 220
132 185 220
132 185 220
131 185 220
131 185 220
131 184 220
131 184 220
131 184 220
131 184 220
131 184 220
131 184 220
130 184 220
130 184 220
130 184 220
130 184 220
130 184 220
130 184 220
130 184 220
130 184 220
129 183 219
129 183 219
129 183 219
129 183 219
129 183 219
129 183 219
129 183 219
129 183 219
128 183 219
128 183 219
128 183 219
128 183 219
128 183 219
128 183 219
128 182 219
128 182 219
127 182 219
127 182 219
127 182 219
127 182 219
127 182 219
127 182 219
127 182 219
126 182 219
126 182 219
126 182 219
126 181 218
126 181 218
126 181 218
126 181 218
125 181 218
125 181 218
125 181 218
125 181 218
125 181 218
125 181 218
125 181 218
124 181 218
124 181 218
124 180 218
124 180 218
124 180 218
124 180 218
124 180 218
123 180 218
123 180 218
123 180 218
123 180 218
123 180 218
123 180 218
123 180 218
122 179 217
122 179 217
122 179 217
122 179 217
122 179 217
122 179 217
121 179 217
121 179 217
121 179 217
121 179 217
121 179 217
121 178 217
121 178 217
120 178 217
120 178 217
120 178 217
120 178 217
120 178 217
120 178 217
120 178 217
119 178 217
119 178 217
119 178 217
119 177 216
119 177 216
119 177 216
119 177 216
118 177 216
118 177 216
118 177 216
118 177 216
118 177 216
118 177 216
118 177 216
117 177 216
117 177 216
117 176 216
117 176 216
117 176 216
117 176 216
117 176 216
116 176 216
116 176 216
116 176 216
116 176 216
116 176 216
116 176 216
116 176 216
115 175 215
115 175 215
115 175 215
115 175 215
115 175 215
115 175 215
115 175 215
115 175 215
114 175 215
114 175 215
114 175 215
114 175 215
114 175 215
114 175 215
114 174 215
114 174 215
114 174 215
113 174 215
113 174 215
113 174 215
113 174 215
113 174 215
113 174 215
113 174 215
113 174 215
113 174 215
112 174 215
112 174 215
112 174 215
112 174 215
112 174 215
112 174 215
112 173 214
112 173 214
112 173 214
112 173 214
112 173 214
112 173 214
112 173 214
111 173 214
111 173 214
111 173 214
111 173 214
111 173 214
111 173 214
111 173 214
111 173 214
111 173 214
111 173 214
111 173 214
111 173 214
111 173 214
111 173 214
111 173 214
111 173 214
111 173 214
111 173 214
111 173 214
111 173 214
111 173 214
111 173 214
111 173 214
111 173 214
111 173 214
111 173 214
111 173 214
111 173 214
111 173 214
111 173 214
111 173 214
111 173 214
111 173 214
111 173 214
111 173 214
111 173 214
111 173 214
111 173 214
111 173 214
111 173 214
111 173 214
111 173 214
111 173 214
111 173 214
111 173 214
111 173 214
111 173 214
111 173 214
111 173 214
111 173 214
112 173 214
112 173 214
112 173 214
112 173 214
112 173 214
112 173 214
112 174 215
112 174 215
112 174 215
112 174 215
112 174 215
112 174 215
113 174 215
113 174 215
113 174 215
113 174 215
113 174 215
113 174 215
113 174 215
113 174 215
113 174 215
113 174 215
114 174 215
114 174 215
114 175 215
114 175 215
114 175 215
114 175 215
114 175 215
114 175 215
114 175 215
115 175 215
115 175 215
115 175 215
115 175 215
115 175 215
115 175 215
115 175 215
115 175 215
116 176 216
116 176 216
116 176 216
116 176 216
116 176 216
116 176 216
116 176 216
117 176 216
117 176 216
117 176 216
117 176 216
117 176 216
117 176 216
117 177 216
118 177 216
118 177 216
118 177 216
118 177 216
118 177 216
118 177 216
118 177 216
119 177 216
119 177 216
119 177 216
119 177 216
119 178 217
119 178 217
119 178 217
120 178 217
120 178 217
120 178 217
120 178 217
120 178 217
120 178 217
120 178 217
121 178 217
121 179 217
121 179 217
121 179 217
121 179 217
121 179 217
121 179 217
122 179 217
122 179 217
122 179 217
122 179 217
122 179 217
122 179 217
123 180 218
123 180 218
123 180 218
123 180 218
123 180 218
123 180 218
123 180 218
124 180 218
124 180 218
124 180 218
124 180 218
124 180 218
124 181 218
124 181 218
125 181 218
125 181 218
125 181 218
125 181 218
125 181 218
125 181 218
125 181 218
126 181 218
126 181 218
126 181 218
126 181 218
126 182 219
126 182 219
126 182 219
127 182 219
127 182 219
127 182 219
127 182 219
127 182 219
127 182 219
127 182 219
127 182 219
128 182 219
128 183 219
128 183 219
128 183 219
128 183 219
128 183 219
128 183 219
129 183 219
129 183 219
129 183 219
129 183 219
129 183 219
129 183 219
129 183 219
129 183 219
130 184 220
130 184 220
130 184 220
130 184 220
130 184 220
130 184 220
130 184 220
130 184 220
131 184 220
131 184 220
131 184 220
131 184 220
131 184 220
131 184 220
131 185 220
131 185 220
132 185 220
132 185 220
132 185 220
132 185 220
132 185 220
132 185 220
132 185 220
132 185 220
132 185 220
133 185 220
133 185 220
133 185 220
133 185 220
133 186 221
133 186 221
133 186 221
133 186 221
133 186 221
134 186 221
134 186 221
134 186 221
134 186 221
134 186 221
134 186 221
134 186 221
134 186 221
134 186 221
133 186 221
133 186 221
133 186 221
133 186 221
133 186 221
133 185 220
133 185 220
133 185 220
133 185 220
132 185 220
132 185 220
132 185 220
132 185 220
132 185 220
132 185 220
132 185 220
132 185 220
132 185 220
131 185 220
131 185 220
131 184 220
131 184 220
131 184 220
131 184 220
131 184 220
131 184 220
130 184 220
130 184 220
130 184 220
130 184 220
130 184 220
130 184 220
130 184 220
130 184 220
129 183 219
129 183 219
129 183 219
129 183 219
129 183 219
129 183 219
129 183 219
128 183 219
128 183 219
128 183 219
128 183 219
128 183 219
128 183 219
128 182 219
128 182 219
127 182 219
127 182 219
127 182 219
127 182 219
127 182 219
127 182 219
127 182 219
126 182 219
126 182 219
126 182 219
126 182 219
126 181 218
126 181 218
126 181 218
126 181 218
125 181 218
125 181 218
125 181 218
125 181 218
125 181 218
125 181 218
125 181 218
124 181 218
124 180 218
124 180 218
124 180 218
124 180 218
124 180 218
123 180 218
123 180 218
123 180 218
123 180 218
123 180 218
123 180 218
123 180 218
122 179 217
122 179 217
122 179 217
122 179 217
122 179 217
122 179 217
122 179 217
121 179 217
121 179 217
121 179 217
121 179 217
121 179 217
121 178 217
121 178 217
120 178 217
120 178 217
120 178 217
120 178 217
120 178 217
120 178 217
120 178 217
119 178 217
119 178 217
119 178 217
119 177 216
119 177 216
119 177 216
118 177 216
118 177 216
118 177 216
118 177 216
118 177 216
118 177 216
118 177 216
117 177 216
117 177 216
117 176 216
117 176 216
117 176 216
117 176 216
117 176 216
117 176 216
116 176 216
116 176 216
116 176 216
116 176 216
116 176 216
116 176 216
116 176 216
115 175 215
115 175 215
115 175 215
115 175 215
115 175 215
115 175 215
115 175 215
115 175 215
114 175 215
114 175 215
114 175 215
114 175 215
114 175 215
114 175 215
114 175 215
114 174 215
114 174 215
113 174 215
113 174 215
113 174 215
113 174 215
113 174 215
113 174 215
113 174 215
113 174 215
113 174 215
113 174 215
113 174 215
112 174 215
112 174 215
112 174 215
112 174 215
112 174 215
112 174 215
112 174 215
112 173 214
112 173 214
112 173 214
112 173 214
112 173 214
112 173 214
112 173 214
112 173 214
112 173 214
111 173 214
111 173 214
111 173 214
111 173 214
111 173 214
111 173 214
111 173 214
111 173 214
111 173 214
111 173 214
111 173 214
111 173 214
111 173 214
111 173 214
111 173 214
111 173 214
111 173 214
111 173 214
111 173 214
111 173 214
111 173 214
111 173 214
111 173 214
111 173 214
111 173 214
111 173 214
111 173 214
111 173 214
111 173 214
111 173 214
111 173 214
111 173 214
111 173 214
111 173 214
111 173 214
112 173 214
112 173 214
112 173 214
112 173 214
112 173 214
112 173 214
112 173 214
112 173 214
112 174 215
112 174 215
112 174 215
112 174 215
112 174 215
112 174 215
112 174 215
113 174 215
113 174 215
113 174 215
113 174 215
113 174 215
113 174 215
113 174 215
113 174 215
113 174 215
113 174 215
113 174 215
114 174 215
114 174 215
114 175 215
114 175 215
114 175 215
114 175 215
114 175 215
114 175 215
114 175 215
115 175 215
115 175 215
115 175 215
115 175 215
115 175 215
115 175 215
115 175 215
115 175 215
116 176 216
116 176 216
116 176 216
116 176 216
116 176 216
116 176 216
116 176 216
117 176 216
117 176 216
117 176 216
117 176 216
117 176 216
117 176 216
117 177 216
117 177 216
118 177 216
118 177 216
118 177 216
118 177 216
118 177 216
118 177 216
118 177 216
119 177 216
119 177 216
119 177 216
119 178 217
119 178 217
119 178 217
120 178 217
120 178 217
120 178 217
120 178 217
120 178 217
120 178 217
120 178 217
121 178 217
121 178 217
121 179 217
121 179 217
121 179 217
121 179 217
121 179 217
122 179 217
122 179 217
122 179 217
122 179 217
122 179 217
122 179 217
122 179 217
123 180 218
123 180 218
123 180 218
123 180 218
123 180 218
123 180 218
124 180 218
124 180 218
124 180 218
124 180 218
124 180 218
124 180 218
124 181 218
125 181 218
125 181 218
125 181 218
125 181 218
125 181 218
125 181 218
125 181 218
125 181 218
126 181 218
126 181 218
126 181 218
126 182 219
126 182 219
126 182 219
126 182 219
127 182 219
127 182 219
127 182 219
127 182 219
127 182 219
127 182 219
127 182 219
128 182 219
128 182 219
128 183 219
128 183 219
128 183 219
128 183 219
128 183 219
129 183 219
129 183 219
129 183 219
129 183 219
129 183 219
129 183 219
129 183 219
129 183 219
130 184 220
130 184 220
130 184 220
130 184 220
130 184 220
130 184 220
130 184 220
130 184 220
131 184 220
131 184 220
131 184 220
131 184 220
131 184 220
131 184 220
131 185 220
131 185 220
131 185 220
132 185 220
132 185 220
132 185 220
132 185 220
132 185 220
132 185 220
132 185 220
132 185 220
133 185 220
133 185 220
133 185 220
133 185 220
133 186 221
133 186 221
133 186 221
133 186 221
133 186 221
134 186 221
134 186 221
134 186 221
134 186 221
134 186 221
134 186 221
134 186 221
134 186 221
134 186 221
134 186 221
134 186 221
134 186 221
134 186 221
134 186 221
134 186 221
133 186 221
133 186 221
133 186 221
133 186 221
133 186 221
133 185 220
133 185 220
133 185 220
133 185 220
132 185 220
132 185 220
132 185 220
132 185 220
132 185 220
132 185 220
132 185 220
132 185 220
131 185 220
131 185 220
131 184 220
131 184 220
131 184 220
131 184 220
131 184 220
131 184 220
131 184 220
130 184 220
130 184 220
130 184 220
130 184 220
130 184 220
130 184 220
130 184 220
130 184 220
129 183 219
129 183 219
129 183 219
129 183 219
129 183 219
129 183 219
129 183 219
128 183 219
128 183 219
128 183 219
128 183 219
128 183 219
128 183 219
128 182 219
128 182 219
127 182 219
127 182 219
127 182 219
127 182 219
127 182 219
127 182 219
127 182 219
126 182 219
126 182 219
126 182 219
126 182 219
126 181 218
126 181 218
126 181 218
125 181 218
125 181 218
125 181 218
125 181 218
125 181 218
125 181 218
125 181 218
124 181 218
124 181 218
124 180 218
124 180 218
124 180 218
124 180 218
124 180 218
123 180 218
123 180 218
123 180 218
123 180 218
123 180 218
123 180 218
123 180 218
122 179 217
122 179 217
122 179 217
122 179 217
122 179 217
122 179 217
122 179 217
121 179 217
121 179 217
121 179 217
121 179 217
121 179 217
121 178 217
120 178 217
120 178 217
120 178 217
120 178 217
120 178 217
120 178 217
120 178 217
119 178 217
119 178 217
119 178 217
119 178 217
119 177 216
119 177 216
119 177 216
118 177 216
118 177 216
118 177 216
118 177 216
118 177 216
118 177 216
118 177 216
117 177 216
117 177 216
117 176 216
117 176 216
117 176 216
117 176 216
117 176 216
117 176 216
116 176 216
116 176 216
116 176 216
116 176 216
116 176 216
116 176 216
116 176 216
115 175 215
115 175 215
115 175 215
115 175 215
115 175 215
115 175 215
115 175 215
115 175 215
115 175 215
114 175 215
114 175 215
114 175 215
114 175 215
114 175 215
114 175 215
114 175 215
114 174 215
114 174 215
113 174 215
113 174 215
113 174 215
113 174 215
113 174 215
113 174 215
113 174 215
113 174 215
113 174 215
113 174 215
113 174 215
113 174 215
112 174 215
112 174 215
112 174 215
112 174 215
112 174 215
112 174 215
112 174 215
112 174 215
112 173 214
112 173 214
112 173 214
112 173 214
112 173 214
112 173 214
112 173 214
112 173 214
112 173 214
112 173 214
112 173 214
112 173 214
112 173 214
112 173 214
112 173 214
111 173 214
112 173 214
111 173 214
111 173 214
111 173 214
111 173 214
112 173 214
111 173 214
111 173 214
112 173 214
112 173 214
112 173 214
112 173 214
112 173 214
112 173 214
112 173 214
112 173 214
112 173 214
112 173 214
112 173 214
112 173 214
112 173 214
112 173 214
112 173 214
112 173 214
112 174 215
112 174 215
112 174 215
112 174 215
112 174 215
112 174 215
112 174 215
113 174 215
113 174 215
113 174 215
113 174 215
113 174 215
113 174 215
113 174 215
113 174 215
113 174 215
113 174 215
113 174 215
113 174 215
113 174 215
114 174 215
114 174 215
114 175 215
114 175 215
114 175 215
114 175 215
114 175 215
114 175 215
114 175 215
115 175 215
115 175 215
115 175 215
115 175 215
115 175 215
115 175 215
115 175 215
115 175 215
115 175 215
116 176 216
116 176 216
116 176 216
116 176 216
116 176 216
116 176 216
116 176 216
117 176 216
117 176 216
117 176 216
117 176 216
117 176 216
117 176 216
117 177 216
117 177 216
118 177 216
118 177 216
118 177 216
118 177 216
118 177 216
118 177 216
118 177 216
119 177 216
119 177 216
119 177 216
119 178 217
119 178 217
119 178 217
119 178 217
120 178 217
120 178 217
120 178 217
120 178 217
120 178 217
120 178 217
120 178 217
121 178 217
121 179 217
121 179 217
121 179 217
121 179 217
121 179 217
122 179 217
122 179 217
122 179 217
122 179 217
122 179 217
122 179 217
122 179 217
123 180 218
123 180 218
123 180 218
123 180 218
123 180 218
123 180 218
123 180 218
124 180 218
124 180 218
124 180 218
124 180 218
124 180 218
124 181 218
124 181 218
125 181 218
125 181 218
125 181 218
125 181 218
125 181 218
125 181 218
125 181 218
126 181 218
126 181 218
126 181 218
126 182 219
126 182 219
126 182 219
126 182 219
127 182 219
127 182 219
127 182 219
127 182 219
127 182 219
127 182 219
127 182 219
128 182 219
128 182 219
128 183 219
128 183 219
128 183 219
128 183 219
128 183 219
128 183 219
129 183 219
129 183 219
129 183 219
129 183 219
129 183 219
129 183 219
129 183 219
130 184 220
130 184 220
130 184 220
130 184 220
130 184 220
130 184 220
130 184 220
130 184 220
131 184 220
131 184 220
131 184 220
131 184 220
131 184 220
131 184 220
131 184 220
131 185 220
131 185 220
132 185 220
132 185 220
132 185 220
132 185 220
132 185 220
132 185 220
132 185 220
132 185 220
133 185 220
133 185 220
133 185 220
133 185 220
133 186 221
133 186 221
133 186 221
133 186 221
133 186 221
134 186 221
134 186 221
134 186 221
134 186 221
134 186 221
134 186 221
134 186 221
134 186 221
134 186 221
135 186 221
135 186 221
135 186 221
134 186 221
134 186 221
134 186 221
134 186 221
134 186 221
134 186 221
134 186 221
134 186 221
134 186 221
133 186 221
133 186 221
133 186 221
133 186 221
133 186 221
133 185 220
133 185 220
133 185 220
133 185 220
132 185 220
132 185 220
132 185 220
132 185 220
132 185 220
132 185 220
132 185 220
132 185 220
131 185 220
131 185 220
131 184 220
131 184 220
131 184 220
131 184 220
131 184 220
131 184 220
130 184 220
130 184 220
130 184 220
130 184 220
130 184 220
130 184 220
130 184 220
130 184 220
129 183 219
129 183 219
129 183 219
129 183 219
129 183 219
129 183 219
129 183 219
129 183 219
128 183 219
128 183 219
128 183 219
128 183 219
128 183 219
128 183 219
128 182 219
128 182 219
127 182 219
127 182 219
127 182 219
127 182 219
127 182 219
127 182 219
127 182 219
126 182 219
126 182 219
126 182 219
126 181 218
126 181 218
126 181 218
126 181 218
125 181 218
125 181 218
125 181 218
125 181 218
125 181 218
125 181 218
125 181 218
124 181 218
124 181 218
124 180 218
124 180 218
124 180 218
124 180 218
124 180 218
123 180 218
123 180 218
123 180 218
123 180 218
123 180 218
123 180 218
122 179 217
122 179 217
122 179 217
122 179 217
122 179 217
122 179 217
122 179 217
121 179 217
121 179 217
121 179 217
121 179 217
121 179 217
121 178 217
121 178 217
120 178 217
120 178 217
120 178 217
120 178 217
120 178 217
120 178 217
120 178 217
119 178 217
119 178 217
119 178 217
119 177 216
119 177 216
119 177 216
119 177 216
118 177 216
118 177 216
118 177 216
118 177 216
118 177 216
118 177 216
118 177 216
117 177 216
117 177 216
117 176 216
117 176 216
117 176 216
117 176 216
117 176 216
117 176 216
116 176 216
116 176 216
116 176 216
116 176 216
116 176 216
116 176 216
116 176 216
116 176 216
115 175 215
115 175 215
115 175 215
115 175 215
115 175 215
115 175 215
115 175 215
115 175 215
115 175 215
114 175 215
114 175 215
114 175 215
114 175 215
114 175 215
114 175 215
114 175 215
114 174 215
114 174 215
114 174 215
113 174 215
113 174 215
113 174 215
113 174 215
113 174 215
113 174 215
113 174 215
113 174 215
113 174 215
113 174 215
113 174 215
113 174 215
113 174 215
112 174 215
112 174 215
112 174 215
112 174 215
112 174 215
112 174 215
112 174 215
112 174 215
112 174 215
112 174 215
112 174 215
112 174 215
112 174 215
112 173 214
112 173 214
112 173 214
112 173 214
112 173 214
112 173 214
112 173 214
112 173 214
112 173 214
112 173 214
112 173 214
112 173 214
112 173 214
112 173 214
112 173 214
112 173 214
112 173 214
112 173 214
112 174 215
112 174 215
112 174 215
112 174 215
112 174 215
112 174 215
112 174 215
112 174 215
112 174 215
112 174 215
112 174 215
112 174 215
113 174 215
113 174 215
113 174 215
113 174 215
113 174 215
113 174 215
113 174 215
113 174 215
113 174 215
113 174 215
113 174 215
113 174 215
113 174 215
113 174 215
114 174 215
114 174 215
114 174 215
114 175 215
114 175 215
114 175 215
114 175 215
114 175 215
114 175 215
114 175 215
114 175 215
115 175 215
115 175 215
115 175 215
115 175 215
115 175 215
115 175 215
115 175 215
115 175 215
116 176 216
116 176 216
116 176 216
116 176 216
116 176 216
116 176 216
116 176 216
116 176 216
117 176 216
117 176 216
117 176 216
117 176 216
117 176 216
117 176 216
117 177 216
117 177 216
118 177 216
118 177 216
118 177 216
118 177 216
118 177 216
118 177 216
118 177 216
119 177 216
119 177 216
119 177 216
119 177 216
119 178 217
119 178 217
119 178 217
120 178 217
120 178 217
120 178 217
120 178 217
120 178 217
120 178 217
120 178 217
121 178 217
121 179 217
121 179 217
121 179 217
121 179 217
121 179 217
121 179 217
122 179 217
122 179 217
122 179 217
122 179 217
122 179 217
122 179 217
122 179 217
123 180 218
123 180 218
123 180 218
123 180 218
123 180 218
123 180 218
124 180 218
124 180 218
124 180 218
124 180 218
124 180 218
124 181 218
124 181 218
125 181 218
125 181 218
125 181 218
125 181 218
125 181 218
125 181 218
125 181 218
126 181 218
126 181 218
126 181 218
126 181 218
126 182 219
126 182 219
126 182 219
127 182 219
127 182 219
127 182 219
127 182 219
127 182 219
127 182 219
127 182 219
128 182 219
128 182 219
128 183 219
128 183 219
128 183 219
128 183 219
128 183 219
128 183 219
129 183 219
129 183 219
129 183 219
129 183 219
129 183 219
129 183 219
129 183 219
129 183 219
130 184 220
130 184 220
130 184 220
130 184 220
130 184 220
130 184 220
130 184 220
130 184 220
131 184 220
131 184 220
131 184 220
131 184 220
131 184 220
131 184 220
131 185 220
131 185 220
132 185 220
132 185 220
132 185 220
132 185 220
132 185 220
132 185 220
132 185 220
132 185 220
133 185 220
133 185 220
133 185 220
133 185 220
133 185 220
133 186 221
133 186 221
133 186 221
133 186 221
134 186 221
134 186 221
134 186 221
134 186 221
134 186 221
134 186 221
134 186 221
134 186 221
134 186 221
135 186 221
135 186 221
135 186 221
135 187 221
135 187 221
135 187 221
135 186 221
135 186 221
135 186 221
134 186 221
134 186 221
134 186 221
134 186 221
134 186 221
134 186 221
134 186 221
134 186 221
134 186 221
133 186 221
133 186 221
133 186 221
133 186 221
133 185 220
133 185 220
133 185 220
133 185 220
133 185 220
132 185 220
132 185 220
132 185 220
132 185 220
132 185 220
132 185 220
132 185 220
132 185 220
131 185 220
131 185 220
131 184 220
131 184 220
131 184 220
131 184 220
131 184 220
131 184 220
130 184 220
130 184 220
130 184 220
130 184 220
130 184 220
130 184 220
130 184 220
130 184 220
129 183 219
129 183 219
129 183 219
129 183 219
129 183 219
129 183 219
129 183 219
129 183 219
128 183 219
128 183 219
128 183 219
128 183 219
128 183 219
128 182 219
128 182 219
127 182 219
127 182 219
127 182 219
127 182 219
127 182 219
127 182 219
127 182 219
127 182 219
126 182 219
126 182 219
126 182 219
126 181 218
126 181 218
126 181 218
126 181 218
125 181 218
125 181 218
125 181 218
125 181 218
125 181 218
125 181 218
124 181 218
124 181 218
124 180 218
124 180 218
124 180 218
124 180 218
124 180 218
123 180 218
123 180 218
123 180 218
123 180 218
123 180 218
123 180 218
123 180 218
122 179 217
122 179 217
122 179 217
122 179 217
122 179 217
122 179 217
122 179 217
121 179 217
121 179 217
121 179 217
121 179 217
121 179 217
121 178 217
121 178 217
120 178 217
120 178 217
120 178 217
120 178 217
120 178 217
120 178 217
120 178 217
119 178 217
119 178 217
119 178 217
119 177 216
119 177 216
119 177 216
119 177 216
118 177 216
118 177 216
118 177 216
118 177 216
118 177 216
118 177 216
118 177 216
117 177 216
117 177 216
117 176 216
117 176 216
117 176 216
117 176 216
117 176 216
117 176 216
116 176 216
116 176 216
116 176 216
116 176 216
116 176 216
116 176 216
116 176 216
116 176 216
115 175 215
115 175 215
115 175 215
115 175 215
115 175 215
115 175 215
115 175 215
115 175 215
115 175 215
115 175 215
114 175 215
114 175 215
114 175 215
114 175 215
114 175 215
114 175 215
114 175 215
114 175 215
114 174 215
114 174 215
114 174 215
113 174 215
113 174 215
113 174 215
113 174 215
113 174 215
113 174 215
113 174 215
113 174 215
113 174 215
113 174 215
113 174 215
113 174 215
113 174 215
113 174 215
113 174 215
113 174 215
113 174 215
113 174 215
112 174 215
112 174 215
112 174 215
112 174 215
112 174 215
112 174 215
112 174 215
112 174 215
112 174 215
112 174 215
112 174 215
112 174 215
112 174 215
112 174 215
112 174 215
112 174 215
112 174 215
112 174 215
112 174 215
112 174 215
112 174 215
112 174 215
112 174 215
112 174 215
113 174 215
113 174 215
113 174 215
113 174 215
113 174 215
113 174 215
113 174 215
113 174 215
113 174 215
113 174 215
113 174 215
113 174 215
113 174 215
113 174 215
113 174 215
113 174 215
113 174 215
113 174 215
114 174 215
114 174 215
114 174 215
114 175 215
114 175 215
114 175 215
114 175 215
114 175 215
114 175 215
114 175 215
114 175 215
115 175 215
115 175 215
115 175 215
115 175 215
115 175 215
115 175 215
115 175 215
115 175 215
115 175 215
115 175 215
116 176 216
116 176 216
116 176 216
116 176 216
116 176 216
116 176 216
116 176 216
116 176 216
117 176 216
117 176 216
117 176 216
117 176 216
117 176 216
117 176 216
117 177 216
117 177 216
118 177 216
118 177 216
118 177 216
118 177 216
118 177 216
118 177 216
118 177 216
119 177 216
119 177 216
119 177 216
119 177 216
119 178 217
119 178 217
119 178 217
120 178 217
120 178 217
120 178 217
120 178 217
120 178 217
120 178 217
120 178 217
121 178 217
121 178 217
121 179 217
121 179 217
121 179 217
121 179 217
121 179 217
122 179 217
122 179 217
122 179 217
122 179 217
122 179 217
122 179 217
122 179 217
123 180 218
123 180 218
123 180 218
123 180 218
123 180 218
123 180 218
123 180 218
124 180 218
124 180 218
124 180 218
124 180 218
124 180 218
124 181 218
124 181 218
125 181 218
125 181 218
125 181 218
125 181 218
125 181 218
125 181 218
126 181 218
126 181 218
126 181 218
126 181 218
126 182 219
126 182 219
126 182 219
127 182 219
127 182 219
127 182 219
127 182 219
127 182 219
127 182 219
127 182 219
127 182 219
128 182 219
128 182 219
128 183 219
128 183 219
128 183 219
128 183 219
128 183 219
129 183 219
129 183 219
129 183 219
129 183 219
129 183 219
129 183 219
129 183 219
129 183 219
130 184 220
130 184 220
130 184 220
130 184 220
130 184 220
130 184 220
130 184 220
130 184 220
131 184 220
131 184 220
131 184 220
131 184 220
131 184 220
131 184 220
131 185 220
131 185 220
132 185 220
132 185 220
132 185 220
132 185 220
132 185 220
132 185 220
132 185 220
132 185 220
133 185 220
133 185 220
133 185 220
133 185 220
133 185 220
133 186 221
133 186 221
133 186 221
133 186 221
134 186 221
134 186 221
134 186 221
134 186 221
134 186 221
134 186 221
134 186 221
134 186 221
134 186 221
135 186 221
135 186 221
135 186 221
135 187 221
135 187 221
135 187 221
135 187 221
135 187 221
135 187 221
135 187 221
135 187 221
135 187 221
135 186 221
135 186 221
135 186 221
134 186 221
134 186 221
134 186 221
134 186 221
134 186 221
134 186 221
134 186 221
134 186 221
134 186 221
133 186 221
133 186 221
133 186 221
133 186 221
133 185 220
133 185 220
133 185 220
133 185 220
133 185 220
132 185 220
132 185 220
132 185 220
132 185 220
132 185 220
132 185 220
132 185 220
132 185 220
131 185 220
131 185 220
131 184 220
131 184 220
131 184 220
131 184 220
131 184 220
131 184 220
130 184 220
130 184 220
130 184 220
130 184 220
130 184 220
130 184 220
130 184 220
130 184 220
129 183 219
129 183 219
129 183 219
129 183 219
129 183 219
129 183 219
129 183 219
128 183 219
128 183 219
128 183 219
128 183 219
128 183 219
128 183 219
128 182 219
128 182 219
127 182 219
127 182 219
127 182 219
127 182 219
127 182 219
127 182 219
127 182 219
126 182 219
126 182 219
126 182 219
126 182 219
126 181 218
126 181 218
126 181 218
125 181 218
125 181 218
125 181 218
125 181 218
125 181 218
125 181 218
125 181 218
124 181 218
124 181 218
124 180 218
124 180 218
124 180 218
124 180 218
124 180 218
123 180 218
123 180 218
123 180 218
123 180 218
123 180 218
123 180 218
123 180 218
122 179 217
122 179 217
122 179 217
122 179 217
122 179 217
122 179 217
122 179 217
121 179 217
121 179 217
121 179 217
121 179 217
121 179 217
121 178 217
121 178 217
120 178 217
120 178 217
120 178 217
120 178 217
120 178 217
120 178 217
120 178 217
119 178 217
119 178 217
119 178 217
119 177 216
119 177 216
119 177 216
119 177 216
118 177 216
118 177 216
118 177 216
118 177 216
118 177 216
118 177 216
118 177 216
117 177 216
117 177 216
117 176 216
117 176 216
117 176 216
117 176 216
117 176 216
117 176 216
116 176 216
116 176 216
116 176 216
116 176 216
116 176 216
116 176 216
116 176 216
116 176 216
116 176 216
115 175 215
115 175 215
115 175 215
115 175 215
115 175 215
115 175 215
115 175 215
115 175 215
115 175 215
115 175 215
114 175 215
114 175 215
114 175 215
114 175 215
114 175 215
114 175 215
114 175 215
114 175 215
114 175 215
114 174 215
114 174 215
114 174 215
114 174 215
113 174 215
113 174 215
113 174 215
113 174 215
113 174 215
113 174 215
113 174 215
113 174 215
113 174 215
113 174 215
113 174 215
113 174 215
113 174 215
113 174 215
113 174 215
113 174 215
113 174 215
113 174 215
113 174 215
113 174 215
113 174 215
113 174 215
113 174 215
113 174 215
113 174 215
113 174 215
113 174 215
113 174 215
113 174 215
113 174 215
113 174 215
113 174 215
113 174 215
113 174 215
113 174 215
113 174 215
113 174 215
113 174 215
113 174 215
113 174 215
113 174 215
113 174 215
113 174 215
113 174 215
113 174 215
113 174 215
113 174 215
113 174 215
114 174 215
114 174 215
114 174 215
114 174 215
114 175 215
114 175 215
114 175 215
114 175 215
114 175 215
114 175 215
114 175 215
114 175 215
114 175 215
115 175 215
115 175 215
115 175 215
115 175 215
115 175 215
115 175 215
115 175 215
115 175 215
115 175 215
115 175 215
116 176 216
116 176 216
116 176 216
116 176 216
116 176 216
116 176 216
116 176 216
116 176 216
116 176 216
117 176 216
117 176 216
117 176 216
117 176 216
117 176 216
117 176 216
117 177 216
117 177 216
118 177 216
118 177 216
118 177 216
118 177 216
118 177 216
118 177 216
118 177 216
119 177 216
119 177 216
119 177 216
119 177 216
119 178 217
119 178 217
119 178 217
120 178 217
120 178 217
120 178 217
120 178 217
120 178 217
120 178 217
120 178 217
121 178 217
121 178 217
121 179 217
121 179 217
121 179 217
121 179 217
121 179 217
122 179 217
122 179 217
122 179 217
122 179 217
122 179 217
122 179 217
122 179 217
123 180 218
123 180 218
123 180 218
123 180 218
123 180 218
123 180 218
123 180 218
124 180 218
124 180 218
124 180 218
124 180 218
124 180 218
124 181 218
124 181 218
125 181 218
125 181 218
125 181 218
125 181 218
125 181 218
125 181 218
125 181 218
126 181 218
126 181 218
126 181 218
126 182 219
126 182 219
126 182 219
126 182 219
127 182 219
127 182 219
127 182 219
127 182 219
127 182 219
127 182 219
127 182 219
128 182 219
128 182 219
128 183 219
128 183 219
128 183 219
128 183 219
128 183 219
129 183 219
129 183 219
129 183 219
129 183 219
129 183 219
129 183 219
129 183 219
129 183 219
130 184 220
130 184 220
130 184 220
130 184 220
130 184 220
130 184 220
130 184 220
130 184 220
131 184 220
131 184 220
131 184 220
131 184 220
131 184 220
131 184 220
131 185 220
131 185 220
132 185 220
132 185 220
132 185 220
132 185 220
132 185 220
132 185 220
132 185 220
132 185 220
133 185 220
133 185 220
133 185 220
133 185 220
133 185 220
133 186 221
133 186 221
133 186 221
133 186 221
134 186 221
134 186 221
134 186 221
134 186 221
134 186 221
134 186 221
134 186 221
134 186 221
134 186 221
135 186 221
135 186 221
135 187 221
135 187 221
135 187 221
135 187 221
135 187 221
135 187 221
135 187 221
136 187 221
136 187 221
135 187 221
135 187 221
135 187 221
135 187 221
135 187 221
135 187 221
135 187 221
135 187 221
135 186 221
135 186 221
134 186 221
134 186 221
134 186 221
134 186 221
134 186 221
134 186 221
134 186 221
134 186 221
134 186 221
133 186 221
133 186 221
133 186 221
133 186 221
133 185 220
133 185 220
133 185 220
133 185 220
133 185 220
132 185 220
132 185 220
132 185 220
132 185 220
132 185 220
132 185 220
132 185 220
132 185 220
131 185 220
131 185 220
131 184 220
131 184 220
131 184 220
131 184 220
131 184 220
131 184 220
130 184 220
130 184 220
130 184 220
130 184 220
130 184 220
130 184 220
130 184 220
130 184 220
129 183 219
129 183 219
129 183 219
129 183 219
129 183 219
129 183 219
129 183 219
128 183 219
128 183 219
128 183 219
128 183 219
128 183 219
128 183 219
128 182 219
128 182 219
127 182 219
127 182 219
127 182 219
127 182 219
127 182 219
127 182 219
127 182 219
126 182 219
126 182 219
126 182 219
126 182 219
126 181 218
126 181 218
126 181 218
125 181 218
125 181 218
125 181 218
125 181 218
125 181 218
125 181 218
125 181 218
124 181 218
124 181 218
124 180 218
124 180 218
124 180 218
124 180 218
124 180 218
123 180 218
123 180 218
123 180 218
123 180 218
123 180 218
123 180 218
123 180 218
122 179 217
122 179 217
122 179 217
122 179 217
122 179 217
122 179 217
122 179 217
121 179 217
121 179 217
121 179 217
121 179 217
121 179 217
121 178 217
120 178 217
120 178 217
120 178 217
120 178 217
120 178 217
120 178 217
120 178 217
120 178 217
119 178 217
119 178 217
119 178 217
119 177 216
119 177 216
119 177 216
119 177 216
118 177 216
118 177 216
118 177 216
118 177 216
118 177 216
118 177 216
118 177 216
118 177 216
117 177 216
117 176 216
117 176 216
117 176 216
117 176 216
117 176 216
117 176 216
117 176 216
116 176 216
116 176 216
116 176 216
116 176 216
116 176 216
116 176 216
116 176 216
116 176 216
116 176 216
115 175 215
115 175 215
115 175 215
115 175 215
115 175 215
115 175 215
115 175 215
115 175 215
115 175 215
115 175 215
115 175 215
114 175 215
114 175 215
114 175 215
114 175 215
114 175 215
114 175 215
114 175 215
114 175 215
114 175 215
114 175 215
114 174 215
114 174 215
114 174 215
114 174 215
114 174 215
113 174 215
113 174 215
113 174 215
113 174 215
113 174 215
113 174 215
113 174 215
113 174 215
113 174 215
113 174 215
113 174 215
113 174 215
113 174 215
113 174 215
113 174 215
113 174 215
113 174 215
113 174 215
113 174 215
113 174 215
113 174 215
113 174 215
113 174 215
113 174 215
113 174 215
113 174 215
113 174 215
113 174 215
113 174 215
113 174 215
113 174 215
113 174 215
113 174 215
114 174 215
114 174 215
114 174 215
114 174 215
114 174 215
114 174 215
114 175 215
114 175 215
114 175 215
114 175 215
114 175 215
114 175 215
114 175 215
114 175 215
114 175 215
114 175 215
114 175 215
115 175 215
115 175 215
115 175 215
115 175 215
115 175 215
115 175 215
115 175 215
115 175 215
115 175 215
115 175 215
116 176 216
116 176 216
116 176 216
116 176 216
116 176 216
116 176 216
116 176 216
116 176 216
116 176 216
117 176 216
117 176 216
117 176 216
117 176 216
117 176 216
117 176 216
117 176 216
117 177 216
118 177 216
118 177 216
118 177 216
118 177 216
118 177 216
118 177 216
118 177 216
118 177 216
119 177 216
119 177 216
119 177 216
119 177 216
119 178 217
119 178 217
119 178 217
119 178 217
120 178 217
120 178 217
120 178 217
120 178 217
120 178 217
120 178 217
121 178 217
121 178 217
121 179 217
121 179 217
121 179 217
121 179 217
121 179 217
122 179 217
122 179 217
122 179 217
122 179 217
122 179 217
122 179 217
122 179 217
123 180 218
123 180 218
123 180 218
123 180 218
123 180 218
123 180 218
123 180 218
124 180 218
124 180 218
124 180 218
124 180 218
124 180 218
124 181 218
124 181 218
125 181 218
125 181 218
125 181 218
125 181 218
125 181 218
125 181 218
125 181 218
126 181 218
126 181 218
126 181 218
126 182 219
126 182 219
126 182 219
126 182 219
127 182 219
127 182 219
127 182 219
127 182 219
127 182 219
127 182 219
127 182 219
128 182 219
128 182 219
128 183 219
128 183 219
128 183 219
128 183 219
128 183 219
128 183 219
129 183 219
129 183 219
129 183 219
129 183 219
129 183 219
129 183 219
129 183 219
130 184 220
130 184 220
130 184 220
130 184 220
130 184 220
130 184 220
130 184 220
130 184 220
131 184 220
131 184 220
131 184 220
131 184 220
131 184 220
131 184 220
131 185 220
131 185 220
132 185 220
132 185 220
132 185 220
132 185 220
132 185 220
132 185 220
132 185 220
132 185 220
133 185 220
133 185 220
133 185 220
133 185 220
133 185 220
133 186 221
133 186 221
133 186 221
133 186 221
134 186 221
134 186 221
134 186 221
134 186 221
134 186 221
134 186 221
134 186 221
134 186 221
134 186 221
135 186 221
135 186 221
135 187 221
135 187 221
135 187 221
135 187 221
135 187 221
135 187 221
135 187 221
136 187 221
136 187 221
136 187 221
136 187 221
136 187 221
136 187 221
136 187 221
136 187 221
136 187 221
135 187 221
135 187 221
135 187 221
135 187 221
135 187 221
135 187 221
135 187 221
135 186 221
135 186 221
134 186 221
134 186 221
134 186 221
134 186 221
134 186 221
134 186 221
134 186 221
134 186 221
134 186 221
133 186 221
133 186 221
133 186 221
133 186 221
133 185 220
133 185 220
133 185 220
133 185 220
133 185 220
132 185 220
132 185 220
132 185 220
132 185 220
132 185 220
132 185 220
132 185 220
132 185 220
131 185 220
131 185 220
131 184 220
131 184 220
131 184 220
131 184 220
131 184 220
131 184 220
130 184 220
130 184 220
130 184 220
130 184 220
130 184 220
130 184 220
130 184 220
130 184 220
129 183 219
129 183 219
129 183 219
129 183 219
129 183 219
129 183 219
129 183 219
128 183 219
128 183 219
128 183 219
128 183 219
128 183 219
128 183 219
128 182 219
128 182 219
127 182 219
127 182 219
127 182 219
127 182 219
127 182 219
127 182 219
127 182 219
126 182 219
126 182 219
126 182 219
126 181 218
126 181 218
126 181 218
126 181 218
125 181 218
125 181 218
125 181 218
125 181 218
125 181 218
125 181 218
125 181 218
124 181 218
124 180 218
124 180 218
124 180 218
124 180 218
124 180 218
124 180 218
123 180 218
123 180 218
123 180 218
123 180 218
123 180 218
123 180 218
122 179 217
122 179 217
122 179 217
122 179 217
122 179 217
122 179 217
122 179 217
121 179 217
121 179 217
121 179 217
121 179 217
121 179 217
121 178 217
121 178 217
120 178 217
120 178 217
120 178 217
120 178 217
120 178 217
120 178 217
120 178 217
119 178 217
119 178 217
119 178 217
119 178 217
119 177 216
119 177 216
119 177 216
119 177 216
118 177 216
118 177 216
118 177 216
118 177 216
118 177 216
118 177 216
118 177 216
118 177 216
117 177 216
117 177 216
117 176 216
117 176 216
117 176 216
117 176 216
117 176 216
117 176 216
116 176 216
116 176 216
116 176 216
116 176 216
116 176 216
116 176 216
116 176 216
116 176 216
116 176 216
116 176 216
115 175 215
115 175 215
115 175 215
115 175 215
115 175 215
115 175 215
115 175 215
115 175 215
115 175 215
115 175 215
115 175 215
115 175 215
114 175 215
114 175 215
114 175 215
114 175 215
114 175 215
114 175 215
114 175 215
114 175 215
114 175 215
114 175 215
114 175 215
114 175 215
114 175 215
114 175 215
114 175 215
114 174 215
114 174 215
114 174 215
114 174 215
114 174 215
114 174 215
114 174 215
114 174 215
114 174 215
114 174 215
114 174 215
114 174 215
114 174 215
114 174 215
114 174 215
114 174 215
114 174 215
114 174 215
114 174 215
114 174 215
114 174 215
114 174 215
114 174 215
114 174 215
114 175 215
114 175 215
114 175 215
114 175 215
114 175 215
114 175 215
114 175 215
114 175 215
114 175 215
114 175 215
114 175 215
114 175 215
114 175 215
114 175 215
114 175 215
115 175 215
115 175 215
115 175 215
115 175 215
115 175 215
115 175 215
115 175 215
115 175 215
115 175 215
115 175 215
115 175 215
115 175 215
116 176 216
116 176 216
116 176 216
116 176 216
116 176 216
116 176 216
116 176 216
116 176 216
116 176 216
116 176 216
117 176 216
117 176 216
117 176 216
117 176 216
117 176 216
117 176 216
117 177 216
117 177 216
118 177 216
118 177 216
118 177 216
118 177 216
118 177 216
118 177 216
118 177 216
118 177 216
119 177 216
119 177 216
119 177 216
119 177 216
119 178 217
119 178 217
119 178 217
120 178 217
120 178 217
120 178 217
120 178 217
120 178 217
120 178 217
120 178 217
120 178 217
121 178 217
121 179 217
121 179 217
121 179 217
121 179 217
121 179 217
121 179 217
122 179 217
122 179 217
122 179 217
122 179 217
122 179 217
122 179 217
123 180 218
123 180 218
123 180 218
123 180 218
123 180 218
123 180 218
123 180 218
124 180 218
124 180 218
124 180 218
124 180 218
124 180 218
124 180 218
124 181 218
125 181 218
125 181 218
125 181 218
125 181 218
125 181 218
125 181 218
125 181 218
126 181 218
126 181 218
126 181 218
126 181 218
126 182 219
126 182 219
126 182 219
127 182 219
127 182 219
127 182 219
127 182 219
127 182 219
127 182 219
127 182 219
127 182 219
128 182 219
128 183 219
128 183 219
128 183 219
128 183 219
128 183 219
128 183 219
129 183 219
129 183 219
129 183 219
129 183 219
129 183 219
129 183 219
129 183 219
130 184 220
130 184 220
130 184 220
130 184 220
130 184 220
130 184 220
130 184 220
130 184 220
131 184 220
131 184 220
131 184 220
131 184 220
131 184 220
131 184 220
131 185 220
131 185 220
132 185 220
132 185 220
132 185 220
132 185 220
132 185 220
132 185 220
132 185 220
132 185 220
133 185 220
133 185 220
133 185 220
133 185 220
133 185 220
133 186 221
133 186 221
133 186 221
133 186 221
134 186 221
134 186 221
134 186 221
134 186 221
134 186 221
134 186 221
134 186 221
134 186 221
134 186 221
135 186 221
135 186 221
135 187 221
135 187 221
135 187 221
135 187 221
135 187 221
135 187 221
135 187 221
136 187 221
136 187 221
136 187 221
136 187 221
136 187 221
136 187 221
136 187 221
136 187 221
136 187 221
136 187 221
136 187 221
136 187 221
136 187 221
136 187 221
136 187 221
135 187 221
135 187 221
135 187 221
135 187 221
135 187 221
135 187 221
135 187 221
135 186 221
135 186 221
134 186 221
134 186 221
134 186 221
134 186 221
134 186 221
134 186 221
134 186 221
134 186 221
134 186 221
133 186 221
133 186 221
133 186 221
133 186 221
133 185 220
133 185 220
133 185 220
133 185 220
133 185 220
132 185 220
132 185 220
132 185 220
132 185 220
132 185 220
132 185 220
132 185 220
132 185 220
131 185 220
131 185 220
131 184 220
131 184 220
131 184 220
131 184 220
131 184 220
131 184 220
130 184 220
130 184 220
130 184 220
130 184 220
130 184 220
130 184 220
130 184 220
130 184 220
129 183 219
129 183 219
129 183 219
129 183 219
129 183 219
129 183 219
129 183 219
128 183 219
128 183 219
128 183 219
128 183 219
128 183 219
128 183 219
128 182 219
127 182 219
127 182 219
127 182 219
127 182 219
127 182 219
127 182 219
127 182 219
127 182 219
126 182 219
126 182 219
126 182 219
126 181 218
126 181 218
126 181 218
126 181 218
125 181 218
125 181 218
125 181 218
125 181 218
125 181 218
125 181 218
125 181 218
124 181 218
124 180 218
124 180 218
124 180 218
124 180 218
124 180 218
123 180 218
123 180 218
123 180 218
123 180 218
123 180 218
123 180 218
123 180 218
122 179 217
122 179 217
122 179 217
122 179 217
122 179 217
122 179 217
122 179 217
121 179 217
121 179 217
121 179 217
121 179 217
121 179 217
121 179 217
121 178 217
120 178 217
120 178 217
120 178 217
120 178 217
120 178 217
120 178 217
120 178 217
120 178 217
119 178 217
119 178 217
119 178 217
119 177 216
119 177 216
119 177 216
119 177 216
118 177 216
118 177 216
118 177 216
118 177 216
118 177 216
118 177 216
118 177 216
118 177 216
117 177 216
117 177 216
117 177 216
117 176 216
117 176 216
117 176 216
117 176 216
117 176 216
117 176 216
116 176 216
116 176 216
116 176 216
116 176 216
116 176 216
116 176 216
116 176 216
116 176 216
116 176 216
116 176 216
116 176 216
115 175 215
115 175 215
115 175 215
115 175 215
115 175 215
115 175 215
115 175 215
115 175 215
115 175 215
115 175 215
115 175 215
115 175 215
115 175 215
115 175 215
115 175 215
114 175 215
114 175 215
114 175 215
114 175 215
114 175 215
114 175 215
114 175 215
114 175 215
114 175 215
114 175 215
114 175 215
114 175 215
114 175 215
114 175 215
114 175 215
114 175 215
114 175 215
114 175 215
114 175 215
114 175 215
114 175 215
114 175 215
114 175 215
114 175 215
114 175 215
114 175 215
114 175 215
114 175 215
114 175 215
114 175 215
114 175 215
114 175 215
114 175 215
114 175 215
114 175 215
114 175 215
114 175 215
114 175 215
114 175 215
115 175 215
115 175 215
115 175 215
115 175 215
115 175 215
115 175 215
115 175 215
115 175 215
115 175 215
115 175 215
115 175 215
115 175 215
115 175 215
115 175 215
116 176 216
116 176 216
116 176 216
116 176 216
116 176 216
116 176 216
116 176 216
116 176 216
116 176 216
116 176 216
116 176 216
117 176 216
117 176 216
117 176 216
117 176 216
117 176 216
117 176 216
117 177 216
117 177 216
117 177 216
118 177 216
118 177 216
118 177 216
118 177 216
118 177 216
118 177 216
118 177 216
118 177 216
119 177 216
119 177 216
119 177 216
119 177 216
119 178 217
119 178 217
119 178 217
120 178 217
120 178 217
120 178 217
120 178 217
120 178 217
120 178 217
120 178 217
120 178 217
121 178 217
121 179 217
121 179 217
121 179 217
121 179 217
121 179 217
121 179 217
122 179 217
122 179 217
122 179 217
122 179 217
122 179 217
122 179 217
122 179 217
123 180 218
123 180 218
123 180 218
123 180 218
123 180 218
123 180 218
124 180 218
124 180 218
124 180 218
124 180 218
124 180 218
124 180 218
124 181 218
124 181 218
125 181 218
125 181 218
125 181 218
125 181 218
125 181 218
125 181 218
126 181 218
126 181 218
126 181 218
126 181 218
126 182 219
126 182 219
126 182 219
127 182 219
127 182 219
127 182 219
127 182 219
127 182 219
127 182 219
127 182 219
127 182 219
128 182 219
128 182 219
128 183 219
128 183 219
128 183 219
128 183 219
128 183 219
129 183 219
129 183 219
129 183 219
129 183 219
129 183 219
129 183 219
129 183 219
130 184 220
130 184 220
130 184 220
130 184 220
130 184 220
130 184 220
130 184 220
130 184 220
131 184 220
131 184 220
131 184 220
131 184 220
131 184 220
131 184 220
131 185 220
131 185 220
132 185 220
132 185 220
132 185 220
132 185 220
132 185 220
132 185 220
132 185 220
132 185 220
133 185 220
133 185 220
133 185 220
133 185 220
133 185 220
133 186 221
133 186 221
133 186 221
133 186 221
134 186 221
134 186 221
134 186 221
134 186 221
134 186 221
134 186 221
134 186 221
134 186 221
134 186 221
135 186 221
135 186 221
135 187 221
135 187 221
135 187 221
135 187 221
135 187 221
135 187 221
135 187 221
136 187 221
136 187 221
136 187 221
136 187 221
136 187 221
136 187 221
136 187 221
136 187 221
136 187 221
137 188 222
137 188 222
136 187 221
136 187 221
136 187 221
136 187 221
136 187 221
136 187 221
136 187 221
136 187 221
136 187 221
136 187 221
135 187 221
135 187 221
135 187 221
135 187 221
135 187 221
135 187 221
135 187 221
135 186 221
135 186 221
134 186 221
134 186 221
134 186 221
134 186 221
134 186 221
134 186 221
134 186 221
134 186 221
134 186 221
133 186 221
133 186 221
133 186 221
133 186 221
133 185 220
133 185 220
133 185 220
133 185 220
133 185 220
132 185 220
132 185 220
132 185 220
132 185 220
132 185 220
132 185 220
132 185 220
132 185 220
131 185 220
131 185 220
131 184 220
131 184 220
131 184 220
131 184 220
131 184 220
131 184 220
130 184 220
130 184 220
130 184 220
130 184 220
130 184 220
130 184 220
130 184 220
129 183 219
129 183 219
129 183 219
129 183 219
129 183 219
129 183 219
129 183 219
129 183 219
128 183 219
128 183 219
128 183 219
128 183 219
128 183 219
128 182 219
128 182 219
127 182 219
127 182 219
127 182 219
127 182 219
127 182 219
127 182 219
127 182 219
126 182 219
126 182 219
126 182 219
126 182 219
126 181 218
126 181 218
126 181 218
125 181 218
125 181 218
125 181 218
125 181 218
125 181 218
125 181 218
125 181 218
125 181 218
124 181 218
124 180 218
124 180 218
124 180 218
124 180 218
124 180 218
123 180 218
123 180 218
123 180 218
123 180 218
123 180 218
123 180 218
123 180 218
122 179 217
122 179 217
122 179 217
122 179 217
122 179 217
122 179 217
122 179 217
121 179 217
121 179 217
121 179 217
121 179 217
121 179 217
121 179 217
121 178 217
121 178 217
120 178 217
120 178 217
120 178 217
120 178 217
120 178 217
120 178 217
120 178 217
119 178 217
119 178 217
119 178 217
119 178 217
119 177 216
119 177 216
119 177 216
119 177 216
118 177 216
118 177 216
118 177 216
118 177 216
118 177 216
118 177 216
118 177 216
118 177 216
117 177 216
117 177 216
117 176 216
117 176 216
117 176 216
117 176 216
117 176 216
117 176 216
117 176 216
117 176 216
116 176 216
116 176 216
116 176 216
116 176 216
116 176 216
116 176 216
116 176 216
116 176 216
116 176 216
116 176 216
116 176 216
115 175 215
115 175 215
115 175 215
115 175 215
115 175 215
115 175 215
115 175 215
115 175 215
115 175 215
115 175 215
115 175 215
115 175 215
115 175 215
115 175 215
115 175 215
115 175 215
115 175 215
115 175 215
115 175 215
115 175 215
115 175 215
114 175 215
114 175 215
114 175 215
114 175 215
114 175 215
114 175 215
114 175 215
114 175 215
114 175 215
114 175 215
114 175 215
114 175 215
114 175 215
114 175 215
114 175 215
114 175 215
115 175 215
115 175 215
115 175 215
115 175 215
115 175 215
115 175 215
115 175 215
115 175 215
115 175 215
115 175 215
115 175 215
115 175 215
115 175 215
115 175 215
115 175 215
115 175 215
115 175 215
115 175 215
115 175 215
115 175 215
115 175 215
116 176 216
116 176 216
116 176 216
116 176 216
116 176 216
116 176 216
116 176 216
116 176 216
116 176 216
116 176 216
116 176 216
116 176 216
117 176 216
117 176 216
117 176 216
117 176 216
117 176 216
117 176 216
117 176 216
117 177 216
117 177 216
118 177 216
118 177 216
118 177 216
118 177 216
118 177 216
118 177 216
118 177 216
118 177 216
119 177 216
119 177 216
119 177 216
119 177 216
119 178 217
119 178 217
119 178 217
119 178 217
120 178 217
120 178 217
120 178 217
120 178 217
120 178 217
120 178 217
120 178 217
120 178 217
121 178 217
121 179 217
121 179 217
121 179 217
121 179 217
121 179 217
121 179 217
122 179 217
122 179 217
122 179 217
122 179 217
122 179 217
122 179 217
122 179 217
123 180 218
123 180 218
123 180 218
123 180 218
123 180 218
123 180 218
123 180 218
124 180 218
124 180 218
124 180 218
124 180 218
124 180 218
124 181 218
124 181 218
125 181 218
125 181 218
125 181 218
125 181 218
125 181 218
125 181 218
125 181 218
126 181 218
126 181 218
126 181 218
126 182 219
126 182 219
126 182 219
126 182 219
127 182 219
127 182 219
127 182 219
127 182 219
127 182 219
127 182 219
127 182 219
128 182 219
128 183 219
128 183 219
128 183 219
128 183 219
128 183 219
128 183 219
129 183 219
129 183 219
129 183 219
129 183 219
129 183 219
129 183 219
129 183 219
130 184 220
130 184 220
130 184 220
130 184 220
130 184 220
130 184 220
130 184 220
130 184 220
131 184 220
131 184 220
131 184 220
131 184 220
131 184 220
131 184 220
131 185 220
131 185 220
132 185 220
132 185 220
132 185 220
132 185 220
132 185 220
132 185 220
132 185 220
132 185 220
133 185 220
133 185 220
133 185 220
133 185 220
133 185 220
133 186 221
133 186 221
133 186 221
133 186 221
134 186 221
134 186 221
134 186 221
134 186 221
134 186 221
134 186 221
134 186 221
134 186 221
134 186 221
135 186 221
135 186 221
135 187 221
135 187 221
135 187 221
135 187 221
135 187 221
135 187 221
135 187 221
136 187 221
136 187 221
136 187 221
136 187 221
136 187 221
136 187 221
136 187 221
136 187 221
136 187 221
136 187 221
137 188 222
137 188 222
137 188 222
137 188 222
137 188 222
137 188 222
137 188 222
137 188 222
136 187 221
136 187 221
136 187 221
136 187 221
136 187 221
136 187 221
136 187 221
136 187 221
136 187 221
135 187 221
135 187 221
135 187 221
135 187 221
135 187 221
135 187 221
135 187 221
135 186 221
135 186 221
134 186 221
134 186 221
134 186 221
134 186 221
134 186 221
134 186 221
134 186 221
134 186 221
134 186 221
133 186 221
133 186 221
133 186 221
133 186 221
133 186 221
133 185 220
133 185 220
133 185 220
133 185 220
132 185 220
132 185 220
132 185 220
132 185 220
132 185 220
132 185 220
132 185 220
132 185 220
131 185 220
131 185 220
131 184 220
131 184 220
131 184 220
131 184 220
131 184 220
131 184 220
130 184 220
130 184 220
130 184 220
130 184 220
130 184 220
130 184 220
130 184 220
129 183 219
129 183 219
129 183 219
129 183 219
129 183 219
129 183 219
129 183 219
129 183 219
128 183 219
128 183 219
128 183 219
128 183 219
128 183 219
128 182 219
128 182 219
127 182 219
127 182 219
127 182 219
127 182 219
127 182 219
127 182 219
127 182 219
126 182 219
126 182 219
126 182 219
126 182 219
126 181 218
126 181 218
126 181 218
125 181 218
125 181 218
125 181 218
125 181 218
125 181 218
125 181 218
125 181 218
124 181 218
124 181 218
124 180 218
124 180 218
124 180 218
124 180 218
124 180 218
123 180 218
123 180 218
123 180 218
123 180 218
123 180 218
123 180 218
123 180 218
122 179 217
122 179 217
122 179 217
122 179 217
122 179 217
122 179 217
122 179 217
121 179 217
121 179 217
121 179 217
121 179 217
121 179 217
121 179 217
121 178 217
120 178 217
120 178 217
120 178 217
120 178 217
120 178 217
120 178 217
120 178 217
120 178 217
119 178 217
119 178 217
119 178 217
119 178 217
119 177 216
119 177 216
119 177 216
119 177 216
118 177 216
118 177 216
118 177 216
118 177 216
118 177 216
118 177 216
118 177 216
118 177 216
118 177 216
117 177 216
117 177 216
117 176 216
117 176 216
117 176 216
117 176 216
117 176 216
117 176 216
117 176 216
117 176 216
116 176 216
116 176 216
116 176 216
116 176 216
116 176 216
116 176 216
116 176 216
116 176 216
116 176 216
116 176 216
116 176 216
116 176 216
116 176 216
116 176 216
115 175 215
115 175 215
115 175 215
115 175 215
115 175 215
115 175 215
115 175 215
115 175 215
115 175 215
115 175 215
115 175 215
115 175 215
115 175 215
115 175 215
115 175 215
115 175 215
115 175 215
115 175 215
115 175 215
115 175 215
115 175 215
115 175 215
115 175 215
115 175 215
115 175 215
115 175 215
115 175 215
115 175 215
115 175 215
115 175 215
115 175 215
115 175 215
115 175 215
115 175 215
115 175 215
115 175 215
115 175 215
115 175 215
115 175 215
115 175 215
115 175 215
115 175 215
115 175 215
115 175 215
116 176 216
116 176 216
116 176 216
116 176 216
116 176 216
116 176 216
116 176 216
116 176 216
116 176 216
116 176 216
116 176 216
116 176 216
116 176 216
116 176 216
117 176 216
117 176 216
117 176 216
117 176 216
117 176 216
117 176 216
117 176 216
117 176 216
117 177 216
117 177 216
118 177 216
118 177 216
118 177 216
118 177 216
118 177 216
118 177 216
118 177 216
118 177 216
118 177 216
119 177 216
119 177 216
119 177 216
119 177 216
119 178 217
119 178 217
119 178 217
119 178 217
120 178 217
120 178 217
120 178 217
120 178 217
120 178 217
120 178 217
120 178 217
121 178 217
121 178 217
121 179 217
121 179 217
121 179 217
121 179 217
121 179 217
121 179 217
122 179 217
122 179 217
122 179 217
122 179 217
122 179 217
122 179 217
122 179 217
123 180 218
123 180 218
123 180 218
123 180 218
123 180 218
123 180 218
123 180 218
124 180 218
124 180 218
124 180 218
124 180 218
124 180 218
124 181 218
124 181 218
125 181 218
125 181 218
125 181 218
125 181 218
125 181 218
125 181 218
125 181 218
126 181 218
126 181 218
126 181 218
126 182 219
126 182 219
126 182 219
126 182 219
127 182 219
127 182 219
127 182 219
127 182 219
127 182 219
127 182 219
127 182 219
128 182 219
128 182 219
128 183 219
128 183 219
128 183 219
128 183 219
128 183 219
129 183 219
129 183 219
129 183 219
129 183 219
129 183 219
129 183 219
129 183 219
129 183 219
130 184 220
130 184 220
130 184 220
130 184 220
130 184 220
130 184 220
130 184 220
131 184 220
131 184 220
131 184 220
131 184 220
131 184 220
131 184 220
131 185 220
131 185 220
132 185 220
132 185 220
132 185 220
132 185 220
132 185 220
132 185 220
132 185 220
132 185 220
133 185 220
133 185 220
133 185 220
133 185 220
133 186 221
133 186 221
133 186 221
133 186 221
133 186 221
134 186 221
134 186 221
134 186 221
134 186 221
134 186 221
134 186 221
134 186 221
134 186 221
134 186 221
135 186 221
135 186 221
135 187 221
135 187 221
135 187 221
135 187 221
135 187 221
135 187 221
135 187 221
136 187 221
136 187 221
136 187 221
136 187 221
136 187 221
136 187 221
136 187 221
136 187 221
136 187 221
137 188 222
137 188 222
137 188 222
137 188 222
137 188 222
137 188 222
137 188 222
137 188 222
137 188 222
137 188 222
137 188 222
137 188 222
137 188 222
137 188 222
137 188 222
136 187 221
136 187 221
136 187 221
136 187 221
136 187 221
136 187 221
136 187 221
136 187 221
136 187 221
135 187 221
135 187 221
135 187 221
135 187 221
135 187 221
135 187 221
135 187 221
135 187 221
135 186 221
135 186 221
134 186 221
134 186 221
134 186 221
134 186 221
134 186 221
134 186 221
134 186 221
134 186 221
133 186 221
133 186 221
133 186 221
133 186 221
133 186 221
133 185 220
133 185 220
133 185 220
133 185 220
132 185 220
132 185 220
132 185 220
132 185 220
132 185 220
132 185 220
132 185 220
132 185 220
131 185 220
131 185 220
131 184 220
131 184 220
131 184 220
131 184 220
131 184 220
131 184 220
130 184 220
130 184 220
130 184 220
130 184 220
130 184 220
130 184 220
130 184 220
129 183 219
129 183 219
129 183 219
129 183 219
129 183 219
129 183 219
129 183 219
129 183 219
128 183 219
128 183 219
128 183 219
128 183 219
128 183 219
128 182 219
128 182 219
127 182 219
127 182 219
127 182 219
127 182 219
127 182 219
127 182 219
127 182 219
126 182 219
126 182 219
126 182 219
126 181 218
126 181 218
126 181 218
126 181 218
125 181 218
125 181 218
125 181 218
125 181 218
125 181 218
125 181 218
125 181 218
124 181 218
124 181 218
124 180 218
124 180 218
124 180 218
124 180 218
124 180 218
123 180 218
123 180 218
123 180 218
123 180 218
123 180 218
123 180 218
123 180 218
122 179 217
122 179 217
122 179 217
122 179 217
122 179 217
122 179 217
122 179 217
122 179 217
121 179 217
121 179 217
121 179 217
121 179 217
121 179 217
121 178 217
121 178 217
120 178 217
120 178 217
120 178 217
120 178 217
120 178 217
120 178 217
120 178 217
120 178 217
119 178 217
119 178 217
119 178 217
119 178 217
119 177 216
119 177 216
119 177 216
119 177 216
118 177 216
118 177 216
118 177 216
118 177 216
118 177 216
118 177 216
118 177 216
118 177 216
118 177 216
117 177 216
117 177 216
117 177 216
117 176 216
117 176 216
117 176 216
117 176 216
117 176 216
117 176 216
117 176 216
117 176 216
116 176 216
116 176 216
116 176 216
116 176 216
116 176 216
116 176 216
116 176 216
116 176 216
116 176 216
116 176 216
116 176 216
116 176 216
116 176 216
116 176 216
116 176 216
116 176 216
116 176 216
116 176 216
116 176 216
115 175 215
115 175 215
115 175 215
115 175 215
115 175 215
115 175 215
115 175 215
115 175 215
115 175 215
115 175 215
115 175 215
115 175 215
115 175 215
115 175 215
115 175 215
115 175 215
115 175 215
115 175 215
115 175 215
115 175 215
115 175 215
115 175 215
115 175 215
115 175 215
116 176 216
116 176 216
116 176 216
116 176 216
116 176 216
116 176 216
116 176 216
116 176 216
116 176 216
116 176 216
116 176 216
116 176 216
116 176 216
116 176 216
116 176 216
116 176 216
116 176 216
116 176 216
116 176 216
117 176 216
117 176 216
117 176 216
117 176 216
117 176 216
117 176 216
117 176 216
117 176 216
117 177 216
117 177 216
117 177 216
118 177 216
118 177 216
118 177 216
118 177 216
118 177 216
118 177 216
118 177 216
118 177 216
118 177 216
119 177 216
119 177 216
119 177 216
119 177 216
119 178 217
119 178 217
119 178 217
119 178 217
120 178 217
120 178 217
120 178 217
120 178 217
120 178 217
120 178 217
120 178 217
120 178 217
121 178 217
121 178 217
121 179 217
121 179 217
121 179 217
121 179 217
121 179 217
121 179 217
122 179 217
122 179 217
122 179 217
122 179 217
122 179 217
122 179 217
122 179 217
123 180 218
123 180 218
123 180 218
123 180 218
123 180 218
123 180 218
123 180 218
124 180 218
124 180 218
124 180 218
124 180 218
124 180 218
124 181 218
124 181 218
125 181 218
125 181 218
125 181 218
125 181 218
125 181 218
125 181 218
125 181 218
126 181 218
126 181 218
126 181 218
126 182 219
126 182 219
126 182 219
126 182 219
127 182 219
127 182 219
127 182 219
127 182 219
127 182 219
127 182 219
127 182 219
128 182 219
128 182 219
128 183 219
128 183 219
128 183 219
128 183 219
128 183 219
129 183 219
129 183 219
129 183 219
129 183 219
129 183 219
129 183 219
129 183 219
129 183 219
130 184 220
130 184 220
130 184 220
130 184 220
130 184 220
130 184 220
130 184 220
131 184 220
131 184 220
131 184 220
131 184 220
131 184 220
131 184 220
131 185 220
131 185 220
132 185 220
132 185 220
132 185 220
132 185 220
132 185 220
132 185 220
132 185 220
132 185 220
133 185 220
133 185 220
133 185 220
133 185 220
133 186 221
133 186 221
133 186 221
133 186 221
133 186 221
134 186 221
134 186 221
134 186 221
134 186 221
134 186 221
134 186 221
134 186 221
134 186 221
135 186 221
135 186 221
135 187 221
135 187 221
135 187 221
135 187 221
135 187 221
135 187 221
135 187 221
136 187 221
136 187 221
136 187 221
136 187 221
136 187 221
136 187 221
136 187 221
136 187 221
136 187 221
136 187 221
137 188 222
137 188 222
137 188 222
137 188 222
137 188 222
137 188 222
137 188 222
137 188 222
137 188 222
138 188 222
138 188 222
137 188 222
137 188 222
137 188 222
137 188 222
137 188 222
137 188 222
137 188 222
137 188 222
137 188 222
137 188 222
136 187 221
136 187 221
136 187 221
136 187 221
136 187 221
136 187 221
136 187 221
136 187 221
136 187 221
136 187 221
135 187 221
135 187 221
135 187 221
135 187 221
135 187 221
135 187 221
135 187 221
135 186 221
135 186 221
134 186 221
134 186 221
134 186 221
134 186 221
134 186 221
134 186 221
134 186 221
134 186 221
134 186 221
133 186 221
133 186 221
133 186 221
133 186 221
133 185 220
133 185 220
133 185 220
133 185 220
132 185 220
132 185 220
132 185 220
132 185 220
132 185 220
132 185 220
132 185 220
132 185 220
131 185 220
131 185 220
131 184 220
131 184 220
131 184 220
131 184 220
131 184 220
131 184 220
130 184 220
130 184 220
130 184 220
130 184 220
130 184 220
130 184 220
130 184 220
129 183 219
129 183 219
129 183 219
129 183 219
129 183 219
129 183 219
129 183 219
129 183 219
128 183 219
128 183 219
128 183 219
128 183 219
128 183 219
128 182 219
128 182 219
127 182 219
127 182 219
127 182 219
127 182 219
127 182 219
127 182 219
127 182 219
126 182 219
126 182 219
126 182 219
126 182 219
126 181 218
126 181 218
126 181 218
125 181 218
125 181 218
125 181 218
125 181 218
125 181 218
125 181 218
125 181 218
124 181 218
124 181 218
124 180 218
124 180 218
124 180 218
124 180 218
124 180 218
123 180 218
123 180 218
123 180 218
123 180 218
123 180 218
123 180 218
123 180 218
122 179 217
122 179 217
122 179 217
122 179 217
122 179 217
122 179 217
122 179 217
122 179 217
121 179 217
121 179 217
121 179 217
121 179 217
121 179 217
121 178 217
121 178 217
120 178 217
120 178 217
120 178 217
120 178 217
120 178 217
120 178 217
120 178 217
120 178 217
119 178 217
119 178 217
119 178 217
119 178 217
119 178 217
119 177 216
119 177 216
119 177 216
119 177 216
118 177 216
118 177 216
118 177 216
118 177 216
118 177 216
118 177 216
118 177 216
118 177 216
118 177 216
118 177 216
117 177 216
117 177 216
117 177 216
117 176 216
117 176 216
117 176 216
117 176 216
117 176 216
117 176 216
117 176 216
117 176 216
117 176 216
117 176 216
116 176 216
116 176 216
116 176 216
116 176 216
116 176 216
116 176 216
116 176 216
116 176 216
116 176 216
116 176 216
116 176 216
116 176 216
116 176 216
116 176 216
116 176 216
116 176 216
116 176 216
116 176 216
116 176 216
116 176 216
116 176 216
116 176 216
116 176 216
116 176 216
116 176 216
116 176 216
116 176 216
116 176 216
116 176 216
116 176 216
116 176 216
116 176 216
116 176 216
116 176 216
116 176 216
116 176 216
116 176 216
116 176 216
116 176 216
116 176 216
116 176 216
116 176 216
116 176 216
116 176 216
116 176 216
116 176 216
116 176 216
116 176 216
117 176 216
117 176 216
117 176 216
117 176 216
117 176 216
117 176 216
117 176 216
117 176 216
117 176 216
117 176 216
117 177 216
117 177 216
117 177 216
118 177 216
118 177 216
118 177 216
118 177 216
118 177 216
118 177 216
118 177 216
118 177 216
118 177 216
118 177 216
119 177 216
119 177 216
119 177 216
119 177 216
119 177 216
119 178 217
119 178 217
119 178 217
119 178 217
120 178 217
120 178 217
120 178 217
120 178 217
120 178 217
120 178 217
120 178 217
120 178 217
121 178 217
121 178 217
121 179 217
121 179 217
121 179 217
121 179 217
121 179 217
122 179 217
122 179 217
122 179 217
122 179 217
122 179 217
122 179 217
122 179 217
122 179 217
123 180 218
123 180 218
123 180 218
123 180 218
123 180 218
123 180 218
123 180 218
124 180 218
124 180 218
124 180 218
124 180 218
124 180 218
124 181 218
124 181 218
125 181 218
125 181 218
125 181 218
125 181 218
125 181 218
125 181 218
125 181 218
126 181 218
126 181 218
126 181 218
126 182 219
126 182 219
126 182 219
126 182 219
127 182 219
127 182 219
127 182 219
127 182 219
127 182 219
127 182 219
127 182 219
128 182 219
128 182 219
128 183 219
128 183 219
128 183 219
128 183 219
128 183 219
129 183 219
129 183 219
129 183 219
129 183 219
129 183 219
129 183 219
129 183 219
129 183 219
130 184 220
130 184 220
130 184 220
130 184 220
130 184 220
130 184 220
130 184 220
131 184 220
131 184 220
131 184 220
131 184 220
131 184 220
131 184 220
131 185 220
131 185 220
132 185 220
132 185 220
132 185 220
132 185 220
132 185 220
132 185 220
132 185 220
132 185 220
133 185 220
133 185 220
133 185 220
133 185 220
133 186 221
133 186 221
133 186 221
133 186 221
134 186 221
134 186 221
134 186 221
134 186 221
134 186 221
134 186 221
134 186 221
134 186 221
134 186 221
135 186 221
135 186 221
135 187 221
135 187 221
135 187 221
135 187 221
135 187 221
135 187 221
135 187 221
136 187 221
136 187 221
136 187 221
136 187 221
136 187 221
136 187 221
136 187 221
136 187 221
136 187 221
136 187 221
137 188 222
137 188 222
137 188 222
137 188 222
137 188 222
137 188 222
137 188 222
137 188 222
137 188 222
137 188 222
138 188 222
138 188 222
138 188 222
138 188 222
138 188 222
138 188 222
138 188 222
138 188 222
137 188 222
137 188 222
137 188 222
137 188 222
137 188 222
137 188 222
137 188 222
137 188 222
137 188 222
137 188 222
136 187 221
136 187 221
136 187 221
136 187 221
136 187 221
136 187 221
136 187 221
136 187 221
136 187 221
135 187 221
135 187 221
135 187 221
135 187 221
135 187 221
135 187 221
135 187 221
135 186 221
135 186 221
134 186 221
134 186 221
134 186 221
134 186 221
134 186 221
134 186 221
134 186 221
134 186 221
134 186 221
133 186 221
133 186 221
133 186 221
133 186 221
133 185 220
133 185 220
133 185 220
133 185 220
132 185 220
132 185 220
132 185 220
132 185 220
132 185 220
132 185 220
132 185 220
132 185 220
131 185 220
131 185 220
131 184 220
131 184 220
131 184 220
131 184 220
131 184 220
131 184 220
130 184 220
130 184 220
130 184 220
130 184 220
130 184 220
130 184 220
130 184 220
129 183 219
129 183 219
129 183 219
129 183 219
129 183 219
129 183 219
129 183 219
129 183 219
128 183 219
128 183 219
128 183 219
128 183 219
128 183 219
128 182 219
128 182 219
127 182 219
127 182 219
127 182 219
127 182 219
127 182 219
127 182 219
127 182 219
126 182 219
126 182 219
126 182 219
126 181 218
126 181 218
126 181 218
126 181 218
125 181 218
125 181 218
125 181 218
125 181 218
125 181 218
125 181 218
125 181 218
124 181 218
124 181 218
124 180 218
124 180 218
124 180 218
124 180 218
124 180 218
123 180 218
123 180 218
123 180 218
123 180 218
123 180 218
123 180 218
123 180 218
123 180 218
122 179 217
122 179 217
122 179 217
122 179 217
122 179 217
122 179 217
122 179 217
121 179 217
121 179 217
121 179 217
121 179 217
121 179 217
121 179 217
121 178 217
121 178 217
120 178 217
120 178 217
120 178 217
120 178 217
120 178 217
120 178 217
120 178 217
120 178 217
119 178 217
119 178 217
119 178 217
119 178 217
119 178 217
119 177 216
119 177 216
119 177 216
119 177 216
118 177 216
118 177 216
118 177 216
118 177 216
118 177 216
118 177 216
118 177 216
118 177 216
118 177 216
118 177 216
118 177 216
117 177 216
117 177 216
117 177 216
117 177 216
117 176 216
117 176 216
117 176 216
117 176 216
117 176 216
117 176 216
117 176 216
117 176 216
117 176 216
117 176 216
117 176 216
117 176 216
117 176 216
116 176 216
116 176 216
116 176 216
116 176 216
116 176 216
116 176 216
116 176 216
116 176 216
116 176 216
116 176 216
116 176 216
116 176 216
116 176 216
116 176 216
116 176 216
116 176 216
116 176 216
116 176 216
116 176 216
116 176 216
116 176 216
116 176 216
116 176 216
116 176 216
116 176 216
116 176 216
116 176 216
116 176 216
116 176 216
116 176 216
117 176 216
117 176 216
117 176 216
117 176 216
117 176 216
117 176 216
117 176 216
117 176 216
117 176 216
117 176 216
117 176 216
117 176 216
117 176 216
117 177 216
117 177 216
117 177 216
118 177 216
118 177 216
118 177 216
118 177 216
118 177 216
118 177 216
118 177 216
118 177 216
118 177 216
118 177 216
118 177 216
118 177 216
119 177 216
119 177 216
119 177 216
119 177 216
119 177 216
119 178 217
119 178 217
119 178 217
119 178 217
120 178 217
120 178 217
120 178 217
120 178 217
120 178 217
120 178 217
120 178 217
120 178 217
121 178 217
121 178 217
121 179 217
121 179 217
121 179 217
121 179 217
121 179 217
121 179 217
122 179 217
122 179 217
122 179 217
122 179 217
122 179 217
122 179 217
122 179 217
123 180 218
123 180 218
123 180 218
123 180 218
123 180 218
123 180 218
123 180 218
123 180 218
124 180 218
124 180 218
124 180 218
124 180 218
124 180 218
124 181 218
124 181 218
125 181 218
125 181 218
125 181 218
125 181 218
125 181 218
125 181 218
125 181 218
126 181 218
126 181 218
126 181 218
126 181 218
126 182 219
126 182 219
126 182 219
127 182 219
127 182 219
127 182 219
127 182 219
127 182 219
127 182 219
127 182 219
128 182 219
128 182 219
128 183 219
128 183 219
128 183 219
128 183 219
128 183 219
129 183 219
129 183 219
129 183 219
129 183 219
129 183 219
129 183 219
129 183 219
129 183 219
130 184 220
130 184 220
130 184 220
130 184 220
130 184 220
130 184 220
130 184 220
131 184 220
131 184 220
131 184 220
131 184 220
131 184 220
131 184 220
131 185 220
131 185 220
132 185 220
132 185 220
132 185 220
132 185 220
132 185 220
132 185 220
132 185 220
132 185 220
133 185 220
133 185 220
133 185 220
133 185 220
133 186 221
133 186 221
133 186 221
133 186 221
134 186 221
134 186 221
134 186 221
134 186 221
134 186 221
134 186 221
134 186 221
134 186 221
134 186 221
135 186 221
135 186 221
135 187 221
135 187 221
135 187 221
135 187 221
135 187 221
135 187 221
135 187 221
136 187 221
136 187 221
136 187 221
136 187 221
136 187 221
136 187 221
136 187 221
136 187 221
136 187 221
137 188 222
137 188 222
137 188 222
137 188 222
137 188 222
137 188 222
137 188 222
137 188 222
137 188 222
137 188 222
138 188 222
138 188 222
138 188 222
138 188 222
138 188 222
138 188 222
138 189 222
138 189 222
138 188 222
138 188 222
138 188 222
138 188 222
138 188 222
138 188 222
138 188 222
137 188 222
137 188 222
137 188 222
137 188 222
137 188 222
137 188 222
137 188 222
137 188 222
137 188 222
137 188 222
136 187 221
136 187 221
136 187 221
136 187 221
136 187 221
136 187 221
136 187 221
136 187 221
136 187 221
136 187 221
135 187 221
135 187 221
135 187 221
135 187 221
135 187 221
135 187 221
135 186 221
135 186 221
134 186 221
134 186 221
134 186 221
134 186 221
134 186 221
134 186 221
134 186 221
134 186 221
134 186 221
133 186 221
133 186 221
133 186 221
133 186 221
133 185 220
133 185 220
133 185 220
133 185 220
132 185 220
132 185 220
132 185 220
132 185 220
132 185 220
132 185 220
132 185 220
132 185 220
131 185 220
131 185 220
131 184 220
131 184 220
131 184 220
131 184 220
131 184 220
131 184 220
130 184 220
130 184 220
130 184 220
130 184 220
130 184 220
130 184 220
130 184 220
129 183 219
129 183 219
129 183 219
129 183 219
129 183 219
129 183 219
129 183 219
129 183 219
128 183 219
128 183 219
128 183 219
128 183 219
128 183 219
128 182 219
128 182 219
127 182 219
127 182 219
127 182 219
127 182 219
127 182 219
127 182 219
127 182 219
126 182 219
126 182 219
126 182 219
126 182 219
126 181 218
126 181 218
126 181 218
125 181 218
125 181 218
125 181 218
125 181 218
125 181 218
125 181 218
125 181 218
124 181 218
124 181 218
124 180 218
124 180 218
124 180 218
124 180 218
124 180 218
124 180 218
123 180 218
123 180 218
123 180 218
123 180 218
123 180 218
123 180 218
123 180 218
122 179 217
122 179 217
122 179 217
122 179 217
122 179 217
122 179 217
122 179 217
121 179 217
121 179 217
121 179 217
121 179 217
121 179 217
121 179 217
121 178 217
121 178 217
121 178 217
120 178 217
120 178 217
120 178 217
120 178 217
120 178 217
120 178 217
120 178 217
120 178 217
119 178 217
119 178 217
119 178 217
119 178 217
119 178 217
119 177 216
119 177 216
119 177 216
119 177 216
119 177 216
118 177 216
118 177 216
118 177 216
118 177 216
118 177 216
118 177 216
118 177 216
118 177 216
118 177 216
118 177 216
118 177 216
118 177 216
118 177 216
117 177 216
117 177 216
117 177 216
117 177 216
117 176 216
117 176 216
117 176 216
117 176 216
117 176 216
117 176 216
117 176 216
117 176 216
117 176 216
117 176 216
117 176 216
117 176 216
117 176 216
117 176 216
117 176 216
117 176 216
117 176 216
117 176 216
117 176 216
117 176 216
117 176 216
117 176 216
117 176 216
117 176 216
117 176 216
117 176 216
117 176 216
117 176 216
117 176 216
117 176 216
117 176 216
117 176 216
117 176 216
117 176 216
117 176 216
117 176 216
117 176 216
117 176 216
117 176 216
117 176 216
117 176 216
117 176 216
117 177 216
117 177 216
117 177 216
117 177 216
118 177 216
118 177 216
118 177 216
118 177 216
118 177 216
118 177 216
118 177 216
118 177 216
118 177 216
118 177 216
118 177 216
118 177 216
118 177 216
119 177 216
119 177 216
119 177 216
119 177 216
119 177 216
119 178 217
119 178 217
119 178 217
119 178 217
119 178 217
120 178 217
120 178 217
120 178 217
120 178 217
120 178 217
120 178 217
120 178 217
120 178 217
120 178 217
121 178 217
121 178 217
121 179 217
121 179 217
121 179 217
121 179 217
121 179 217
122 179 217
122 179 217
122 179 217
122 179 217
122 179 217
122 179 217
122 179 217
122 179 217
123 180 218
123 180 218
123 180 218
123 180 218
123 180 218
123 180 218
123 180 218
123 180 218
124 180 218
124 180 218
124 180 218
124 180 218
124 180 218
124 181 218
124 181 218
125 181 218
125 181 218
125 181 218
125 181 218
125 181 218
125 181 218
125 181 218
126 181 218
126 181 218
126 181 218
126 182 219
126 182 219
126 182 219
126 182 219
127 182 219
127 182 219
127 182 219
127 182 219
127 182 219
127 182 219
127 182 219
128 182 219
128 182 219
128 183 219
128 183 219
128 183 219
128 183 219
128 183 219
129 183 219
129 183 219
129 183 219
129 183 219
129 183 219
129 183 219
129 183 219
129 183 219
130 184 220
130 184 220
130 184 220
130 184 220
130 184 220
130 184 220
130 184 220
131 184 220
131 184 220
131 184 220
131 184 220
131 184 220
131 184 220
131 185 220
131 185 220
132 185 220
132 185 220
132 185 220
132 185 220
132 185 220
132 185 220
132 185 220
132 185 220
133 185 220
133 185 220
133 185 220
133 185 220
133 186 221
133 186 221
133 186 221
133 186 221
134 186 221
134 186 221
134 186 221
134 186 221
134 186 221
134 186 221
134 186 221
134 186 221
134 186 221
135 186 221
135 186 221
135 187 221
135 187 221
135 187 221
135 187 221
135 187 221
135 187 221
135 187 221
136 187 221
136 187 221
136 187 221
136 187 221
136 187 221
136 187 221
136 187 221
136 187 221
136 187 221
137 188 222
137 188 222
137 188 222
137 188 222
137 188 222
137 188 222
137 188 222
137 188 222
137 188 222
137 188 222
138 188 222
138 188 222
138 188 222
138 188 222
138 188 222
138 188 222
138 188 222
138 188 222
138 189 222
139 189 222
139 189 222
138 189 222
138 189 222
138 189 222
138 188 222
138 188 222
138 188 222
138 188 222
138 188 222
138 188 222
138 188 222
138 188 222
137 188 222
137 188 222
137 188 222
137 188 222
137 188 222
137 188 222
137 188 222
137 188 222
137 188 222
137 188 222
136 187 221
136 187 221
136 187 221
136 187 221
136 187 221
136 187 221
136 187 221
136 187 221
136 187 221
135 187 221
135 187 221
135 187 221
135 187 221
135 187 221
135 187 221
135 186 221
135 186 221
134 186 221
134 186 221
134 186 221
134 186 221
134 186 221
134 186 221
134 186 221
134 186 221
134 186 221
133 186 221
133 186 221
133 186 221
133 186 221
133 185 220
133 185 220
133 185 220
133 185 220
132 185 220
132 185 220
132 185 220
132 185 220
132 185 220
132 185 220
132 185 220
132 185 220
131 185 220
131 185 220
131 184 220
131 184 220
131 184 220
131 184 220
131 184 220
131 184 220
130 184 220
130 184 220
130 184 220
130 184 220
130 184 220
130 184 220
130 184 220
129 183 219
129 183 219
129 183 219
129 183 219
129 183 219
129 183 219
129 183 219
129 183 219
128 183 219
128 183 219
128 183 219
128 183 219
128 183 219
128 182 219
128 182 219
127 182 219
127 182 219
127 182 219
127 182 219
127 182 219
127 182 219
127 182 219
126 182 219
126 182 219
126 182 219
126 182 219
126 181 218
126 181 218
126 181 218
125 181 218
125 181 218
125 181 218
125 181 218
125 181 218
125 181 218
125 181 218
124 181 218
124 181 218
124 180 218
124 180 218
124 180 218
124 180 218
124 180 218
124 180 218
123 180 218
123 180 218
123 180 218
123 180 218
123 180 218
123 180 218
123 180 218
122 179 217
122 179 217
122 179 217
122 179 217
122 179 217
122 179 217
122 179 217
122 179 217
121 179 217
121 179 217
121 179 217
121 179 217
121 179 217
121 179 217
121 178 217
121 178 217
120 178 217
120 178 217
120 178 217
120 178 217
120 178 217
120 178 217
120 178 217
120 178 217
120 178 217
119 178 217
119 178 217
119 178 217
119 178 217
119 178 217
119 178 217
119 177 216
119 177 216
119 177 216
119 177 216
119 177 216
118 177 216
118 177 216
118 177 216
118 177 216
118 177 216
118 177 216
118 177 216
118 177 216
118 177 216
118 177 216
118 177 216
118 177 216
118 177 216
118 177 216
118 177 216
118 177 216
117 177 216
118 177 216
117 177 216
117 177 216
117 177 216
117 177 216
117 177 216
117 176 216
117 176 216
117 176 216
117 176 216
117 176 216
117 176 216
117 176 216
117 176 216
117 176 216
117 176 216
117 176 216
117 176 216
117 176 216
117 176 216
117 176 216
117 176 216
117 176 216
117 176 216
117 176 216
117 176 216
117 177 216
117 177 216
117 177 216
117 177 216
117 177 216
117 177 216
117 177 216
118 177 216
118 177 216
118 177 216
118 177 216
118 177 216
118 177 216
118 177 216
118 177 216
118 177 216
118 177 216
118 177 216
118 177 216
118 177 216
118 177 216
118 177 216
118 177 216
119 177 216
119 177 216
119 177 216
119 177 216
119 177 216
119 178 217
119 178 217
119 178 217
119 178 217
119 178 217
120 178 217
120 178 217
120 178 217
120 178 217
120 178 217
120 178 217
120 178 217
120 178 217
120 178 217
121 178 217
121 178 217
121 178 217
121 179 217
121 179 217
121 179 217
121 179 217
121 179 217
121 179 217
122 179 217
122 179 217
122 179 217
122 179 217
122 179 217
122 179 217
122 179 217
122 179 217
123 180 218
123 180 218
123 180 218
123 180 218
123 180 218
123 180 218
123 180 218
124 180 218
124 180 218
124 180 218
124 180 218
124 180 218
124 180 218
124 181 218
124 181 218
125 181 218
125 181 218
125 181 218
125 181 218
125 181 218
125 181 218
125 181 218
126 181 218
126 181 218
126 181 218
126 182 219
126 182 219
126 182 219
126 182 219
127 182 219
127 182 219
127 182 219
127 182 219
127 182 219
127 182 219
127 182 219
128 182 219
128 182 219
128 183 219
128 183 219
128 183 219
128 183 219
128 183 219
129 183 219
129 183 219
129 183 219
129 183 219
129 183 219
129 183 219
129 183 219
129 183 219
130 184 220
130 184 220
130 184 220
130 184 220
130 184 220
130 184 220
130 184 220
131 184 220
131 184 220
131 184 220
131 184 220
131 184 220
131 184 220
131 185 220
131 185 220
132 185 220
132 185 220
132 185 220
132 185 220
132 185 220
132 185 220
132 185 220
132 185 220
133 185 220
133 185 220
133 185 220
133 185 220
133 186 221
133 186 221
133 186 221
133 186 221
134 186 221
134 186 221
134 186 221
134 186 221
134 186 221
134 186 221
134 186 221
134 186 221
135 186 221
135 186 221
135 186 221
135 187 221
135 187 221
135 187 221
135 187 221
135 187 221
135 187 221
136 187 221
136 187 221
136 187 221
136 187 221
136 187 221
136 187 221
136 187 221
136 187 221
136 187 221
137 188 222
137 188 222
137 188 222
137 188 222
137 188 222
137 188 222
137 188 222
137 188 222
137 188 222
137 188 222
138 188 222
138 188 222
138 188 222
138 188 222
138 188 222
138 188 222
138 188 222
138 188 222
138 189 222
138 189 222
139 189 222
139 189 222
139 189 222
139 189 222
139 189 222
139 189 222
139 189 222
139 189 222
139 189 222
138 189 222
138 189 222
138 189 222
138 188 222
138 188 222
138 188 222
138 188 222
138 188 222
138 188 222
138 188 222
137 188 222
137 188 222
137 188 222
137 188 222
137 188 222
137 188 222
137 188 222
137 188 222
137 188 222
137 188 222
136 187 221
136 187 221
136 187 221
136 187 221
136 187 221
136 187 221
136 187 221
136 187 221
136 187 221
135 187 221
135 187 221
135 187 221
135 187 221
135 187 221
135 187 221
135 187 221
135 186 221
135 186 221
134 186 221
134 186 221
134 186 221
134 186 221
134 186 221
134 186 221
134 186 221
134 186 221
133 186 221
133 186 221
133 186 221
133 186 221
133 185 220
133 185 220
133 185 220
133 185 220
132 185 220
132 185 220
132 185 220
132 185 220
132 185 220
132 185 220
132 185 220
132 185 220
131 185 220
131 185 220
131 184 220
131 184 220
131 184 220
131 184 220
131 184 220
131 184 220
130 184 220
130 184 220
130 184 220
130 184 220
130 184 220
130 184 220
130 184 220
129 183 219
129 183 219
129 183 219
129 183 219
129 183 219
129 183 219
129 183 219
129 183 219
128 183 219
128 183 219
128 183 219
128 183 219
128 183 219
128 182 219
128 182 219
127 182 219
127 182 219
127 182 219
127 182 219
127 182 219
127 182 219
127 182 219
126 182 219
126 182 219
126 182 219
126 182 219
126 181 218
126 181 218
126 181 218
125 181 218
125 181 218
125 181 218
125 181 218
125 181 218
125 181 218
125 181 218
125 181 218
124 181 218
124 181 218
124 180 218
124 180 218
124 180 218
124 180 218
124 180 218
123 180 218
123 180 218
123 180 218
123 180 218
123 180 218
123 180 218
123 180 218
123 180 218
122 179 217
122 179 217
122 179 217
122 179 217
122 179 217
122 179 217
122 179 217
122 179 217
121 179 217
121 179 217
121 179 217
121 179 217
121 179 217
121 179 217
121 178 217
121 178 217
121 178 217
120 178 217
120 178 217
120 178 217
120 178 217
120 178 217
120 178 217
120 178 217
120 178 217
120 178 217
119 178 217
119 178 217
119 178 217
119 178 217
119 178 217
119 178 217
119 177 216
119 177 216
119 177 216
119 177 216
119 177 216
119 177 216
119 177 216
118 177 216
118 177 216
118 177 216
118 177 216
118 177 216
118 177 216
118 177 216
118 177 216
118 177 216
118 177 216
118 177 216
118 177 216
118 177 216
118 177 216
118 177 216
118 177 216
118 177 216
118 177 216
118 177 216
118 177 216
118 177 216
118 177 216
118 177 216
118 177 216
118 177 216
118 177 216
118 177 216
118 177 216
118 177 216
118 177 216
118 177 216
118 177 216
118 177 216
118 177 216
118 177 216
118 177 216
118 177 216
118 177 216
118 177 216
118 177 216
118 177 216
118 177 216
118 177 216
118 177 216
118 177 216
118 177 216
118 177 216
118 177 216
118 177 216
118 177 216
118 177 216
118 177 216
119 177 216
119 177 216
119 177 216
119 177 216
119 177 216
119 177 216
119 177 216
119 178 217
119 178 217
119 178 217
119 178 217
119 178 217
119 178 217
120 178 217
120 178 217
120 178 217
120 178 217
120 178 217
120 178 217
120 178 217
120 178 217
120 178 217
121 178 217
121 178 217
121 179 217
121 179 217
121 179 217
121 179 217
121 179 217
121 179 217
121 179 217
122 179 217
122 179 217
122 179 217
122 179 217
122 179 217
122 179 217
122 179 217
122 179 217
123 180 218
123 180 218
123 180 218
123 180 218
123 180 218
123 180 218
123 180 218
123 180 218
124 180 218
124 180 218
124 180 218
124 180 218
124 180 218
124 181 218
124 181 218
125 181 218
125 181 218
125 181 218
125 181 218
125 181 218
125 181 218
125 181 218
126 181 218
126 181 218
126 181 218
126 181 218
126 182 219
126 182 219
126 182 219
126 182 219
127 182 219
127 182 219
127 182 219
127 182 219
127 182 219
127 182 219
127 182 219
128 182 219
128 182 219
128 183 219
128 183 219
128 183 219
128 183 219
128 183 219
129 183 219
129 183 219
129 183 219
129 183 219
129 183 219
129 183 219
129 183 219
130 184 220
130 184 220
130 184 220
130 184 220
130 184 220
130 184 220
130 184 220
130 184 220
131 184 220
131 184 220
131 184 220
131 184 220
131 184 220
131 184 220
131 185 220
131 185 220
132 185 220
132 185 220
132 185 220
132 185 220
132 185 220
132 185 220
132 185 220
133 185 220
133 185 220
133 185 220
133 185 220
133 185 220
133 186 221
133 186 221
133 186 221
133 186 221
134 186 221
134 186 221
134 186 221
134 186 221
134 186 221
134 186 221
134 186 221
134 186 221
135 186 221
135 186 221
135 187 221
135 187 221
135 187 221
135 187 221
135 187 221
135 187 221
135 187 221
136 187 221
136 187 221
136 187 221
136 187 221
136 187 221
136 187 221
136 187 221
136 187 221
136 187 221
137 188 222
137 188 222
137 188 222
137 188 222
137 188 222
137 188 222
137 188 222
137 188 222
137 188 222
137 188 222
138 188 222
138 188 222
138 188 222
138 188 222
138 188 222
138 188 222
138 188 222
138 189 222
138 189 222
138 189 222
139 189 222
139 189 222
139 189 222
139 189 222
139 189 222
139 189 222
139 189 222
139 189 222
139 189 222
139 189 222
139 189 222
139 189 222
139 189 222
139 189 222
139 189 222
139 189 222
138 189 222
138 189 222
138 188 222
138 188 222
138 188 222
138 188 222
138 188 222
138 188 222
138 188 222
138 188 222
137 188 222
137 188 222
137 188 222
137 188 222
137 188 222
137 188 222
137 188 222
137 188 222
137 188 222
136 187 221
136 187 221
136 187 221
136 187 221
136 187 221
136 187 221
136 187 221
136 187 221
136 187 221
136 187 221
135 187 221
135 187 221
135 187 221
135 187 221
135 187 221
135 187 221
135 186 221
135 186 221
134 186 221
134 186 221
134 186 221
134 186 221
134 186 221
134 186 221
134 186 221
134 186 221
134 186 221
133 186 221
133 186 221
133 186 221
133 185 220
133 185 220
133 185 220
133 185 220
133 185 220
132 185 220
132 185 220
132 185 220
132 185 220
132 185 220
132 185 220
132 185 220
131 185 220
131 185 220
131 184 220
131 184 220
131 184 220
131 184 220
131 184 220
131 184 220
130 184 220
130 184 220
130 184 220
130 184 220
130 184 220
130 184 220
130 184 220
130 184 220
129 183 219
129 183 219
129 183 219
129 183 219
129 183 219
129 183 219
129 183 219
128 183 219
128 183 219
128 183 219
128 183 219
128 183 219
128 182 219
128 182 219
127 182 219
127 182 219
127 182 219
127 182 219
127 182 219
127 182 219
127 182 219
127 182 219
126 182 219
126 182 219
126 182 219
126 181 218
126 181 218
126 181 218
126 181 218
125 181 218
125 181 218
125 181 218
125 181 218
125 181 218
125 181 218
125 181 218
124 181 218
124 181 218
124 180 218
124 180 218
124 180 218
124 180 218
124 180 218
124 180 218
123 180 218
123 180 218
123 180 218
123 180 218
123 180 218
123 180 218
123 180 218
122 179 217
122 179 217
122 179 217
122 179 217
122 179 217
122 179 217
122 179 217
122 179 217
122 179 217
121 179 217
121 179 217
121 179 217
121 179 217
121 179 217
121 179 217
121 179 217
121 178 217
121 178 217
120 178 217
120 178 217
120 178 217
120 178 217
120 178 217
120 178 217
120 178 217
120 178 217
120 178 217
120 178 217
120 178 217
119 178 217
119 178 217
119 178 217
119 178 217
119 178 217
119 178 217
119 178 217
119 177 216
119 177 216
119 177 216
119 177 216
119 177 216
119 177 216
119 177 216
119 177 216
118 177 216
118 177 216
118 177 216
118 177 216
118 177 216
118 177 216
118 177 216
118 177 216
118 177 216
118 177 216
118 177 216
118 177 216
118 177 216
118 177 216
118 177 216
118 177 216
118 177 216
118 177 216
118 177 216
118 177 216
118 177 216
118 177 216
118 177 216
118 177 216
118 177 216
118 177 216
118 177 216
118 177 216
118 177 216
118 177 216
118 177 216
118 177 216
118 177 216
118 177 216
118 177 216
118 177 216
119 177 216
119 177 216
119 177 216
119 177 216
119 177 216
119 177 216
119 177 216
119 177 216
119 177 216
119 178 217
119 178 217
119 178 217
119 178 217
119 178 217
119 178 217
120 178 217
120 178 217
120 178 217
120 178 217
120 178 217
120 178 217
120 178 217
120 178 217
120 178 217
120 178 217
120 178 217
121 178 217
121 178 217
121 178 217
121 179 217
121 179 217
121 179 217
121 179 217
121 179 217
121 179 217
122 179 217
122 179 217
122 179 217
122 179 217
122 179 217
122 179 217
122 179 217
122 179 217
122 179 217
123 180 218
123 180 218
123 180 218
123 180 218
123 180 218
123 180 218
123 180 218
124 180 218
124 180 218
124 180 218
124 180 218
124 180 218
124 180 218
124 181 218
124 181 218
125 181 218
125 181 218
125 181 218
125 181 218
125 181 218
125 181 218
125 181 218
126 181 218
126 181 218
126 181 218
126 181 218
126 182 219
126 182 219
126 182 219
127 182 219
127 182 219
127 182 219
127 182 219
127 182 219
127 182 219
127 182 219
127 182 219
128 182 219
128 183 219
128 183 219
128 183 219
128 183 219
128 183 219
128 183 219
129 183 219
129 183 219
129 183 219
129 183 219
129 183 219
129 183 219
129 183 219
130 184 220
130 184 220
130 184 220
130 184 220
130 184 220
130 184 220
130 184 220
130 184 220
131 184 220
131 184 220
131 184 220
131 184 220
131 184 220
131 184 220
131 185 220
131 185 220
132 185 220
132 185 220
132 185 220
132 185 220
132 185 220
132 185 220
132 185 220
133 185 220
133 185 220
133 185 220
133 185 220
133 185 220
133 186 221
133 186 221
133 186 221
134 186 221
134 186 221
134 186 221
134 186 221
134 186 221
134 186 221
134 186 221
134 186 221
134 186 221
135 186 221
135 186 221
135 187 221
135 187 221
135 187 221
135 187 221
135 187 221
135 187 221
136 187 221
136 187 221
136 187 221
136 187 221
136 187 221
136 187 221
136 187 221
136 187 221
136 187 221
136 187 221
137 188 222
137 188 222
137 188 222
137 188 222
137 188 222
137 188 222
137 188 222
137 188 222
137 188 222
138 188 222
138 188 222
138 188 222
138 188 222
138 188 222
138 188 222
138 188 222
138 188 222
138 189 222
138 189 222
139 189 222
139 189 222
139 189 222
139 189 222
139 189 222
139 189 222
139 189 222
139 189 222
139 189 222
139 189 222
140 189 222
140 189 222
140 189 222
139 189 222
139 189 222
139 189 222
139 189 222
139 189 222
139 189 222
139 189 222
139 189 222
139 189 222
139 189 222
138 189 222
138 189 222
138 189 222
138 188 222
138 188 222
138 188 222
138 188 222
138 188 222
138 188 222
138 188 222
137 188 222
137 188 222
137 188 222
137 188 222
137 188 222
137 188 222
137 188 222
137 188 222
137 188 222
137 188 222
136 187 221
136 187 221
136 187 221
136 187 221
136 187 221
136 187 221
136 187 221
136 187 221
136 187 221
135 187 221
135 187 221
135 187 221
135 187 221
135 187 221
135 187 221
135 186 221
135 186 221
134 186 221
134 186 221
134 186 221
134 186 221
134 186 221
134 186 221
134 186 221
134 186 221
134 186 221
133 186 221
133 186 221
133 186 221
133 186 221
133 185 220
133 185 220
133 185 220
133 185 220
132 185 220
132 185 220
132 185 220
132 185 220
132 185 220
132 185 220
132 185 220
132 185 220
131 185 220
131 185 220
131 184 220
131 184 220
131 184 220
131 184 220
131 184 220
130 184 220
130 184 220
130 184 220
130 184 220
130 184 220
130 184 220
130 184 220
130 184 220
129 183 219
129 183 219
129 183 219
129 183 219
129 183 219
129 183 219
129 183 219
128 183 219
128 183 219
128 183 219
128 183 219
128 183 219
128 183 219
128 182 219
128 182 219
127 182 219
127 182 219
127 182 219
127 182 219
127 182 219
127 182 219
127 182 219
126 182 219
126 182 219
126 182 219
126 181 218
126 181 218
126 181 218
126 181 218
125 181 218
125 181 218
125 181 218
125 181 218
125 181 218
125 181 218
125 181 218
125 181 218
124 181 218
124 180 218
124 180 218
124 180 218
124 180 218
124 180 218
124 180 218
123 180 218
123 180 218
123 180 218
123 180 218
123 180 218
123 180 218
123 180 218
123 180 218
122 179 217
122 179 217
122 179 217
122 179 217
122 179 217
122 179 217
122 179 217
122 179 217
122 179 217
121 179 217
121 179 217
121 179 217
121 179 217
121 179 217
121 179 217
121 179 217
121 178 217
121 178 217
121 178 217
120 178 217
120 178 217
120 178 217
120 178 217
120 178 217
120 178 217
120 178 217
120 178 217
120 178 217
120 178 217
120 178 217
120 178 217
119 178 217
119 178 217
119 178 217
119 178 217
119 178 217
119 178 217
119 178 217
119 178 217
119 178 217
119 177 216
119 177 216
119 177 216
119 177 216
119 177 216
119 177 216
119 177 216
119 177 216
119 177 216
119 177 216
119 177 216
119 177 216
119 177 216
119 177 216
119 177 216
119 177 216
119 177 216
119 177 216
119 177 216
119 177 216
119 177 216
119 177 216
119 177 216
119 177 216
119 177 216
119 177 216
119 177 216
119 177 216
119 177 216
119 177 216
119 177 216
119 177 216
119 177 216
119 177 216
119 177 216
119 177 216
119 178 217
119 178 217
119 178 217
119 178 217
119 178 217
119 178 217
119 178 217
119 178 217
120 178 217
120 178 217
120 178 217
120 178 217
120 178 217
120 178 217
120 178 217
120 178 217
120 178 217
120 178 217
120 178 217
120 178 217
120 178 217
121 178 217
121 178 217
121 178 217
121 179 217
121 179 217
121 179 217
121 179 217
121 179 217
121 179 217
121 179 217
122 179 217
122 179 217
122 179 217
122 179 217
122 179 217
122 179 217
122 179 217
122 179 217
122 179 217
123 180 218
123 180 218
123 180 218
123 180 218
123 180 218
123 180 218
123 180 218
123 180 218
124 180 218
124 180 218
124 180 218
124 180 218
124 180 218
124 181 218
124 181 218
124 181 218
125 181 218
125 181 218
125 181 218
125 181 218
125 181 218
125 181 218
125 181 218
126 181 218
126 181 218
126 181 218
126 181 218
126 182 219
126 182 219
126 182 219
127 182 219
127 182 219
127 182 219
127 182 219
127 182 219
127 182 219
127 182 219
128 182 219
128 182 219
128 183 219
128 183 219
128 183 219
128 183 219
128 183 219
128 183 219
129 183 219
129 183 219
129 183 219
129 183 219
129 183 219
129 183 219
129 183 219
130 184 220
130 184 220
130 184 220
130 184 220
130 184 220
130 184 220
130 184 220
131 184 220
131 184 220
131 184 220
131 184 220
131 184 220
131 184 220
131 185 220
131 185 220
132 185 220
132 185 220
132 185 220
132 185 220
132 185 220
132 185 220
132 185 220
132 185 220
133 185 220
133 185 220
133 185 220
133 185 220
133 186 221
133 186 221
133 186 221
133 186 221
134 186 221
134 186 221
134 186 221
134 186 221
134 186 221
134 186 221
134 186 221
134 186 221
135 186 221
135 186 221
135 186 221
135 187 221
135 187 221
135 187 221
135 187 221
135 187 221
135 187 221
136 187 221
136 187 221
136 187 221
136 187 221
136 187 221
136 187 221
136 187 221
136 187 221
136 187 221
137 188 222
137 188 222
137 188 222
137 188 222
137 188 222
137 188 222
137 188 222
137 188 222
137 188 222
137 188 222
138 188 222
138 188 222
138 188 222
138 188 222
138 188 222
138 188 222
138 188 222
138 189 222
138 189 222
138 189 222
139 189 222
139 189 222
139 189 222
139 189 222
139 189 222
139 189 222
139 189 222
139 189 222
139 189 222
139 189 222
140 189 222
140 189 222
140 189 222
140 190 223
140 189 222
140 189 222
140 189 222
140 189 222
140 189 222
139 189 222
139 189 222
139 189 222
139 189 222
139 189 222
139 189 222
139 189 222
139 189 222
139 189 222
139 189 222
139 189 222
138 189 222
138 189 222
138 188 222
138 188 222
138 188 222
138 188 222
138 188 222
138 188 222
138 188 222
138 188 222
137 188 222
137 188 222
137 188 222
137 188 222
137 188 222
137 188 222
137 188 222
137 188 222
137 188 222
136 187 221
136 187 221
136 187 221
136 187 221
136 187 221
136 187 221
136 187 221
136 187 221
136 187 221
135 187 221
135 187 221
135 187 221
135 187 221
135 187 221
135 187 221
135 187 221
135 186 221
135 186 221
134 186 221
134 186 221
134 186 221
134 186 221
134 186 221
134 186 221
134 186 221
134 186 221
133 186 221
133 186 221
133 186 221
133 186 221
133 185 220
133 185 220
133 185 220
133 185 220
132 185 220
132 185 220
132 185 220
132 185 220
132 185 220
132 185 220
132 185 220
132 185 220
131 185 220
131 185 220
131 184 220
131 184 220
131 184 220
131 184 220
131 184 220
130 184 220
130 184 220
130 184 220
130 184 220
130 184 220
130 184 220
130 184 220
130 184 220
129 183 219
129 183 219
129 183 219
129 183 219
129 183 219
129 183 219
129 183 219
128 183 219
128 183 219
128 183 219
128 183 219
128 183 219
128 183 219
128 182 219
128 182 219
127 182 219
127 182 219
127 182 219
127 182 219
127 182 219
127 182 219
127 182 219
126 182 219
126 182 219
126 182 219
126 182 219
126 181 218
126 181 218
126 181 218
125 181 218
125 181 218
125 181 218
125 181 218
125 181 218
125 181 218
125 181 218
125 181 218
124 181 218
124 181 218
124 180 218
124 180 218
124 180 218
124 180 218
124 180 218
124 180 218
123 180 218
123 180 218
123 180 218
123 180 218
123 180 218
123 180 218
123 180 218
123 180 218
122 179 217
122 179 217
122 179 217
122 179 217
122 179 217
122 179 217
122 179 217
122 179 217
122 179 217
122 179 217
121 179 217
121 179 217
121 179 217
121 179 217
121 179 217
121 179 217
121 179 217
121 179 217
121 178 217
121 178 217
121 178 217
120 178 217
120 178 217
120 178 217
120 178 217
120 178 217
120 178 217
120 178 217
120 178 217
120 178 217
120 178 217
120 178 217
120 178 217
120 178 217
120 178 217
120 178 217
119 178 217
119 178 217
119 178 217
119 178 217
119 178 217
119 178 217
119 178 217
119 178 217
119 178 217
119 178 217
119 178 217
119 178 217
119 178 217
119 178 217
119 178 217
119 178 217
119 178 217
119 178 217
119 178 217
119 178 217
119 178 217
119 178 217
119 178 217
119 178 217
119 178 217
119 178 217
119 178 217
119 178 217
119 178 217
119 178 217
119 178 217
119 178 217
119 178 217
119 178 217
119 178 217
119 178 217
119 178 217
120 178 217
120 178 217
120 178 217
120 178 217
120 178 217
120 178 217
120 178 217
120 178 217
120 178 217
120 178 217
120 178 217
120 178 217
120 178 217
120 178 217
120 178 217
121 178 217
121 178 217
121 178 217
121 179 217
121 179 217
121 179 217
121 179 217
121 179 217
121 179 217
121 179 217
122 179 217
122 179 217
122 179 217
122 179 217
122 179 217
122 179 217
122 179 217
122 179 217
122 179 217
122 179 217
123 180 218
123 180 218
123 180 218
123 180 218
123 180 218
123 180 218
123 180 218
123 180 218
124 180 218
124 180 218
124 180 218
124 180 218
124 180 218
124 180 218
124 181 218
124 181 218
125 181 218
125 181 218
125 181 218
125 181 218
125 181 218
125 181 218
125 181 218
126 181 218
126 181 218
126 181 218
126 181 218
126 182 219
126 182 219
126 182 219
126 182 219
127 182 219
127 182 219
127 182 219
127 182 219
127 182 219
127 182 219
127 182 219
128 182 219
128 182 219
128 183 219
128 183 219
128 183 219
128 183 219
128 183 219
128 183 219
129 183 219
129 183 219
129 183 219
129 183 219
129 183 219
129 183 219
129 183 219
130 184 220
130 184 220
130 184 220
130 184 220
130 184 220
130 184 220
130 184 220
130 184 220
131 184 220
131 184 220
131 184 220
131 184 220
131 184 220
131 185 220
131 185 220
132 185 220
132 185 220
132 185 220
132 185 220
132 185 220
132 185 220
132 185 220
132 185 220
133 185 220
133 185 220
133 185 220
133 185 220
133 186 221
133 186 221
133 186 221
133 186 221
134 186 221
134 186 221
134 186 221
134 186 221
134 186 221
134 186 221
134 186 221
134 186 221
135 186 221
135 186 221
135 187 221
135 187 221
135 187 221
135 187 221
135 187 221
135 187 221
135 187 221
136 187 221
136 187 221
136 187 221
136 187 221
136 187 221
136 187 221
136 187 221
136 187 221
136 187 221
137 188 222
137 188 222
137 188 222
137 188 222
137 188 222
137 188 222
137 188 222
137 188 222
137 188 222
138 188 222
138 188 222
138 188 222
138 188 222
138 188 222
138 188 222
138 188 222
138 188 222
138 189 222
138 189 222
139 189 222
139 189 222
139 189 222
139 189 222
139 189 222
139 189 222
139 189 222
139 189 222
139 189 222
139 189 222
139 189 222
140 189 222
140 189 222
140 189 222
140 189 222
140 189 222
140 190 223
140 190 223
140 190 223
140 190 223
140 190 223
140 190 223
140 189 222
140 189 222
140 189 222
140 189 222
140 189 222
139 189 222
139 189 222
139 189 222
139 189 222
139 189 222
139 189 222
139 189 222
139 189 222
139 189 222
139 189 222
139 189 222
138 189 222
138 189 222
138 188 222
138 188 222
138 188 222
138 188 222
138 188 222
138 188 222
138 188 222
138 188 222
137 188 222
137 188 222
137 188 222
137 188 222
137 188 222
137 188 222
137 188 222
137 188 222
137 188 222
136 187 221
136 187 221
136 187 221
136 187 221
136 187 221
136 187 221
136 187 221
136 187 221
136 187 221
135 187 221
135 187 221
135 187 221
135 187 221
135 187 221
135 187 221
135 186 221
135 186 221
134 186 221
134 186 221
134 186 221
134 186 221
134 186 221
134 186 221
134 186 221
134 186 221
134 186 221
133 186 221
133 186 221
133 186 221
133 186 221
133 185 220
133 185 220
133 185 220
133 185 220
132 185 220
132 185 220
132 185 220
132 185 220
132 185 220
132 185 220
132 185 220
131 185 220
131 185 220
131 184 220
131 184 220
131 184 220
131 184 220
131 184 220
131 184 220
130 184 220
130 184 220
130 184 220
130 184 220
130 184 220
130 184 220
130 184 220
129 183 219
129 183 219
129 183 219
129 183 219
129 183 219
129 183 219
129 183 219
129 183 219
128 183 219
128 183 219
128 183 219
128 183 219
128 183 219
128 183 219
128 182 219
127 182 219
127 182 219
127 182 219
127 182 219
127 182 219
127 182 219
127 182 219
126 182 219
126 182 219
126 182 219
126 182 219
126 181 218
126 181 218
126 181 218
126 181 218
125 181 218
125 181 218
125 181 218
125 181 218
125 181 218
125 181 218
125 181 218
125 181 218
124 181 218
124 181 218
124 180 218
124 180 218
124 180 218
124 180 218
124 180 218
124 180 218
123 180 218
123 180 218
123 180 218
123 180 218
123 180 218
123 180 218
123 180 218
123 180 218
123 180 218
122 179 217
122 179 217
122 179 217
122 179 217
122 179 217
122 179 217
122 179 217
122 179 217
122 179 217
122 179 217
121 179 217
121 179 217
121 179 217
121 179 217
121 179 217
121 179 217
121 179 217
121 179 217
121 179 217
121 178 217
121 178 217
121 178 217
120 178 217
120 178 217
120 178 217
120 178 217
120 178 217
120 178 217
120 178 217
120 178 217
120 178 217
120 178 217
120 178 217
120 178 217
120 178 217
120 178 217
120 178 217
120 178 217
120 178 217
120 178 217
120 178 217
120 178 217
120 178 217
120 178 217
120 178 217
120 178 217
120 178 217
120 178 217
120 178 217
120 178 217
120 178 217
120 178 217
120 178 217
120 178 217
120 178 217
120 178 217
120 178 217
120 178 217
120 178 217
120 178 217
120 178 217
120 178 217
120 178 217
120 178 217
120 178 217
120 178 217
120 178 217
120 178 217
120 178 217
120 178 217
120 178 217
120 178 217
120 178 217
120 178 217
120 178 217
120 178 217
121 178 217
121 178 217
121 178 217
121 179 217
121 179 217
121 179 217
121 179 217
121 179 217
121 179 217
121 179 217
121 179 217
121 179 217
122 179 217
122 179 217
122 179 217
122 179 217
122 179 217
122 179 217
122 179 217
122 179 217
122 179 217
122 179 217
123 180 218
123 180 218
123 180 218
123 180 218
123 180 218
123 180 218
123 180 218
123 180 218
123 180 218
124 180 218
124 180 218
124 180 218
124 180 218
124 180 218
124 180 218
124 181 218
124 181 218
125 181 218
125 181 218
125 181 218
125 181 218
125 181 218
125 181 218
125 181 218
125 181 218
126 181 218
126 181 218
126 181 218
126 181 218
126 182 219
126 182 219
126 182 219
127 182 219
127 182 219
127 182 219
127 182 219
127 182 219
127 182 219
127 182 219
127 182 219
128 182 219
128 182 219
128 183 219
128 183 219
128 183 219
128 183 219
128 183 219
129 183 219
129 183 219
129 183 219
129 183 219
129 183 219
129 183 219
129 183 219
129 183 219
130 184 220
130 184 220
130 184 220
130 184 220
130 184 220
130 184 220
130 184 220
131 184 220
131 184 220
131 184 220
131 184 220
131 184 220
131 184 220
131 185 220
131 185 220
132 185 220
132 185 220
132 185 220
132 185 220
132 185 220
132 185 220
132 185 220
133 185 220
133 185 220
133 185 220
133 185 220
133 185 220
133 186 221
133 186 221
133 186 221
133 186 221
134 186 221
134 186 221
134 186 221
134 186 221
134 186 221
134 186 221
134 186 221
134 186 221
135 186 221
135 186 221
135 187 221
135 187 221
135 187 221
135 187 221
135 187 221
135 187 221
136 187 221
136 187 221
136 187 221
136 187 221
136 187 221
136 187 221
136 187 221
136 187 221
136 187 221
137 188 222
137 188 222
137 188 222
137 188 222
137 188 222
137 188 222
137 188 222
137 188 222
137 188 222
137 188 222
138 188 222
138 188 222
138 188 222
138 188 222
138 188 222
138 188 222
138 188 222
138 189 222
138 189 222
139 189 222
139 189 222
139 189 222
139 189 222
139 189 222
139 189 222
139 189 222
139 189 222
139 189 222
139 189 222
139 189 222
140 189 222
140 189 222
140 189 222
140 189 222
140 189 222
140 190 223
140 190 223
140 190 223
140 190 223
140 190 223
141 190 223
141 190 223
141 190 223
140 190 223
140 190 223
140 190 223
140 190 223
140 190 223
140 190 223
140 189 222
140 189 222
140 189 222
140 189 222
140 189 222
139 189 222
139 189 222
139 189 222
139 189 222
139 189 222
139 189 222
139 189 222
139 189 222
139 189 222
139 189 222
138 189 222
138 189 222
138 189 222
138 188 222
138 188 222
138 188 222
138 188 222
138 188 222
138 188 222
138 188 222
137 188 222
137 188 222
137 188 222
137 188 222
137 188 222
137 188 222
137 188 222
137 188 222
137 188 222
136 187 221
136 187 221
136 187 221
136 187 221
136 187 221
136 187 221
136 187 221
136 187 221
136 187 221
135 187 221
135 187 221
135 187 221
135 187 221
135 187 221
135 187 221
135 187 221
135 186 221
135 186 221
134 186 221
134 186 221
134 186 221
134 186 221
134 186 221
134 186 221
134 186 221
134 186 221
133 186 221
133 186 221
133 186 221
133 186 221
133 185 220
133 185 220
133 185 220
133 185 220
132 185 220
132 185 220
132 185 220
132 185 220
132 185 220
132 185 220
132 185 220
132 185 220
131 185 220
131 185 220
131 184 220
131 184 220
131 184 220
131 184 220
131 184 220
130 184 220
130 184 220
130 184 220
130 184 220
130 184 220
130 184 220
130 184 220
130 184 220
129 183 219
129 183 219
129 183 219
129 183 219
129 183 219
129 183 219
129 183 219
128 183 219
128 183 219
128 183 219
128 183 219
128 183 219
128 183 219
128 182 219
128 182 219
127 182 219
127 182 219
127 182 219
127 182 219
127 182 219
127 182 219
127 182 219
126 182 219
126 182 219
126 182 219
126 182 219
126 181 218
126 181 218
126 181 218
126 181 218
125 181 218
125 181 218
125 181 218
125 181 218
125 181 218
125 181 218
125 181 218
125 181 218
124 181 218
124 181 218
124 180 218
124 180 218
124 180 218
124 180 218
124 180 218
124 180 218
123 180 218
123 180 218
123 180 218
123 180 218
123 180 218
123 180 218
123 180 218
123 180 218
123 180 218
122 179 217
122 179 217
122 179 217
122 179 217
122 179 217
122 179 217
122 179 217
122 179 217
122 179 217
122 179 217
122 179 217
121 179 217
121 179 217
121 179 217
121 179 217
121 179 217
121 179 217
121 179 217
121 179 217
121 179 217
121 179 217
121 179 217
121 178 217
121 178 217
121 178 217
121 178 217
121 178 217
120 178 217
120 178 217
120 178 217
120 178 217
120 178 217
120 178 217
120 178 217
120 178 217
120 178 217
120 178 217
120 178 217
120 178 217
120 178 217
120 178 217
120 178 217
120 178 217
120 178 217
120 178 217
120 178 217
120 178 217
120 178 217
120 178 217
120 178 217
120 178 217
120 178 217
120 178 217
120 178 217
120 178 217
120 178 217
120 178 217
120 178 217
120 178 217
120 178 217
120 178 217
120 178 217
120 178 217
120 178 217
121 178 217
121 178 217
121 178 217
121 178 217
121 179 217
121 179 217
121 179 217
121 179 217
121 179 217
121 179 217
121 179 217
121 179 217
121 179 217
121 179 217
121 179 217
122 179 217
122 179 217
122 179 217
122 179 217
122 179 217
122 179 217
122 179 217
122 179 217
122 179 217
122 179 217
123 180 218
123 180 218
123 180 218
123 180 218
123 180 218
123 180 218
123 180 218
123 180 218
123 180 218
123 180 218
124 180 218
124 180 218
124 180 218
124 180 218
124 180 218
124 180 218
124 181 218
124 181 218
125 181 218
125 181 218
125 181 218
125 181 218
125 181 218
125 181 218
125 181 218
125 181 218
126 181 218
126 181 218
126 181 218
126 181 218
126 182 219
126 182 219
126 182 219
126 182 219
127 182 219
127 182 219
127 182 219
127 182 219
127 182 219
127 182 219
127 182 219
128 182 219
128 182 219
128 183 219
128 183 219
128 183 219
128 183 219
128 183 219
128 183 219
129 183 219
129 183 219
129 183 219
129 183 219
129 183 219
129 183 219
129 183 219
130 184 220
130 184 220
130 184 220
130 184 220
130 184 220
130 184 220
130 184 220
130 184 220
131 184 220
131 184 220
131 184 220
131 184 220
131 184 220
131 185 220
131 185 220
132 185 220
132 185 220
132 185 220
132 185 220
132 185 220
132 185 220
132 185 220
132 185 220
133 185 220
133 185 220
133 185 220
133 185 220
133 186 221
133 186 221
133 186 221
133 186 221
134 186 221
134 186 221
134 186 221
134 186 221
134 186 221
134 186 221
134 186 221
134 186 221
135 186 221
135 186 221
135 187 221
135 187 221
135 187 221
135 187 221
135 187 221
135 187 221
135 187 221
136 187 221
136 187 221
136 187 221
136 187 221
136 187 221
136 187 221
136 187 221
136 187 221
136 187 221
137 188 222
137 188 222
137 188 222
137 188 222
137 188 222
137 188 222
137 188 222
137 188 222
137 188 222
138 188 222
138 188 222
138 188 222
138 188 222
138 188 222
138 188 222
138 188 222
138 189 222
138 189 222
138 189 222
139 189 222
139 189 222
139 189 222
139 189 222
139 189 222
139 189 222
139 189 222
139 189 222
139 189 222
139 189 222
140 189 222
140 189 222
140 189 222
140 189 222
140 189 222
140 190 223
140 190 223
140 190 223
140 190 223
140 190 223
140 190 223
141 190 223
141 190 223
141 190 223
141 190 223
141 190 223
141 190 223
141 190 223
141 190 223
141 190 223
141 190 223
140 190 223
140 190 223
140 190 223
140 190 223
140 190 223
140 190 223
140 189 222
140 189 222
140 189 222
140 189 222
140 189 222
139 189 222
139 189 222
139 189 222
139 189 222
139 189 222
139 189 222
139 189 222
139 189 222
139 189 222
139 189 222
138 189 222
138 189 222
138 188 222
138 188 222
138 188 222
138 188 222
138 188 222
138 188 222
138 188 222
138 188 222
137 188 222
137 188 222
137 188 222
137 188 222
137 188 222
137 188 222
137 188 222
137 188 222
137 188 222
136 187 221
136 187 221
136 187 221
136 187 221
136 187 221
136 187 221
136 187 221
136 187 221
136 187 221
135 187 221
135 187 221
135 187 221
135 187 221
135 187 221
135 187 221
135 186 221
135 186 221
134 186 221
134 186 221
134 186 221
134 186 221
134 186 221
134 186 221
134 186 221
134 186 221
133 186 221
133 186 221
133 186 221
133 186 221
133 185 220
133 185 220
133 185 220
133 185 220
132 185 220
132 185 220
132 185 220
132 185 220
132 185 220
132 185 220
132 185 220
132 185 220
131 185 220
131 185 220
131 184 220
131 184 220
131 184 220
131 184 220
131 184 220
131 184 220
130 184 220
130 184 220
130 184 220
130 184 220
130 184 220
130 184 220
130 184 220
129 183 219
129 183 219
129 183 219
129 183 219
129 183 219
129 183 219
129 183 219
129 183 219
128 183 219
128 183 219
128 183 219
128 183 219
128 183 219
128 182 219
128 182 219
127 182 219
127 182 219
127 182 219
127 182 219
127 182 219
127 182 219
127 182 219
127 182 219
126 182 219
126 182 219
126 182 219
126 181 218
126 181 218
126 181 218
126 181 218
126 181 218
125 181 218
125 181 218
125 181 218
125 181 218
125 181 218
125 181 218
125 181 218
125 181 218
124 181 218
124 181 218
124 180 218
124 180 218
124 180 218
124 180 218
124 180 218
124 180 218
123 180 218
123 180 218
123 180 218
123 180 218
123 180 218
123 180 218
123 180 218
123 180 218
123 180 218
123 180 218
123 180 218
122 179 217
122 179 217
122 179 217
122 179 217
122 179 217
122 179 217
122 179 217
122 179 217
122 179 217
122 179 217
122 179 217
122 179 217
121 179 217
121 179 217
121 179 217
121 179 217
121 179 217
121 179 217
121 179 217
121 179 217
121 179 217
121 179 217
121 179 217
121 179 217
121 179 217
121 179 217
121 179 217
121 178 217
121 178 217
121 178 217
121 178 217
121 178 217
121 178 217
121 178 217
121 178 217
121 178 217
121 178 217
121 178 217
121 178 217
121 178 217
121 178 217
121 178 217
121 178 217
121 178 217
121 178 217
121 178 217
121 178 217
121 178 217
121 178 217
121 178 217
121 178 217
121 179 217
121 179 217
121 179 217
121 179 217
121 179 217
121 179 217
121 179 217
121 179 217
121 179 217
121 179 217
121 179 217
121 179 217
121 179 217
121 179 217
121 179 217
122 179 217
122 179 217
122 179 217
122 179 217
122 179 217
122 179 217
122 179 217
122 179 217
122 179 217
122 179 217
122 179 217
122 179 217
123 180 218
123 180 218
123 180 218
123 180 218
123 180 218
123 180 218
123 180 218
123 180 218
123 180 218
123 180 218
124 180 218
124 180 218
124 180 218
124 180 218
124 180 218
124 180 218
124 180 218
124 181 218
124 181 218
125 181 218
125 181 218
125 181 218
125 181 218
125 181 218
125 181 218
125 181 218
125 181 218
126 181 218
126 181 218
126 181 218
126 181 218
126 182 219
126 182 219
126 182 219
126 182 219
127 182 219
127 182 219
127 182 219
127 182 219
127 182 219
127 182 219
127 182 219
127 182 219
128 182 219
128 182 219
128 183 219
128 183 219
128 183 219
128 183 219
128 183 219
129 183 219
129 183 219
129 183 219
129 183 219
129 183 219
129 183 219
129 183 219
129 183 219
130 184 220
130 184 220
130 184 220
130 184 220
130 184 220
130 184 220
130 184 220
131 184 220
131 184 220
131 184 220
131 184 220
131 184 220
131 184 220
131 185 220
131 185 220
132 185 220
132 185 220
132 185 220
132 185 220
132 185 220
132 185 220
132 185 220
132 185 220
133 185 220
133 185 220
133 185 220
133 185 220
133 186 221
133 186 221
133 186 221
133 186 221
134 186 221
134 186 221
134 186 221
134 186 221
134 186 221
134 186 221
134 186 221
134 186 221
135 186 221
135 186 221
135 187 221
135 187 221
135 187 221
135 187 221
135 187 221
135 187 221
136 187 221
136 187 221
136 187 221
136 187 221
136 187 221
136 187 221
136 187 221
136 187 221
136 187 221
137 188 222
137 188 222
137 188 222
137 188 222
137 188 222
137 188 222
137 188 222
137 188 222
137 188 222
138 188 222
138 188 222
138 188 222
138 188 222
138 188 222
138 188 222
138 188 222
138 189 222
138 189 222
138 189 222
139 189 222
139 189 222
139 189 222
139 189 222
139 189 222
139 189 222
139 189 222
139 189 222
139 189 222
139 189 222
140 189 222
140 189 222
140 189 222
140 189 222
140 189 222
140 190 223
140 190 223
140 190 223
140 190 223
140 190 223
140 190 223
141 190 223
141 190 223
141 190 223
141 190 223
141 190 223
141 190 223
141 190 223
141 190 223
141 190 223
141 190 223
141 190 223
141 190 223
141 190 223
141 190 223
141 190 223
141 190 223
141 190 223
141 190 223
140 190 223
140 190 223
140 190 223
140 190 223
140 190 223
140 189 222
140 189 222
140 189 222
140 189 222
140 189 222
140 189 222
139 189 222
139 189 222
139 189 222
139 189 222
139 189 222
139 189 222
139 189 222
139 189 222
139 189 222
139 189 222
138 189 222
138 189 222
138 188 222
138 188 222
138 188 222
138 188 222
138 188 222
138 188 222
138 188 222
137 188 222
137 188 222
137 188 222
137 188 222
137 188 222
137 188 222
137 188 222
137 188 222
137 188 222
136 187 221
136 187 221
136 187 221
136 187 221
136 187 221
136 187 221
136 187 221
136 187 221
136 187 221
135 187 221
135 187 221
135 187 221
135 187 221
135 187 221
135 187 221
135 187 221
135 186 221
135 186 221
134 186 221
134 186 221
134 186 221
134 186 221
134 186 221
134 186 221
134 186 221
134 186 221
133 186 221
133 186 221
133 186 221
133 186 221
133 185 220
133 185 220
133 185 220
133 185 220
132 185 220
132 185 220
132 185 220
132 185 220
132 185 220
132 185 220
132 185 220
132 185 220
131 185 220
131 184 220
131 184 220
131 184 220
131 184 220
131 184 220
131 184 220
130 184 220
130 184 220
130 184 220
130 184 220
130 184 220
130 184 220
130 184 220
130 184 220
129 183 219
129 183 219
129 183 219
129 183 219
129 183 219
129 183 219
129 183 219
128 183 219
128 183 219
128 183 219
128 183 219
128 183 219
128 183 219
128 182 219
128 182 219
127 182 219
127 182 219
127 182 219
127 182 219
127 182 219
127 182 219
127 182 219
126 182 219
126 182 219
126 182 219
126 182 219
126 182 219
126 181 218
126 181 218
126 181 218
126 181 218
125 181 218
125 181 218
125 181 218
125 181 218
125 181 218
125 181 218
125 181 218
125 181 218
124 181 218
124 181 218
124 180 218
124 180 218
124 180 218
124 180 218
124 180 218
124 180 218
124 180 218
123 180 218
123 180 218
123 180 218
123 180 218
123 180 218
123 180 218
123 180 218
123 180 218
123 180 218
123 180 218
123 180 218
122 179 217
122 179 217
122 179 217
122 179 217
122 179 217
122 179 217
122 179 217
122 179 217
122 179 217
122 179 217
122 179 217
122 179 217
122 179 217
122 179 217
122 179 217
122 179 217
121 179 217
121 179 217
121 179 217
121 179 217
121 179 217
121 179 217
121 179 217
121 179 217
121 179 217
121 179 217
119 176 214
114 168 203
104 155 189
105 156 190
99 147 179
93 139 169
92 135 164
95 143 174
91 136 165
88 133 162
100 147 178
104 154 188
101 150 182
105 156 190
114 169 206
117 172 209
121 179 217
121 179 217
121 179 217
121 179 217
121 179 217
121 179 217
121 179 217
121 179 217
121 179 217
121 179 217
122 179 217
122 179 217
122 179 217
122 179 217
122 179 217
122 179 217
122 179 217
122 179 217
122 179 217
122 179 217
122 179 217
122 179 217
122 179 217
122 179 217
122 179 217
123 180 218
123 180 218
123 180 218
123 180 218
123 180 218
123 180 218
123 180 218
123 180 218
123 180 218
123 180 218
123 180 218
123 180 218
124 180 218
124 180 218
124 180 218
124 180 218
124 180 218
124 180 218
124 180 218
124 181 218
124 181 218
125 181 218
125 181 218
125 181 218
125 181 218
125 181 218
125 181 218
125 181 218
125 181 218
126 181 218
126 181 218
126 181 218
126 181 218
126 182 219
126 182 219
126 182 219
126 182 219
127 182 219
127 182 219
127 182 219
127 182 219
127 182 219
127 182 219
127 182 219
127 182 219
128 182 219
128 182 219
128 183 219
128 183 219
128 183 219
128 183 219
128 183 219
128 183 219
129 183 219
129 183 219
129 183 219
129 183 219
129 183 219
129 183 219
129 183 219
130 184 220
130 184 220
130 184 220
130 184 220
130 184 220
130 184 220
130 184 220
130 184 220
131 184 220
131 184 220
131 184 220
131 184 220
131 184 220
131 185 220
131 185 220
131 185 220
132 185 220
132 185 220
132 185 220
132 185 220
132 185 220
132 185 220
132 185 220
133 185 220
133 185 220
133 185 220
133 185 220
133 186 221
133 186 221
133 186 221
133 186 221
134 186 221
134 186 221
134 186 221
134 186 221
134 186 221
134 186 221
134 186 221
134 186 221
134 186 221
135 186 221
135 187 221
135 187 221
135 187 221
135 187 221
135 187 221
135 187 221
135 187 221
136 187 221
136 187 221
136 187 221
136 187 221
136 187 221
136 187 221
136 187 221
136 187 221
137 188 222
137 188 222
137 188 222
137 188 222
137 188 222
137 188 222
137 188 222
137 188 222
137 188 222
137 188 222
138 188 222
138 188 222
138 188 222
138 188 222
138 188 222
138 188 222
138 188 222
138 189 222
138 189 222
139 189 222
139 189 222
139 189 222
139 189 222
139 189 222
139 189 222
139 189 222
139 189 222
139 189 222
139 189 222
139 189 222
140 189 222
140 189 222
140 189 222
140 189 222
140 189 222
140 190 223
140 190 223
140 190 223
140 190 223
140 190 223
141 190 223
141 190 223
141 190 223
141 190 223
141 190 223
141 190 223
141 190 223
141 190 223
141 190 223
141 190 223
141 190 223
142 191 223
142 190 223
142 190 223
142 190 223
141 190 223
141 190 223
141 190 223
141 190 223
141 190 223
141 190 223
141 190 223
141 190 223
141 190 223
141 190 223
141 190 223
140 190 223
140 190 223
140 190 223
140 190 223
140 190 223
140 189 222
140 189 222
140 189 222
140 189 222
140 189 222
139 189 222
139 189 222
139 189 222
139 189 222
139 189 222
139 189 222
139 189 222
139 189 222
139 189 222
139 189 222
139 189 222
138 189 222
138 189 222
138 188 222
138 188 222
138 188 222
138 188 222
138 188 222
138 188 222
138 188 222
137 188 222
137 188 222
137 188 222
137 188 222
137 188 222
137 188 222
137 188 222
137 188 222
137 188 222
136 187 221
136 187 221
136 187 221
136 187 221
136 187 221
136 187 221
136 187 221
136 187 221
136 187 221
135 187 221
135 187 221
135 187 221
135 187 221
135 187 221
135 187 221
135 186 221
135 186 221
134 186 221
134 186 221
134 186 221
134 186 221
134 186 221
134 186 221
134 186 221
134 186 221
133 186 221
133 186 221
133 186 221
133 186 221
133 185 220
133 185 220
133 185 220
133 185 220
132 185 220
132 185 220
132 185 220
132 185 220
132 185 220
132 185 220
132 185 220
132 185 220
131 185 220
131 185 220
131 184 220
131 184 220
131 184 220
131 184 220
131 184 220
131 184 220
130 184 220
130 184 220
130 184 220
130 184 220
130 184 220
130 184 220
130 184 220
129 183 219
129 183 219
129 183 219
129 183 219
129 183 219
129 183 219
129 183 219
129 183 219
128 183 219
128 183 219
128 183 219
128 183 219
128 183 219
128 182 219
128 182 219
128 182 219
127 182 219
127 182 219
127 182 219
127 182 219
127 182 219
127 182 219
127 182 219
126 182 219
126 182 219
126 182 219
126 182 219
126 182 219
126 181 218
126 181 218
126 181 218
126 181 218
125 181 218
125 181 218
125 181 218
125 181 218
125 181 218
125 181 218
125 181 218
125 181 218
124 181 218
124 181 218
124 181 218
124 180 218
124 180 218
124 180 218
124 180 218
124 180 218
124 180 218
124 180 218
124 180 218
123 180 218
123 180 218
123 180 218
123 180 218
123 180 218
123 180 218
123 180 218
123 180 218
123 180 218
123 180 218
123 180 218
123 180 218
122 179 217
122 179 217
122 179 217
122 179 217
122 179 217
122 179 217
122 179 217
122 179 217
122 179 217
122 179 217
122 179 217
122 179 217
122 179 217
117 173 211
110 161 196
93 138 168
83 124 151
71 108 133
62 93 114
53 83 104
54 85 105
56 86 106
53 84 104
56 85 104
57 86 105
54 84 104
52 82 102
56 84 103
54 84 104
58 87 106
54 83 103
54 84 104
56 84 103
54 83 102
57 88 108
65 100 123
67 102 126
85 128 156
94 140 171
99 149 182
118 174 212
122 179 217
122 179 217
122 179 217
122 179 217
122 179 217
122 179 217
122 179 217
122 179 217
122 179 217
122 179 217
122 179 217
122 179 217
122 179 217
123 180 218
123 180 218
123 180 218
123 180 218
123 180 218
123 180 218
123 180 218
123 180 218
123 180 218
123 180 218
123 180 218
123 180 218
124 180 218
124 180 218
124 180 218
124 180 218
124 180 218
124 180 218
124 180 218
124 180 218
124 181 218
124 181 218
125 181 218
125 181 218
125 181 218
125 181 218
125 181 218
125 181 218
125 181 218
125 181 218
125 181 218
126 181 218
126 181 218
126 181 218
126 181 218
126 182 219
126 182 219
126 182 219
126 182 219
126 182 219
127 182 219
127 182 219
127 182 219
127 182 219
127 182 219
127 182 219
127 182 219
128 182 219
128 182 219
128 182 219
128 183 219
128 183 219
128 183 219
128 183 219
128 183 219
129 183 219
129 183 219
129 183 219
129 183 219
129 183 219
129 183 219
129 183 219
129 183 219
130 184 220
130 184 220
130 184 220
130 184 220
130 184 220
130 184 220
130 184 220
131 184 220
131 184 220
131 184 220
131 184 220
131 184 220
131 184 220
131 185 220
131 185 220
132 185 220
132 185 220
132 185 220
132 185 220
132 185 220
132 185 220
132 185 220
132 185 220
133 185 220
133 185 220
133 185 220
133 185 220
133 186 221
133 186 221
133 186 221
133 186 221
134 186 221
134 186 221
134 186 221
134 186 221
134 186 221
134 186 221
134 186 221
134 186 221
135 186 221
135 186 221
135 187 221
135 187 221
135 187 221
135 187 221
135 187 221
135 187 221
136 187 221
136 187 221
136 187 221
136 187 221
136 187 221
136 187 221
136 187 221
136 187 221
136 187 221
137 188 222
137 188 222
137 188 222
137 188 222
137 188 222
137 188 222
137 188 222
137 188 222
137 188 222
138 188 222
138 188 222
138 188 222
138 188 222
138 188 222
138 188 222
138 188 222
138 189 222
138 189 222
138 189 222
139 189 222
139 189 222
139 189 222
139 189 222
139 189 222
139 189 222
139 189 222
139 189 222
139 189 222
140 189 222
140 189 222
140 189 222
140 189 222
140 189 222
140 189 222
140 190 223
140 190 223
140 190 223
140 190 223
140 190 223
141 190 223
141 190 223
141 190 223
141 190 223
141 190 223
141 190 223
141 190 223
141 190 223
141 190 223
141 190 223
141 190 223
142 190 223
142 190 223
142 190 223
142 191 223
142 191 223
142 191 223
142 191 223
142 191 223
142 191 223
142 190 223
142 190 223
142 190 223
141 190 223
141 190 223
141 190 223
141 190 223
141 190 223
141 190 223
141 190 223
141 190 223
141 190 223
141 190 223
141 190 223
140 190 223
140 190 223
140 190 223
140 190 223
140 190 223
140 189 222
140 189 222
140 189 222
140 189 222
140 189 222
140 189 222
139 189 222
139 189 222
139 189 222
139 189 222
139 189 222
139 189 222
139 189 222
139 189 222
139 189 222
138 189 222
138 189 222
138 189 222
138 188 222
138 188 222
138 188 222
138 188 222
138 188 222
138 188 222
138 188 222
137 188 222
137 188 222
137 188 222
137 188 222
137 188 222
137 188 222
137 188 222
137 188 222
137 188 222
136 187 221
136 187 221
136 187 221
136 187 221
136 187 221
136 187 221
136 187 221
136 187 221
135 187 221
135 187 221
135 187 221
135 187 221
135 187 221
135 187 221
135 186 221
135 186 221
135 186 221
134 186 221
134 186 221
134 186 221
134 186 221
134 186 221
134 186 221
134 186 221
134 186 221
133 186 221
133 186 221
133 186 221
133 186 221
133 185 220
133 185 220
133 185 220
133 185 220
132 185 220
132 185 220
132 185 220
132 185 220
132 185 220
132 185 220
132 185 220
131 185 220
131 185 220
131 184 220
131 184 220
131 184 220
131 184 220
131 184 220
131 184 220
130 184 220
130 184 220
130 184 220
130 184 220
130 184 220
130 184 220
130 184 220
130 184 220
129 183 219
129 183 219
129 183 219
129 183 219
129 183 219
129 183 219
129 183 219
129 183 219
128 183 219
128 183 219
128 183 219
128 183 219
128 183 219
128 182 219
128 182 219
127 182 219
127 182 219
127 182 219
127 182 219
127 182 219
127 182 219
127 182 219
127 182 219
127 182 219
126 182 219
126 182 219
126 182 219
126 182 219
126 181 218
126 181 218
126 181 218
126 181 218
125 181 218
125 181 218
125 181 218
125 181 218
125 181 218
125 181 218
125 181 218
125 181 218
125 181 218
125 181 218
124 181 218
124 181 218
124 180 218
124 180 218
124 180 218
124 180 218
124 180 218
124 180 218
124 180 218
124 180 218
124 180 218
123 180 218
123 180 218
123 180 218
123 180 218
123 180 218
123 180 218
123 180 218
123 180 218
123 180 218
123 180 218
123 180 218
123 180 218
123 180 218
123 180 218
123 180 218
119 175 212
98 145 177
84 124 150
67 103 127
60 89 109
55 85 105
57 86 106
55 84 104
54 83 103
55 85 105
55 83 101
56 85 104
57 86 105
56 86 105
57 86 106
53 82 101
56 86 105
56 85 104
56 85 105
54 84 103
55 84 103
56 84 103
54 84 104
54 83 103
51 81 102
53 83 103
54 84 103
58 86 106
56 86 105
56 84 104
55 84 104
56 86 105
67 102 126
84 126 153
98 145 177
119 175 212
123 180 218
123 180 218
123 180 218
123 180 218
123 180 218
123 180 218
123 180 218
123 180 218
123 180 218
123 180 218
123 180 218
123 180 218
123 180 218
123 180 218
123 180 218
124 180 218
124 180 218
124 180 218
124 180 218
124 180 218
124 180 218
124 180 218
124 180 218
124 180 218
124 181 218
124 181 218
125 181 218
125 181 218
125 181 218
125 181 218
125 181 218
125 181 218
125 181 218
125 181 218
125 181 218
125 181 218
126 181 218
126 181 218
126 181 218
126 181 218
126 182 219
126 182 219
126 182 219
126 182 219
126 182 219
127 182 219
127 182 219
127 182 219
127 182 219
127 182 219
127 182 219
127 182 219
127 182 219
128 182 219
128 183 219
128 183 219
128 183 219
128 183 219
128 183 219
128 183 219
129 183 219
129 183 219
129 183 219
129 183 219
129 183 219
129 183 219
129 183 219
129 183 219
130 184 220
130 184 220
130 184 220
130 184 220
130 184 220
130 184 220
130 184 220
130 184 220
131 184 220
131 184 220
131 184 220
131 184 220
131 184 220
131 184 220
131 185 220
131 185 220
132 185 220
132 185 220
132 185 220
132 185 220
132 185 220
132 185 220
132 185 220
133 185 220
133 185 220
133 185 220
133 185 220
133 186 221
133 186 221
133 186 221
133 186 221
134 186 221
134 186 221
134 186 221
134 186 221
134 186 221
134 186 221
134 186 221
134 186 221
135 186 221
135 186 221
135 187 221
135 187 221
135 187 221
135 187 221
135 187 221
135 187 221
135 187 221
136 187 221
136 187 221
136 187 221
136 187 221
136 187 221
136 187 221
136 187 221
136 187 221
137 188 222
137 188 222
137 188 222
137 188 222
137 188 222
137 188 222
137 188 222
137 188 222
137 188 222
138 188 222
138 188 222
138 188 222
138 188 222
138 188 222
138 188 222
138 188 222
138 189 222
138 189 222
138 189 222
139 189 222
139 189 222
139 189 222
139 189 222
139 189 222
139 189 222
139 189 222
139 189 222
139 189 222
139 189 222
140 189 222
140 189 222
140 189 222
140 189 222
140 189 222
140 190 223
140 190 223
140 190 223
140 190 223
140 190 223
141 190 223
141 190 223
141 190 223
141 190 223
141 190 223
141 190 223
141 190 223
141 190 223
141 190 223
141 190 223
141 190 223
142 190 223
142 190 223
142 190 223
142 191 223
142 191 223
142 191 223
142 191 223
142 191 223
142 191 223
142 191 223
142 191 223
142 191 223
142 191 223
142 191 223
142 191 223
142 191 223
142 191 223
142 190 223
142 190 223
142 190 223
141 190 223
141 190 223
141 190 223
141 190 223
141 190 223
141 190 223
141 190 223
141 190 223
141 190 223
141 190 223
141 190 223
140 190 223
140 190 223
140 190 223
140 190 223
140 190 223
140 189 222
140 189 222
140 189 222
140 189 222
140 189 222
139 189 222
139 189 222
139 189 222
139 189 222
139 189 222
139 189 222
139 189 222
139 189 222
139 189 222
139 189 222
138 189 222
138 189 222
138 189 222
138 188 222
138 188 222
138 188 222
138 188 222
138 188 222
138 188 222
137 188 222
137 188 222
137 188 222
137 188 222
137 188 222
137 188 222
137 188 222
137 188 222
137 188 222
137 188 222
136 187 221
136 187 221
136 187 221
136 187 221
136 187 221
136 187 221
136 187 221
136 187 221
135 187 221
135 187 221
135 187 221
135 187 221
135 187 221
135 187 221
135 186 221
135 186 221
134 186 221
134 186 221
134 186 221
134 186 221
134 186 221
134 186 221
134 186 221
134 186 221
133 186 221
133 186 221
133 186 221
133 186 221
133 185 220
133 185 220
133 185 220
133 185 220
132 185 220
132 185 220
132 185 220
132 185 220
132 185 220
132 185 220
132 185 220
132 185 220
131 185 220
131 185 220
131 184 220
131 184 220
131 184 220
131 184 220
131 184 220
131 184 220
130 184 220
130 184 220
130 184 220
130 184 220
130 184 220
130 184 220
130 184 220
130 184 220
129 183 219
129 183 219
129 183 219
129 183 219
129 183 219
129 183 219
129 183 219
128 183 219
128 183 219
128 183 219
128 183 219
128 183 219
128 183 219
128 182 219
128 182 219
127 182 219
127 182 219
127 182 219
127 182 219
127 182 219
127 182 219
127 182 219
127 182 219
127 182 219
126 182 219
126 182 219
126 182 219
126 182 219
126 181 218
126 181 218
126 181 218
126 181 218
126 181 218
125 181 218
125 181 218
125 181 218
125 181 218
125 181 218
125 181 218
125 181 218
125 181 218
125 181 218
125 181 218
124 181 218
124 181 218
124 181 218
124 180 218
124 180 218
124 180 218
124 180 218
124 180 218
124 180 218
124 180 218
124 180 218
124 180 218
124 180 218
123 180 218
123 180 218
123 180 218
123 180 218
123 180 218
116 170 205
88 131 160
73 111 137
57 87 108
54 85 105
55 83 102
55 84 104
54 83 103
56 84 103
56 84 103
57 85 103
54 83 103
55 84 103
58 85 104
56 85 104
55 82 100
56 84 102
57 85 104
52 81 100
52 80 99
53 83 103
56 85 104
57 86 105
56 84 103
54 82 101
54 84 104
54 83 102
56 85 105
55 83 102
58 86 105
55 83 102
56 85 105
54 83 102
53 81 99
56 85 105
53 81 99
54 83 102
55 84 104
56 86 106
68 102 125
88 131 160
112 166 201
123 180 218
123 180 218
123 180 218
123 180 218
124 180 218
124 180 218
124 180 218
124 180 218
124 180 218
124 180 218
124 180 218
124 180 218
124 180 218
124 180 218
124 180 218
124 181 218
124 181 218
124 181 218
125 181 218
125 181 218
125 181 218
125 181 218
125 181 218
125 181 218
125 181 218
125 181 218
125 181 218
125 181 218
126 181 218
126 181 218
126 181 218
126 181 218
126 181 218
126 182 219
126 182 219
126 182 219
126 182 219
127 182 219
127 182 219
127 182 219
127 182 219
127 182 219
127 182 219
127 182 219
127 182 219
128 182 219
128 182 219
128 182 219
128 183 219
128 183 219
128 183 219
128 183 219
128 183 219
128 183 219
129 183 219
129 183 219
129 183 219
129 183 219
129 183 219
129 183 219
129 183 219
130 184 220
130 184 220
130 184 220
130 184 220
130 184 220
130 184 220
130 184 220
130 184 220
131 184 220
131 184 220
131 184 220
131 184 220
131 184 220
131 184 220
131 185 220
131 185 220
132 185 220
132 185 220
132 185 220
132 185 220
132 185 220
132 185 220
132 185 220
132 185 220
133 185 220
133 185 220
133 185 220
133 185 220
133 186 221
133 186 221
133 186 221
133 186 221
134 186 221
134 186 221
134 186 221
134 186 221
134 186 221
134 186 221
134 186 221
134 186 221
135 186 221
135 186 221
135 187 221
135 187 221
135 187 221
135 187 221
135 187 221
135 187 221
136 187 221
136 187 221
136 187 221
136 187 221
136 187 221
136 187 221
136 187 221
136 187 221
136 187 221
137 188 222
137 188 222
137 188 222
137 188 222
137 188 222
137 188 222
137 188 222
137 188 222
138 188 222
138 188 222
138 188 222
138 188 222
138 188 222
138 188 222
138 188 222
138 189 222
138 189 222
138 189 222
139 189 222
139 189 222
139 189 222
139 189 222
139 189 222
139 189 222
139 189 222
139 189 222
139 189 222
139 189 222
140 189 222
140 189 222
140 189 222
140 189 222
140 189 222
140 190 223
140 190 223
140 190 223
140 190 223
140 190 223
141 190 223
141 190 223
141 190 223
141 190 223
141 190 223
141 190 223
141 190 223
141 190 223
141 190 223
141 190 223
141 190 223
142 190 223
142 190 223
142 190 223
142 191 223
142 191 223
142 191 223
142 191 223
142 191 223
142 191 223
142 191 223
142 191 223
142 191 223
143 191 223
143 191 223
143 191 223
143 191 223
143 191 223
142 191 223
142 191 223
142 191 223
142 191 223
142 191 223
142 191 223
142 191 223
142 191 223
142 190 223
142 190 223
142 190 223
141 190 223
141 190 223
141 190 223
141 190 223
141 190 223
141 190 223
141 190 223
141 190 223
141 190 223
141 190 223
141 190 223
140 190 223
140 190 223
140 190 223
140 190 223
140 190 223
140 189 222
140 189 222
140 189 222
140 189 222
140 189 222
139 189 222
139 189 222
139 189 222
139 189 222
139 189 222
139 189 222
139 189 222
139 189 222
139 189 222
139 189 222
138 189 222
138 189 222
138 188 222
138 188 222
138 188 222
138 188 222
138 188 222
138 188 222
138 188 222
137 188 222
137 188 222
137 188 222
137 188 222
137 188 222
137 188 222
137 188 222
137 188 222
137 188 222
136 187 221
136 187 221
136 187 221
136 187 221
136 187 221
136 187 221
136 187 221
136 187 221
136 187 221
135 187 221
135 187 221
135 187 221
135 187 221
135 187 221
135 187 221
135 186 221
135 186 221
134 186 221
134 186 221
134 186 221
134 186 221
134 186 221
134 186 221
134 186 221
134 186 221
133 186 221
133 186 221
133 186 221
133 186 221
133 185 220
133 185 220
133 185 220
133 185 220
132 185 220
132 185 220
132 185 220
132 185 220
132 185 220
132 185 220
132 185 220
132 185 220
131 185 220
131 185 220
131 184 220
131 184 220
131 184 220
131 184 220
131 184 220
131 184 220
130 184 220
130 184 220
130 184 220
130 184 220
130 184 220
130 184 220
130 184 220
130 184 220
129 183 219
129 183 219
129 183 219
129 183 219
129 183 219
129 183 219
129 183 219
128 183 219
128 183 219
128 183 219
128 183 219
128 183 219
128 183 219
128 183 219
128 182 219
128 182 219
127 182 219
127 182 219
127 182 219
127 182 219
127 182 219
127 182 219
127 182 219
127 182 219
126 182 219
126 182 219
126 182 219
126 182 219
126 182 219
126 181 218
126 181 218
126 181 218
126 181 218
126 181 218
125 181 218
125 181 218
125 181 218
125 181 218
125 181 218
125 181 218
125 181 218
125 181 218
125 181 218
125 181 218
125 181 218
124 181 218
124 181 218
124 181 218
124 181 218
124 180 218
124 180 218
124 180 218
124 180 218
124 180 218
118 172 209
93 136 165
70 106 130
57 86 105
57 85 105
55 83 103
55 84 103
55 84 103
54 83 103
55 84 103
56 85 103
53 81 100
54 83 102
55 83 101
56 84 103
56 84 103
57 85 104
57 86 105
56 83 101
53 81 100
56 84 102
54 84 103
55 81 98
51 80 99
55 83 102
55 83 102
54 83 103
56 84 104
57 86 105
51 81 101
54 82 101
56 85 105
53 82 102
58 86 104
57 86 106
54 83 102
57 84 102
56 84 102
53 81 100
58 85 104
55 84 104
53 81 100
54 83 103
56 84 103
57 86 105
66 99 121
91 135 165
119 173 209
124 180 218
124 180 218
124 180 218
124 180 218
124 180 218
124 181 218
124 181 218
124 181 218
124 181 218
125 181 218
125 181 218
125 181 218
125 181 218
125 181 218
125 181 218
125 181 218
125 181 218
125 181 218
125 181 218
125 181 218
126 181 218
126 181 218
126 181 218
126 181 218
126 181 218
126 182 219
126 182 219
126 182 219
126 182 219
127 182 219
127 182 219
127 182 219
127 182 219
127 182 219
127 182 219
127 182 219
127 182 219
127 182 219
128 182 219
128 182 219
128 182 219
128 183 219
128 183 219
128 183 219
128 183 219
128 183 219
129 183 219
129 183 219
129 183 219
129 183 219
129 183 219
129 183 219
129 183 219
129 183 219
129 183 219
130 184 220
130 184 220
130 184 220
130 184 220
130 184 220
130 184 220
130 184 220
131 184 220
131 184 220
131 184 220
131 184 220
131 184 220
131 184 220
131 185 220
131 185 220
132 185 220
132 185 220
132 185 220
132 185 220
132 185 220
132 185 220
132 185 220
132 185 220
133 185 220
133 185 220
133 185 220
133 185 220
133 186 221
133 186 221
133 186 221
133 186 221
134 186 221
134 186 221
134 186 221
134 186 221
134 186 221
134 186 221
134 186 221
134 186 221
135 186 221
135 186 221
135 187 221
135 187 221
135 187 221
135 187 221
135 187 221
135 187 221
136 187 221
136 187 221
136 187 221
136 187 221
136 187 221
136 187 221
136 187 221
136 187 221
136 187 221
137 188 222
137 188 222
137 188 222
137 188 222
137 188 222
137 188 222
137 188 222
137 188 222
137 188 222
138 188 222
138 188 222
138 188 222
138 188 222
138 188 222
138 188 222
138 188 222
138 189 222
138 189 222
139 189 222
139 189 222
139 189 222
139 189 222
139 189 222
139 189 222
139 189 222
139 189 222
139 189 222
139 189 222
140 189 222
140 189 222
140 189 222
140 189 222
140 189 222
140 190 223
140 190 223
140 190 223
140 190 223
140 190 223
141 190 223
141 190 223
141 190 223
141 190 223
141 190 223
141 190 223
141 190 223
141 190 223
141 190 223
141 190 223
141 190 223
142 190 223
142 190 223
142 191 223
142 191 223
142 191 223
142 191 223
142 191 223
142 191 223
142 191 223
142 191 223
142 191 223
143 191 223
143 191 223
143 191 223
143 191 223
143 191 223
143 191 223
143 191 223
143 191 223
143 191 223
143 191 223
143 191 223
143 191 223
143 191 223
143 191 223
142 191 223
142 191 223
142 191 223
142 191 223
142 191 223
142 191 223
142 191 223
142 191 223
142 190 223
142 190 223
142 190 223
141 190 223
141 190 223
141 190 223
141 190 223
141 190 223
141 190 223
141 190 223
141 190 223
141 190 223
141 190 223
141 190 223
140 190 223
140 190 223
140 190 223
140 190 223
140 190 223
140 189 222
140 189 222
140 189 222
140 189 222
140 189 222
139 189 222
139 189 222
139 189 222
139 189 222
139 189 222
139 189 222
139 189 222
139 189 222
139 189 222
139 189 222
138 189 222
138 189 222
138 188 222
138 188 222
138 188 222
138 188 222
138 188 222
138 188 222
138 188 222
137 188 222
137 188 222
137 188 222
137 188 222
137 188 222
137 188 222
137 188 222
137 188 222
137 188 222
136 187 221
136 187 221
136 187 221
136 187 221
136 187 221
136 187 221
136 187 221
136 187 221
135 187 221
135 187 221
135 187 221
135 187 221
135 187 221
135 187 221
135 187 221
135 186 221
135 186 221
134 186 221
134 186 221
134 186 221
134 186 221
134 186 221
134 186 221
134 186 221
134 186 221
133 186 221
133 186 221
133 186 221
133 186 221
133 185 220
133 185 220
133 185 220
133 185 220
132 185 220
132 185 220
132 185 220
132 185 220
132 185 220
132 185 220
132 185 220
132 185 220
131 185 220
131 184 220
131 184 220
131 184 220
131 184 220
131 184 220
131 184 220
131 184 220
130 184 220
130 184 220
130 184 220
130 184 220
130 184 220
130 184 220
130 184 220
129 183 219
129 183 219
129 183 219
129 183 219
129 183 219
129 183 219
129 183 219
129 183 219
129 183 219
128 183 219
128 183 219
128 183 219
128 183 219
128 183 219
128 183 219
128 182 219
128 182 219
127 182 219
127 182 219
127 182 219
127 182 219
127 182 219
127 182 219
127 182 219
127 182 219
127 182 219
126 182 219
126 182 219
126 182 219
126 182 219
126 182 219
126 181 218
126 181 218
126 181 218
126 181 218
126 181 218
126 181 218
125 181 218
125 181 218
125 181 218
125 181 218
125 181 218
125 181 218
125 181 218
125 181 218
125 181 218
125 181 218
125 181 218
124 180 217
110 159 192
78 115 140
57 87 107
51 80 100
55 83 101
58 87 106
54 83 103
58 85 104
55 84 103
57 85 105
54 83 103
55 83 102
55 84 104
56 85 104
55 83 101
58 85 104
57 85 104
57 85 104
54 82 100
55 83 102
55 83 103
53 83 102
53 81 99
56 84 102
55 85 104
57 85 104
54 83 102
52 82 101
54 81 99
56 84 102
59 86 105
57 84 102
50 79 98
56 85 104
56 83 102
58 86 105
53 81 99
55 84 104
56 83 101
55 83 102
55 83 101
54 82 101
54 83 102
53 84 104
54 83 103
55 84 103
56 84 102
52 81 101
55 85 104
55 86 107
79 118 144
111 161 195
125 181 218
125 181 218
125 181 218
125 181 218
125 181 218
125 181 218
125 181 218
125 181 218
125 181 218
125 181 218
125 181 218
125 181 218
126 181 218
126 181 218
126 181 218
126 181 218
126 181 218
126 182 219
126 182 219
126 182 219
126 182 219
126 182 219
126 182 219
127 182 219
127 182 219
127 182 219
127 182 219
127 182 219
127 182 219
127 182 219
127 182 219
127 182 219
128 182 219
128 182 219
128 183 219
128 183 219
128 183 219
128 183 219
128 183 219
128 183 219
129 183 219
129 183 219
129 183 219
129 183 219
129 183 219
129 183 219
129 183 219
129 183 219
129 183 219
130 184 220
130 184 220
130 184 220
130 184 220
130 184 220
130 184 220
130 184 220
131 184 220
131 184 220
131 184 220
131 184 220
131 184 220
131 184 220
131 184 220
131 185 220
132 185 220
132 185 220
132 185 220
132 185 220
132 185 220
132 185 220
132 185 220
132 185 220
133 185 220
133 185 220
133 185 220
133 185 220
133 186 221
133 186 221
133 186 221
133 186 221
134 186 221
134 186 221
134 186 221
134 186 221
134 186 221
134 186 221
134 186 221
134 186 221
135 186 221
135 186 221
135 187 221
135 187 221
135 187 221
135 187 221
135 187 221
135 187 221
135 187 221
136 187 221
136 187 221
136 187 221
136 187 221
136 187 221
136 187 221
136 187 221
136 187 221
137 188 222
137 188 222
137 188 222
137 188 222
137 188 222
137 188 222
137 188 222
137 188 222
137 188 222
138 188 222
138 188 222
138 188 222
138 188 222
138 188 222
138 188 222
138 188 222
138 189 222
138 189 222
139 189 222
139 189 222
139 189 222
139 189 222
139 189 222
139 189 222
139 189 222
139 189 222
139 189 222
139 189 222
140 189 222
140 189 222
140 189 222
140 189 222
140 189 222
140 190 223
140 190 223
140 190 223
140 190 223
140 190 223
141 190 223
141 190 223
141 190 223
141 190 223
141 190 223
141 190 223
141 190 223
141 190 223
141 190 223
141 190 223
141 190 223
142 190 223
142 190 223
142 191 223
142 191 223
142 191 223
142 191 223
142 191 223
142 191 223
142 191 223
142 191 223
142 191 223
143 191 223
143 191 223
143 191 223
143 191 223
143 191 223
143 191 223
143 191 223
143 191 223
143 191 223
144 192 224
143 191 223
143 191 223
143 191 223
143 191 223
143 191 223
143 191 223
143 191 223
143 191 223
143 191 223
143 191 223
143 191 223
143 191 223
142 191 223
142 191 223
142 191 223
142 191 223
142 191 223
142 191 223
142 191 223
142 191 223
142 191 223
142 190 223
142 190 223
141 190 223
141 190 223
141 190 223
141 190 223
141 190 223
141 190 223
141 190 223
141 190 223
141 190 223
141 190 223
141 190 223
140 190 223
140 190 223
140 190 223
140 190 223
140 190 223
140 189 222
140 189 222
140 189 222
140 189 222
140 189 222
139 189 222
139 189 222
139 189 222
139 189 222
139 189 222
139 189 222
139 189 222
139 189 222
139 189 222
139 189 222
138 189 222
138 189 222
138 188 222
138 188 222
138 188 222
138 188 222
138 188 222
138 188 222
138 188 222
137 188 222
137 188 222
137 188 222
137 188 222
137 188 222
137 188 222
137 188 222
137 188 222
137 188 222
136 187 221
136 187 221
136 187 221
136 187 221
136 187 221
136 187 221
136 187 221
136 187 221
135 187 221
135 187 221
135 187 221
135 187 221
135 187 221
135 187 221
135 187 221
135 186 221
135 186 221
134 186 221
134 186 221
134 186 221
134 186 221
134 186 221
134 186 221
134 186 221
134 186 221
133 186 221
133 186 221
133 186 221
133 186 221
133 185 220
133 185 220
133 185 220
133 185 220
132 185 220
132 185 220
132 185 220
132 185 220
132 185 220
132 185 220
132 185 220
131 185 220
131 185 220
131 185 220
131 184 220
131 184 220
131 184 220
131 184 220
131 184 220
131 184 220
130 184 220
130 184 220
130 184 220
130 184 220
130 184 220
130 184 220
130 184 220
130 184 220
129 183 219
129 183 219
129 183 219
129 183 219
129 183 219
129 183 219
129 183 219
129 183 219
128 183 219
128 183 219
128 183 219
128 183 219
128 183 219
128 183 219
128 183 219
128 182 219
128 182 219
127 182 219
127 182 219
127 182 219
127 182 219
127 182 219
127 182 219
127 182 219
127 182 219
127 182 219
127 182 219
126 182 219
126 182 219
126 182 219
126 182 219
126 182 219
126 182 219
126 181 218
126 181 218
126 181 218
126 181 218
126 181 218
125 181 218
125 181 218
125 181 218
124 179 216
94 139 169
75 110 134
53 83 103
54 84 103
54 82 101
57 86 106
53 80 98
55 84 104
53 82 101
54 83 103
56 84 103
57 85 104
56 83 102
54 82 101
53 80 98
56 85 104
55 82 101
55 83 102
54 82 100
54 80 98
55 83 101
54 83 103
55 82 100
52 81 100
55 83 103
57 85 104
55 83 103
52 80 99
53 81 100
53 82 101
53 82 101
53 81 100
55 83 102
56 83 101
54 82 100
55 84 103
57 84 102
54 82 100
52 79 97
52 80 98
56 85 104
55 82 101
55 84 103
57 85 104
52 80 98
54 81 99
55 84 103
55 83 101
54 82 100
56 84 103
55 83 102
54 84 103
56 83 102
55 84 104
74 111 135
104 152 183
125 181 218
125 181 218
125 181 218
126 181 218
126 181 218
126 181 218
126 181 218
126 181 218
126 181 218
126 181 218
126 182 219
126 182 219
126 182 219
126 182 219
126 182 219
127 182 219
127 182 219
127 182 219
127 182 219
127 182 219
127 182 219
127 182 219
127 182 219
127 182 219
127 182 219
128 182 219
128 182 219
128 183 219
128 183 219
128 183 219
128 183 219
128 183 219
128 183 219
128 183 219
129 183 219
129 183 219
129 183 219
129 183 219
129 183 219
129 183 219
129 183 219
129 183 219
130 184 220
130 184 220
130 184 220
130 184 220
130 184 220
130 184 220
130 184 220
130 184 220
131 184 220
131 184 220
131 184 220
131 184 220
131 184 220
131 184 220
131 184 220
131 185 220
131 185 220
132 185 220
132 185 220
132 185 220
132 185 220
132 185 220
132 185 220
132 185 220
133 185 220
133 185 220
133 185 220
133 185 220
133 186 221
133 186 221
133 186 221
133 186 221
134 186 221
134 186 221
134 186 221
134 186 221
134 186 221
134 186 221
134 186 221
134 186 221
134 186 221
135 186 221
135 187 221
135 187 221
135 187 221
135 187 221
135 187 221
135 187 221
135 187 221
136 187 221
136 187 221
136 187 221
136 187 221
136 187 221
136 187 221
136 187 221
136 187 221
137 188 222
137 188 222
137 188 222
137 188 222
137 188 222
137 188 222
137 188 222
137 188 222
137 188 222
138 188 222
138 188 222
138 188 222
138 188 222
138 188 222
138 188 222
138 188 222
138 189 222
138 189 222
139 189 222
139 189 222
139 189 222
139 189 222
139 189 222
139 189 222
139 189 222
139 189 222
139 189 222
139 189 222
140 189 222
140 189 222
140 189 222
140 189 222
140 189 222
140 190 223
140 190 223
140 190 223
140 190 223
140 190 223
141 190 223
141 190 223
141 190 223
141 190 223
141 190 223
141 190 223
141 190 223
141 190 223
141 190 223
141 190 223
141 190 223
142 190 223
142 190 223
142 191 223
142 191 223
142 191 223
142 191 223
142 191 223
142 191 223
142 191 223
142 191 223
142 191 223
143 191 223
143 191 223
143 191 223
143 191 223
143 191 223
143 191 223
143 191 223
143 191 223
143 191 223
143 191 223
143 191 223
143 191 223
144 192 224
144 192 224
144 192 224
144 192 224
144 192 224
144 192 224
144 192 224
143 191 223
143 191 223
143 191 223
143 191 223
143 191 223
143 191 223
143 191 223
143 191 223
143 191 223
143 191 223
143 191 223
143 191 223
142 191 223
142 191 223
142 191 223
142 191 223
142 191 223
142 191 223
142 191 223
142 191 223
142 190 223
142 190 223
142 190 223
141 190 223
141 190 223
141 190 223
141 190 223
141 190 223
141 190 223
141 190 223
141 190 223
141 190 223
141 190 223
140 190 223
140 190 223
140 190 223
140 190 223
140 190 223
140 189 222
140 189 222
140 189 222
140 189 222
140 189 222
139 189 222
139 189 222
139 189 222
139 189 222
139 189 222
139 189 222
139 189 222
139 189 222
139 189 222
139 189 222
138 189 222
138 189 222
138 188 222
138 188 222
138 188 222
138 188 222
138 188 222
138 188 222
138 188 222
137 188 222
137 188 222
137 188 222
137 188 222
137 188 222
137 188 222
137 188 222
137 188 222
137 188 222
136 187 221
136 187 221
136 187 221
136 187 221
136 187 221
136 187 221
136 187 221
136 187 221
135 187 221
135 187 221
135 187 221
135 187 221
135 187 221
135 187 221
135 186 221
135 186 221
134 186 221
134 186 221
134 186 221
134 186 221
134 186 221
134 186 221
134 186 221
134 186 221
133 186 221
133 186 221
133 186 221
133 186 221
133 185 220
133 185 220
133 185 220
133 185 220
133 185 220
132 185 220
132 185 220
132 185 220
132 185 220
132 185 220
132 185 220
132 185 220
131 185 220
131 185 220
131 185 220
131 184 220
131 184 220
131 184 220
131 184 220
131 184 220
131 184 220
130 184 220
130 184 220
130 184 220
130 184 220
130 184 220
130 184 220
130 184 220
130 184 220
129 183 219
129 183 219
129 183 219
129 183 219
129 183 219
129 183 219
129 183 219
129 183 219
129 183 219
128 183 219
128 183 219
128 183 219
128 183 219
128 183 219
128 183 219
128 183 219
128 182 219
128 182 219
127 182 219
127 182 219
127 182 219
127 182 219
127 182 219
127 182 219
127 182 219
127 182 219
127 182 219
127 182 219
127 182 219
126 182 219
126 182 219
126 182 219
126 182 219
126 182 219
126 182 219
124 179 216
94 139 168
65 98 119
55 83 102
54 82 100
54 83 103
52 80 98
55 83 102
54 83 102
55 82 100
57 84 102
56 83 102
54 82 101
55 83 102
55 83 102
54 82 101
56 84 103
55 84 103
58 84 102
54 82 101
56 84 102
54 83 102
55 82 101
54 82 100
54 83 102
54 82 100
53 80 97
55 83 102
58 85 103
51 80 99
56 84 102
53 80 99
55 83 102
57 84 102
54 82 100
53 81 99
55 83 102
54 81 100
53 81 100
54 82 101
57 85 104
55 83 101
59 87 105
55 83 101
54 83 103
54 83 102
56 84 103
56 84 103
53 81 100
57 84 103
55 83 101
55 83 101
53 81 99
57 86 105
55 84 103
55 83 101
59 86 104
54 83 102
52 80 99
65 99 122
100 145 175
125 181 217
126 182 219
126 182 219
126 182 219
126 182 219
126 182 219
126 182 219
127 182 219
127 182 219
127 182 219
127 182 219
127 182 219
127 182 219
127 182 219
127 182 219
127 182 219
127 182 219
127 182 219
128 182 219
128 182 219
128 182 219
128 183 219
128 183 219
128 183 219
128 183 219
128 183 219
128 183 219
129 183 219
129 183 219
129 183 219
129 183 219
129 183 219
129 183 219
129 183 219
129 183 219
129 183 219
130 184 220
130 184 220
130 184 220
130 184 220
130 184 220
130 184 220
130 184 220
130 184 220
131 184 220
131 184 220
131 184 220
131 184 220
131 184 220
131 184 220
131 185 220
131 185 220
132 185 220
132 185 220
132 185 220
132 185 220
132 185 220
132 185 220
132 185 220
132 185 220
132 185 220
133 185 220
133 185 220
133 185 220
133 186 221
133 186 221
133 186 221
133 186 221
133 186 221
134 186 221
134 186 221
134 186 221
134 186 221
134 186 221
134 186 221
134 186 221
134 186 221
135 186 221
135 186 221
135 187 221
135 187 221
135 187 221
135 187 221
135 187 221
135 187 221
136 187 221
136 187 221
136 187 221
136 187 221
136 187 221
136 187 221
136 187 221
136 187 221
137 188 222
137 188 222
137 188 222
137 188 222
137 188 222
137 188 222
137 188 222
137 188 222
137 188 222
138 188 222
138 188 222
138 188 222
138 188 222
138 188 222
138 188 222
138 188 222
138 189 222
138 189 222
139 189 222
139 189 222
139 189 222
139 189 222
139 189 222
139 189 222
139 189 222
139 189 222
139 189 222
139 189 222
140 189 222
140 189 222
140 189 222
140 189 222
140 189 222
140 190 223
140 190 223
140 190 223
140 190 223
140 190 223
141 190 223
141 190 223
141 190 223
141 190 223
141 190 223
141 190 223
141 190 223
141 190 223
141 190 223
141 190 223
142 190 223
142 190 223
142 190 223
142 191 223
142 191 223
142 191 223
142 191 223
142 191 223
142 191 223
142 191 223
142 191 223
143 191 223
143 191 223
143 191 223
143 191 223
143 191 223
143 191 223
143 191 223
143 191 223
143 191 223
143 191 223
143 191 223
143 191 223
144 192 224
144 192 224
144 192 224
144 192 224
144 192 224
144 192 224
144 192 224
144 192 224
144 192 224
144 192 224
144 192 224
144 192 224
144 192 224
144 192 224
144 192 224
144 192 224
143 191 223
143 191 223
143 191 223
143 191 223
143 191 223
143 191 223
143 191 223
143 191 223
143 191 223
143 191 223
143 191 223
143 191 223
142 191 223
142 191 223
142 191 223
142 191 223
142 191 223
142 191 223
142 191 223
142 191 223
142 190 223
142 190 223
142 190 223
141 190 223
141 190 223
141 190 223
141 190 223
141 190 223
141 190 223
141 190 223
141 190 223
141 190 223
141 190 223
140 190 223
140 190 223
140 190 223
140 190 223
140 190 223
140 190 223
140 189 222
140 189 222
140 189 222
140 189 222
139 189 222
139 189 222
139 189 222
139 189 222
139 189 222
139 189 222
139 189 222
139 189 222
139 189 222
139 189 222
138 189 222
138 189 222
138 188 222
138 188 222
138 188 222
138 188 222
138 188 222
138 188 222
138 188 222
137 188 222
137 188 222
137 188 222
137 188 222
137 188 222
137 188 222
137 188 222
137 188 222
136 187 221
136 187 221
136 187 221
136 187 221
136 187 221
136 187 221
136 187 221
136 187 221
136 187 221
135 187 221
135 187 221
135 187 221
135 187 221
135 187 221
135 187 221
135 186 221
135 186 221
134 186 221
134 186 221
134 186 221
134 186 221
134 186 221
134 186 221
134 186 221
134 186 221
134 186 221
133 186 221
133 186 221
133 186 221
133 185 220
133 185 220
133 185 220
133 185 220
132 185 220
132 185 220
132 185 220
132 185 220
132 185 220
132 185 220
132 185 220
132 185 220
132 185 220
131 185 220
131 185 220
131 184 220
131 184 220
131 184 220
131 184 220
131 184 220
131 184 220
130 184 220
130 184 220
130 184 220
130 184 220
130 184 220
130 184 220
130 184 220
130 184 220
130 184 220
129 183 219
129 183 219
129 183 219
129 183 219
129 183 219
129 183 219
129 183 219
129 183 219
129 183 219
128 183 219
128 183 219
128 183 219
128 183 219
128 183 219
128 183 219
128 183 219
128 182 219
128 182 219
128 182 219
127 182 219
127 182 219
127 182 219
127 182 219
127 182 219
127 182 219
127 182 219
127 182 219
127 182 219
127 182 219
106 154 185
68 102 125
53 81 100
57 85 104
58 84 102
53 80 98
54 83 102
57 83 101
51 79 98
56 83 102
53 81 99
56 85 104
55 83 102
55 83 103
54 82 101
55 83 102
58 85 104
52 80 98
55 82 100
54 82 100
58 85 104
54 80 98
57 84 102
58 86 104
54 80 97
56 83 100
56 83 102
54 82 100
53 81 100
54 83 102
55 84 103
54 81 100
55 81 99
54 82 101
53 81 100
54 81 99
55 82 100
54 84 103
55 83 102
56 84 103
55 82 99
56 83 102
56 84 102
58 85 102
54 81 98
53 81 99
55 83 102
56 83 102
54 82 100
58 84 102
56 84 103
54 81 100
54 82 101
57 85 103
53 81 99
54 83 103
54 81 99
55 83 102
54 82 101
55 84 103
58 87 106
59 86 104
73 108 132
104 151 183
127 182 219
127 182 219
127 182 219
127 182 219
127 182 219
127 182 219
127 182 219
127 182 219
127 182 219
127 182 219
128 182 219
128 182 219
128 182 219
128 183 219
128 183 219
128 183 219
128 183 219
128 183 219
128 183 219
128 183 219
129 183 219
129 183 219
129 183 219
129 183 219
129 183 219
129 183 219
129 183 219
129 183 219
129 183 219
130 184 220
130 184 220
130 184 220
130 184 220
130 184 220
130 184 220
130 184 220
130 184 220
130 184 220
131 184 220
131 184 220
131 184 220
131 184 220
131 184 220
131 184 220
131 185 220
131 185 220
132 185 220
132 185 220
132 185 220
132 185 220
132 185 220
132 185 220
132 185 220
132 185 220
133 185 220
133 185 220
133 185 220
133 185 220
133 185 220
133 186 221
133 186 221
133 186 221
134 186 221
134 186 221
134 186 221
134 186 221
134 186 221
134 186 221
134 186 221
134 186 221
134 186 221
135 186 221
135 186 221
135 187 221
135 187 221
135 187 221
135 187 221
135 187 221
135 187 221
136 187 221
136 187 221
136 187 221
136 187 221
136 187 221
136 187 221
136 187 221
136 187 221
136 187 221
137 188 222
137 188 222
137 188 222
137 188 222
137 188 222
137 188 222
137 188 222
137 188 222
138 188 222
138 188 222
138 188 222
138 188 222
138 188 222
138 188 222
138 188 222
138 189 222
138 189 222
139 189 222
139 189 222
139 189 222
139 189 222
139 189 222
139 189 222
139 189 222
139 189 222
139 189 222
139 189 222
140 189 222
140 189 222
140 189 222
140 189 222
140 189 222
140 190 223
140 190 223
140 190 223
140 190 223
140 190 223
141 190 223
141 190 223
141 190 223
141 190 223
141 190 223
141 190 223
141 190 223
141 190 223
141 190 223
141 190 223
142 190 223
142 190 223
142 190 223
142 191 223
142 191 223
142 191 223
142 191 223
142 191 223
142 191 223
142 191 223
142 191 223
143 191 223
143 191 223
143 191 223
143 191 223
143 191 223
143 191 223
143 191 223
143 191 223
143 191 223
143 191 223
143 191 223
143 191 223
144 192 224
144 192 224
144 192 224
144 192 224
144 192 224
144 192 224
144 192 224
144 192 224
144 192 224
144 192 224
145 192 224
145 192 224
144 192 224
144 192 224
144 192 224
144 192 224
144 192 224
144 192 224
144 192 224
144 192 224
144 192 224
144 192 224
144 192 224
144 192 224
144 192 224
143 191 223
143 191 223
143 191 223
143 191 223
143 191 223
143 191 223
143 191 223
143 191 223
143 191 223
143 191 223
143 191 223
142 191 223
142 191 223
142 191 223
142 191 223
142 191 223
142 191 223
142 191 223
142 191 223
142 191 223
142 190 223
142 190 223
141 190 223
141 190 223
141 190 223
141 190 223
141 190 223
141 190 223
141 190 223
141 190 223
141 190 223
141 190 223
141 190 223
140 190 223
140 190 223
140 190 223
140 190 223
140 189 222
140 189 222
140 189 222
140 189 222
140 189 222
139 189 222
139 189 222
139 189 222
139 189 222
139 189 222
139 189 222
139 189 222
139 189 222
139 189 222
139 189 222
138 189 222
138 189 222
138 188 222
138 188 222
138 188 222
138 188 222
138 188 222
138 188 222
138 188 222
137 188 222
137 188 222
137 188 222
137 188 222
137 188 222
137 188 222
137 188 222
137 188 222
137 188 222
136 187 221
136 187 221
136 187 221
136 187 221
136 187 221
136 187 221
136 187 221
136 187 221
135 187 221
135 187 221
135 187 221
135 187 221
135 187 221
135 187 221
135 186 221
135 186 221
134 186 221
134 186 221
134 186 221
134 186 221
134 186 221
134 186 221
134 186 221
134 186 221
133 186 221
133 186 221
133 186 221
133 186 221
133 185 220
133 185 220
133 185 220
133 185 220
133 185 220
132 185 220
132 185 220
132 185 220
132 185 220
132 185 220
132 185 220
132 185 220
132 185 220
131 185 220
131 185 220
131 184 220
131 184 220
131 184 220
131 184 220
131 184 220
131 184 220
130 184 220
130 184 220
130 184 220
130 184 220
130 184 220
130 184 220
130 184 220
130 184 220
130 184 220
129 183 219
129 183 219
129 183 219
129 183 219
129 183 219
129 183 219
129 183 219
129 183 219
129 183 219
129 183 219
128 183 219
128 183 219
128 183 219
128 183 219
128 183 219
128 183 219
128 183 219
128 183 219
128 182 219
128 182 219
128 182 219
127 182 219
127 182 219
113 163 196
76 112 136
60 88 107
55 82 100
53 80 99
55 81 99
54 82 101
57 85 104
54 82 101
57 84 102
56 84 102
57 85 103
58 86 104
54 81 99
51 78 96
55 83 101
56 84 102
57 85 104
55 82 100
55 84 103
54 81 99
55 83 101
54 81 99
53 80 98
56 82 99
57 84 102
56 83 101
56 83 101
56 85 104
57 84 102
54 82 101
55 82 100
57 84 103
56 83 101
58 85 104
52 78 96
54 82 100
52 78 95
56 83 101
57 83 101
57 84 102
52 80 99
55 82 100
51 78 97
53 81 100
54 81 99
53 81 99
58 84 101
59 85 103
55 83 101
52 80 98
57 84 102
56 83 101
50 77 95
55 83 102
53 81 99
57 84 102
53 79 97
57 85 103
55 83 102
54 81 99
51 79 98
54 82 100
58 86 105
56 84 103
57 85 103
70 103 125
117 168 202
127 182 219
127 182 219
128 182 219
128 182 219
128 182 219
128 183 219
128 183 219
128 183 219
128 183 219
128 183 219
128 183 219
128 183 219
128 183 219
129 183 219
129 183 219
129 183 219
129 183 219
129 183 219
129 183 219
129 183 219
129 183 219
129 183 219
129 183 219
130 184 220
130 184 220
130 184 220
130 184 220
130 184 220
130 184 220
130 184 220
130 184 220
130 184 220
131 184 220
131 184 220
131 184 220
131 184 220
131 184 220
131 184 220
131 185 220
131 185 220
132 185 220
132 185 220
132 185 220
132 185 220
132 185 220
132 185 220
132 185 220
132 185 220
133 185 220
133 185 220
133 185 220
133 185 220
133 186 221
133 186 221
133 186 221
133 186 221
133 186 221
134 186 221
134 186 221
134 186 221
134 186 221
134 186 221
134 186 221
134 186 221
134 186 221
135 186 221
135 186 221
135 187 221
135 187 221
135 187 221
135 187 221
135 187 221
135 187 221
136 187 221
136 187 221
136 187 221
136 187 221
136 187 221
136 187 221
136 187 221
136 187 221
136 187 221
137 188 222
137 188 222
137 188 222
137 188 222
137 188 222
137 188 222
137 188 222
137 188 222
138 188 222
138 188 222
138 188 222
138 188 222
138 188 222
138 188 222
138 188 222
138 189 222
138 189 222
139 189 222
139 189 222
139 189 222
139 189 222
139 189 222
139 189 222
139 189 222
139 189 222
139 189 222
140 189 222
140 189 222
140 189 222
140 189 222
140 189 222
140 190 223
140 190 223
140 190 223
140 190 223
140 190 223
140 190 223
141 190 223
141 190 223
141 190 223
141 190 223
141 190 223
141 190 223
141 190 223
141 190 223
141 190 223
141 190 223
142 190 223
142 190 223
142 190 223
142 191 223
142 191 223
142 191 223
142 191 223
142 191 223
142 191 223
142 191 223
142 191 223
143 191 223
143 191 223
143 191 223
143 191 223
143 191 223
143 191 223
143 191 223
143 191 223
143 191 223
143 191 223
143 191 223
143 191 223
144 192 224
144 192 224
144 192 224
144 192 224
144 192 224
144 192 224
144 192 224
144 192 224
144 192 224
144 192 224
144 192 224
144 192 224
145 192 224
145 192 224
145 192 224
145 192 224
145 192 224
145 192 224
145 192 224
145 192 224
145 192 224
144 192 224
144 192 224
144 192 224
144 192 224
144 192 224
144 192 224
144 192 224
144 192 224
144 192 224
144 192 224
144 192 224
144 192 224
143 191 223
143 191 223
143 191 223
143 191 223
143 191 223
143 191 223
143 191 223
143 191 223
143 191 223
143 191 223
143 191 223
143 191 223
142 191 223
142 191 223
142 191 223
142 191 223
142 191 223
142 191 223
142 191 223
142 191 223
142 190 223
142 190 223
141 190 223
141 190 223
141 190 223
141 190 223
141 190 223
141 190 223
141 190 223
141 190 223
141 190 223
141 190 223
141 190 223
140 190 223
140 190 223
140 190 223
140 190 223
140 190 223
140 189 222
140 189 222
140 189 222
140 189 222
140 189 222
139 189 222
139 189 222
139 189 222
139 189 222
139 189 222
139 189 222
139 189 222
139 189 222
139 189 222
138 189 222
138 189 222
138 188 222
138 188 222
138 188 222
138 188 222
138 188 222
138 188 222
138 188 222
137 188 222
137 188 222
137 188 222
137 188 222
137 188 222
137 188 222
137 188 222
137 188 222
136 187 221
136 187 221
136 187 221
136 187 221
136 187 221
136 187 221
136 187 221
136 187 221
136 187 221
135 187 221
135 187 221
135 187 221
135 187 221
135 187 221
135 187 221
135 186 221
135 186 221
134 186 221
134 186 221
134 186 221
134 186 221
134 186 221
134 186 221
134 186 221
134 186 221
134 186 221
133 186 221
133 186 221
133 186 221
133 186 221
133 185 220
133 185 220
133 185 220
133 185 220
132 185 220
132 185 220
132 185 220
132 185 220
132 185 220
132 185 220
132 185 220
132 185 220
131 185 220
131 185 220
131 184 220
131 184 220
131 184 220
131 184 220
131 184 220
131 184 220
131 184 220
130 184 220
130 184 220
130 184 220
130 184 220
130 184 220
130 184 220
130 184 220
130 184 220
130 184 220
130 184 220
129 183 219
129 183 219
129 183 219
129 183 219
129 183 219
129 183 219
129 183 219
129 183 219
129 183 219
129 183 219
128 183 219
128 183 219
128 183 219
128 183 219
128 183 219
125 179 215
91 133 160
59 88 108
55 83 102
53 83 103
53 81 100
59 86 104
57 83 101
55 84 103
55 83 101
55 81 99
55 83 101
54 81 100
56 84 102
56 84 102
57 83 101
56 83 102
53 81 100
56 84 103
58 84 102
58 83 100
55 84 103
54 80 98
52 79 97
51 79 98
54 81 100
56 83 101
56 83 100
53 80 98
56 83 101
57 84 102
56 82 100
53 81 100
53 81 99
56 85 104
55 82 101
55 82 100
53 81 100
54 82 100
54 81 98
53 80 98
54 81 100
53 81 99
53 81 99
58 85 103
54 82 101
56 84 103
57 83 101
53 82 101
52 81 100
55 83 101
57 85 103
52 80 99
59 85 103
52 79 98
52 79 97
54 81 99
55 83 101
58 86 105
55 82 100
56 83 100
55 82 100
55 83 102
50 79 99
56 83 101
53 82 101
58 86 104
53 81 100
56 84 103
53 83 103
84 123 149
126 180 216
128 183 219
128 183 219
128 183 219
128 183 219
128 183 219
129 183 219
129 183 219
129 183 219
129 183 219
129 183 219
129 183 219
129 183 219
129 183 219
129 183 219
129 183 219
129 183 219
130 184 220
130 184 220
130 184 220
130 184 220
130 184 220
130 184 220
130 184 220
130 184 220
130 184 220
131 184 220
131 184 220
131 184 220
131 184 220
131 184 220
131 184 220
131 185 220
131 185 220
131 185 220
132 185 220
132 185 220
132 185 220
132 185 220
132 185 220
132 185 220
132 185 220
132 185 220
133 185 220
133 185 220
133 185 220
133 185 220
133 186 221
133 186 221
133 186 221
133 186 221
134 186 221
134 186 221
134 186 221
134 186 221
134 186 221
134 186 221
134 186 221
134 186 221
134 186 221
135 186 221
135 186 221
135 187 221
135 187 221
135 187 221
135 187 221
135 187 221
135 187 221
136 187 221
136 187 221
136 187 221
136 187 221
136 187 221
136 187 221
136 187 221
136 187 221
137 188 222
137 188 222
137 188 222
137 188 222
137 188 222
137 188 222
137 188 222
137 188 222
137 188 222
138 188 222
138 188 222
138 188 222
138 188 222
138 188 222
138 188 222
138 188 222
138 189 222
138 189 222
139 189 222
139 189 222
139 189 222
139 189 222
139 189 222
139 189 222
139 189 222
139 189 222
139 189 222
140 189 222
140 189 222
140 189 222
140 189 222
140 189 222
140 190 223
140 190 223
140 190 223
140 190 223
140 190 223
141 190 223
141 190 223
141 190 223
141 190 223
141 190 223
141 190 223
141 190 223
141 190 223
141 190 223
141 190 223
142 190 223
142 190 223
142 190 223
142 191 223
142 191 223
142 191 223
142 191 223
142 191 223
142 191 223
142 191 223
142 191 223
143 191 223
143 191 223
143 191 223
143 191 223
143 191 223
143 191 223
143 191 223
143 191 223
143 191 223
143 191 223
143 191 223
143 191 223
144 192 224
144 192 224
144 192 224
144 192 224
144 192 224
144 192 224
144 192 224
144 192 224
144 192 224
144 192 224
144 192 224
144 192 224
145 192 224
145 192 224
145 192 224
145 192 224
145 192 224
145 192 224
145 192 224
145 193 224
145 193 224
145 192 224
145 192 224
145 192 224
145 192 224
145 192 224
145 192 224
145 192 224
145 192 224
145 192 224
144 192 224
144 192 224
144 192 224
144 192 224
144 192 224
144 192 224
144 192 224
144 192 224
144 192 224
144 192 224
144 192 224
144 192 224
144 192 224
143 191 223
143 191 223
143 191 223
143 191 223
143 191 223
143 191 223
143 191 223
143 191 223
143 191 223
143 191 223
143 191 223
142 191 223
142 191 223
142 191 223
142 191 223
142 191 223
142 191 223
142 191 223
142 191 223
142 190 223
142 190 223
142 190 223
141 190 223
141 190 223
141 190 223
141 190 223
141 190 223
141 190 223
141 190 223
141 190 223
141 190 223
141 190 223
140 190 223
140 190 223
140 190 223
140 190 223
140 190 223
140 189 222
140 189 222
140 189 222
140 189 222
140 189 222
139 189 222
139 189 222
139 189 222
139 189 222
139 189 222
139 189 222
139 189 222
139 189 222
139 189 222
138 189 222
138 189 222
138 188 222
138 188 222
138 188 222
138 188 222
138 188 222
138 188 222
138 188 222
137 188 222
137 188 222
137 188 222
137 188 222
137 188 222
137 188 222
137 188 222
137 188 222
137 188 222
136 187 221
136 187 221
136 187 221
136 187 221
136 187 221
136 187 221
136 187 221
136 187 221
135 187 221
135 187 221
135 187 221
135 187 221
135 187 221
135 187 221
135 186 221
135 186 221
135 186 221
134 186 221
134 186 221
134 186 221
134 186 221
134 186 221
134 186 221
134 186 221
134 186 221
133 186 221
133 186 221
133 186 221
133 186 221
133 185 220
133 185 220
133 185 220
133 185 220
132 185 220
132 185 220
132 185 220
132 185 220
132 185 220
132 185 220
132 185 220
132 185 220
132 185 220
131 185 220
131 185 220
131 184 220
131 184 220
131 184 220
131 184 220
131 184 220
131 184 220
131 184 220
130 184 220
130 184 220
130 184 220
130 184 220
130 184 220
130 184 220
130 184 220
130 184 220
130 184 220
130 184 220
129 183 219
129 183 219
129 183 219
129 183 219
129 183 219
129 183 219
129 183 219
129 183 219
129 183 219
116 167 201
69 104 127
55 84 103
55 84 103
57 84 102
53 82 101
53 81 100
54 82 100
55 82 100
52 80 99
56 83 101
58 84 102
53 81 100
57 84 103
56 82 100
53 79 97
58 86 104
52 78 96
54 80 97
55 82 101
52 79 97
54 81 99
55 81 98
54 82 100
51 79 97
56 82 99
58 84 102
53 79 96
55 83 101
53 81 99
54 81 99
53 79 97
54 82 100
53 79 97
53 80 97
55 82 100
56 83 101
53 80 99
57 85 104
51 79 97
55 83 101
58 84 102
55 81 99
57 86 105
51 79 97
56 84 102
54 82 100
53 81 99
53 79 96
53 80 98
53 81 99
55 82 100
59 86 103
54 80 98
54 81 99
58 86 105
54 81 100
55 83 101
55 82 99
53 80 97
53 81 99
57 83 100
57 84 103
54 81 100
54 82 101
55 83 101
57 84 102
53 80 99
55 82 100
52 80 98
56 83 101
57 84 102
59 91 112
105 152 183
129 183 219
129 183 219
129 183 219
129 183 219
129 183 219
129 183 219
129 183 219
129 183 219
129 183 219
130 184 220
130 184 220
130 184 220
130 184 220
130 184 220
130 184 220
130 184 220
130 184 220
130 184 220
130 184 220
131 184 220
131 184 220
131 184 220
131 184 220
131 184 220
131 184 220
131 184 220
131 185 220
131 185 220
132 185 220
132 185 220
132 185 220
132 185 220
132 185 220
132 185 220
132 185 220
132 185 220
132 185 220
133 185 220
133 185 220
133 185 220
133 185 220
133 186 221
133 186 221
133 186 221
133 186 221
134 186 221
134 186 221
134 186 221
134 186 221
134 186 221
134 186 221
134 186 221
134 186 221
135 186 221
135 186 221
135 187 221
135 187 221
135 187 221
135 187 221
135 187 221
135 187 221
135 187 221
136 187 221
136 187 221
136 187 221
136 187 221
136 187 221
136 187 221
136 187 221
136 187 221
137 188 222
137 188 222
137 188 222
137 188 222
137 188 222
137 188 222
137 188 222
137 188 222
137 188 222
138 188 222
138 188 222
138 188 222
138 188 222
138 188 222
138 188 222
138 188 222
138 189 222
138 189 222
139 189 222
139 189 222
139 189 222
139 189 222
139 189 222
139 189 222
139 189 222
139 189 222
139 189 222
140 189 222
140 189 222
140 189 222
140 189 222
140 189 222
140 190 223
140 190 223
140 190 223
140 190 223
140 190 223
141 190 223
141 190 223
141 190 223
141 190 223
141 190 223
141 190 223
141 190 223
141 190 223
141 190 223
141 190 223
142 190 223
142 190 223
142 190 223
142 191 223
142 191 223
142 191 223
142 191 223
142 191 223
142 191 223
142 191 223
142 191 223
143 191 223
143 191 223
143 191 223
143 191 223
143 191 223
143 191 223
143 191 223
143 191 223
143 191 223
143 191 223
143 191 223
144 192 224
144 192 224
144 192 224
144 192 224
144 192 224
144 192 224
144 192 224
144 192 224
144 192 224
144 192 224
144 192 224
144 192 224
144 192 224
145 192 224
145 192 224
145 192 224
145 192 224
145 192 224
145 192 224
145 192 224
145 192 224
145 192 224
145 193 224
145 193 224
146 193 224
146 193 224
146 193 224
145 193 224
145 193 224
145 193 224
145 192 224
145 192 224
145 192 224
145 192 224
145 192 224
145 192 224
145 192 224
145 192 224
145 192 224
145 192 224
144 192 224
144 192 224
144 192 224
144 192 224
144 192 224
144 192 224
144 192 224
144 192 224
144 192 224
144 192 224
144 192 224
144 192 224
144 192 224
143 191 223
143 191 223
143 191 223
143 191 223
143 191 223
143 191 223
143 191 223
143 191 223
143 191 223
143 191 223
143 191 223
142 191 223
142 191 223
142 191 223
142 191 223
142 191 223
142 191 223
142 191 223
142 191 223
142 190 223
142 190 223
141 190 223
141 190 223
141 190 223
141 190 223
141 190 223
141 190 223
141 190 223
141 190 223
141 190 223
141 190 223
141 190 223
140 190 223
140 190 223
140 190 223
140 190 223
140 189 222
140 189 222
140 189 222
140 189 222
140 189 222
139 189 222
139 189 222
139 189 222
139 189 222
139 189 222
139 189 222
139 189 222
139 189 222
139 189 222
138 189 222
138 189 222
138 188 222
138 188 222
138 188 222
138 188 222
138 188 222
138 188 222
138 188 222
137 188 222
137 188 222
137 188 222
137 188 222
137 188 222
137 188 222
137 188 222
137 188 222
137 188 222
136 187 221
136 187 221
136 187 221
136 187 221
136 187 221
136 187 221
136 187 221
136 187 221
135 187 221
135 187 221
135 187 221
135 187 221
135 187 221
135 187 221
135 187 221
135 186 221
135 186 221
134 186 221
134 186 221
134 186 221
134 186 221
134 186 221
134 186 221
134 186 221
134 186 221
133 186 221
133 186 221
133 186 221
133 186 221
133 186 221
133 185 220
133 185 220
133 185 220
133 185 220
132 185 220
132 185 220
132 185 220
132 185 220
132 185 220
132 185 220
132 185 220
132 185 220
132 185 220
131 185 220
131 185 220
131 185 220
131 184 220
131 184 220
131 184 220
131 184 220
131 184 220
131 184 220
131 184 220
130 184 220
130 184 220
130 184 220
130 184 220
130 184 220
130 184 220
130 184 220
130 184 220
130 184 220
130 184 220
130 184 220
128 182 217
96 138 166
59 87 106
53 83 103
54 82 101
56 83 101
53 79 97
54 83 103
55 83 102
54 81 100
55 82 99
53 81 99
55 82 100
55 83 102
57 84 101
54 81 98
55 83 101
58 85 104
55 83 101
54 83 101
54 80 97
55 81 99
57 84 102
56 83 101
55 82 101
56 84 102
51 77 94
57 83 100
56 82 99
53 80 98
56 83 101
54 81 99
56 83 102
57 84 101
58 84 101
55 82 99
55 81 98
54 81 99
55 80 97
55 82 100
56 83 101
53 80 98
57 84 102
52 80 98
57 83 101
55 83 102
56 82 100
55 82 99
55 82 100
55 82 100
54 82 101
54 82 100
53 79 97
53 79 96
53 80 98
56 82 99
56 83 101
56 82 100
54 81 98
58 86 104
58 83 100
57 85 103
54 81 99
52 80 98
54 81 100
53 81 99
56 83 101
55 81 99
55 81 99
55 82 99
55 83 101
56 83 101
56 83 101
57 86 105
56 81 98
54 83 102
92 132 158
127 181 216
130 184 220
130 184 220
130 184 220
130 184 220
130 184 220
130 184 220
130 184 220
130 184 220
130 184 220
130 184 220
130 184 220
131 184 220
131 184 220
131 184 220
131 184 220
131 184 220
131 184 220
131 184 220
131 185 220
131 185 220
131 185 220
132 185 220
132 185 220
132 185 220
132 185 220
132 185 220
132 185 220
132 185 220
132 185 220
132 185 220
133 185 220
133 185 220
133 185 220
133 185 220
133 186 221
133 186 221
133 186 221
133 186 221
133 186 221
134 186 221
134 186 221
134 186 221
134 186 221
134 186 221
134 186 221
134 186 221
134 186 221
135 186 221
135 186 221
135 187 221
135 187 221
135 187 221
135 187 221
135 187 221
135 187 221
136 187 221
136 187 221
136 187 221
136 187 221
136 187 221
136 187 221
136 187 221
136 187 221
136 187 221
137 188 222
137 188 222
137 188 222
137 188 222
137 188 222
137 188 222
137 188 222
137 188 222
137 188 222
138 188 222
138 188 222
138 188 222
138 188 222
138 188 222
138 188 222
138 188 222
138 189 222
138 189 222
139 189 222
139 189 222
139 189 222
139 189 222
139 189 222
139 189 222
139 189 222
139 189 222
139 189 222
140 189 222
140 189 222
140 189 222
140 189 222
140 189 222
140 190 223
140 190 223
140 190 223
140 190 223
140 190 223
141 190 223
141 190 223
141 190 223
141 190 223
141 190 223
141 190 223
141 190 223
141 190 223
141 190 223
141 190 223
142 190 223
142 190 223
142 191 223
142 191 223
142 191 223
142 191 223
142 191 223
142 191 223
142 191 223
142 191 223
143 191 223
143 191 223
143 191 223
143 191 223
143 191 223
143 191 223
143 191 223
143 191 223
143 191 223
143 191 223
143 191 223
143 191 223
144 192 224
144 192 224
144 192 224
144 192 224
144 192 224
144 192 224
144 192 224
144 192 224
144 192 224
144 192 224
144 192 224
144 192 224
145 192 224
145 192 224
145 192 224
145 192 224
145 192 224
145 192 224
145 192 224
145 192 224
145 192 224
145 193 224
145 193 224
145 193 224
145 193 224
146 193 224
146 193 224
146 193 224
146 193 224
146 193 224
146 193 224
146 193 224
146 193 224
146 193 224
146 193 224
146 193 224
145 193 224
145 193 224
145 193 224
145 193 224
145 192 224
145 192 224
145 192 224
145 192 224
145 192 224
145 192 224
145 192 224
145 192 224
145 192 224
144 192 224
144 192 224
144 192 224
144 192 224
144 192 224
144 192 224
144 192 224
144 192 224
144 192 224
144 192 224
144 192 224
144 192 224
143 191 223
143 191 223
143 191 223
143 191 223
143 191 223
143 191 223
143 191 223
143 191 223
143 191 223
143 191 223
143 191 223
142 191 223
142 191 223
142 191 223
142 191 223
142 191 223
142 191 223
142 191 223
142 191 223
142 190 223
142 190 223
142 190 223
141 190 223
141 190 223
141 190 223
141 190 223
141 190 223
141 190 223
141 190 223
141 190 223
141 190 223
141 190 223
140 190 223
140 190 223
140 190 223
140 190 223
140 190 223
140 189 222
140 189 222
140 189 222
140 189 222
139 189 222
139 189 222
139 189 222
139 189 222
139 189 222
139 189 222
139 189 222
139 189 222
139 189 222
139 189 222
138 189 222
138 189 222
138 188 222
138 188 222
138 188 222
138 188 222
138 188 222
138 188 222
137 188 222
137 188 222
137 188 222
137 188 222
137 188 222
137 188 222
137 188 222
137 188 222
137 188 222
136 187 221
136 187 221
136 187 221
136 187 221
136 187 221
136 187 221
136 187 221
136 187 221
136 187 221
135 187 221
135 187 221
135 187 221
135 187 221
135 187 221
135 187 221
135 186 221
135 186 221
135 186 221
134 186 221
134 186 221
134 186 221
134 186 221
134 186 221
134 186 221
134 186 221
134 186 221
133 186 221
133 186 221
133 186 221
133 186 221
133 185 220
133 185 220
133 185 220
133 185 220
133 185 220
132 185 220
132 185 220
132 185 220
132 185 220
132 185 220
132 185 220
132 185 220
132 185 220
132 185 220
131 185 220
131 185 220
131 185 220
131 184 220
131 184 220
131 184 220
131 184 220
131 184 220
131 184 220
131 184 220
131 184 220
130 184 220
130 184 220
130 184 220
130 184 220
121 172 205
72 104 126
55 83 101
52 81 100
55 82 101
53 80 99
57 84 102
54 81 98
52 80 99
54 82 100
56 83 101
55 83 101
55 82 100
54 81 99
55 83 101
57 83 101
55 82 100
53 80 98
57 84 102
53 80 98
58 85 103
55 82 101
56 82 99
51 79 97
54 81 98
53 80 97
53 80 97
53 80 98
56 82 100
51 80 99
57 83 100
54 79 96
57 84 102
57 84 102
54 81 99
53 81 100
54 80 97
54 81 100
54 80 97
54 81 98
50 76 93
56 81 98
55 82 101
56 81 98
55 81 98
53 79 97
56 83 101
57 83 100
56 82 99
54 81 100
54 79 95
55 82 99
53 80 98
56 83 101
56 82 99
55 82 99
54 81 99
56 82 99
55 82 100
54 80 98
54 81 100
53 80 98
55 83 101
53 80 98
55 82 101
56 82 100
52 80 99
53 81 99
57 83 101
55 82 100
55 83 102
52 80 99
56 83 101
55 82 100
55 82 100
54 81 99
56 84 102
54 81 100
69 102 125
119 169 202
130 184 220
130 184 220
130 184 220
130 184 220
131 184 220
131 184 220
131 184 220
131 184 220
131 184 220
131 184 220
131 184 220
131 184 220
131 185 220
131 185 220
131 185 220
132 185 220
132 185 220
132 185 220
132 185 220
132 185 220
132 185 220
132 185 220
132 185 220
132 185 220
133 185 220
133 185 220
133 185 220
133 185 220
133 185 220
133 186 221
133 186 221
133 186 221
133 186 221
134 186 221
134 186 221
134 186 221
134 186 221
134 186 221
134 186 221
134 186 221
134 186 221
134 186 221
135 186 221
135 187 221
135 187 221
135 187 221
135 187 221
135 187 221
135 187 221
135 187 221
136 187 221
136 187 221
136 187 221
136 187 221
136 187 221
136 187 221
136 187 221
136 187 221
136 187 221
137 188 222
137 188 222
137 188 222
137 188 222
137 188 222
137 188 222
137 188 222
137 188 222
138 188 222
138 188 222
138 188 222
138 188 222
138 188 222
138 188 222
138 188 222
138 189 222
138 189 222
138 189 222
139 189 222
139 189 222
139 189 222
139 189 222
139 189 222
139 189 222
139 189 222
139 189 222
139 189 222
140 189 222
140 189 222
140 189 222
140 189 222
140 190 223
140 190 223
140 190 223
140 190 223
140 190 223
141 190 223
141 190 223
141 190 223
141 190 223
141 190 223
141 190 223
141 190 223
141 190 223
141 190 223
141 190 223
142 190 223
142 190 223
142 190 223
142 191 223
142 191 223
142 191 223
142 191 223
142 191 223
142 191 223
142 191 223
142 191 223
143 191 223
143 191 223
143 191 223
143 191 223
143 191 223
143 191 223
143 191 223
143 191 223
143 191 223
143 191 223
143 191 223
144 192 224
144 192 224
144 192 224
144 192 224
144 192 224
144 192 224
144 192 224
144 192 224
144 192 224
144 192 224
144 192 224
144 192 224
145 192 224
145 192 224
145 192 224
145 192 224
145 192 224
145 192 224
145 192 224
145 192 224
145 192 224
145 193 224
145 193 224
145 193 224
145 193 224
146 193 224
146 193 224
146 193 224
146 193 224
146 193 224
146 193 224
146 193 224
146 193 224
146 193 224
146 193 224
146 193 224
146 193 224
146 193 224
146 193 224
146 193 224
146 193 224
146 193 224
146 193 224
146 193 224
146 193 224
146 193 224
145 193 224
145 193 224
145 193 224
145 192 224
145 192 224
145 192 224
145 192 224
145 192 224
145 192 224
145 192 224
145 192 224
145 192 224
145 192 224
144 192 224
144 192 224
144 192 224
144 192 224
144 192 224
144 192 224
144 192 224
144 192 224
144 192 224
144 192 224
144 192 224
144 192 224
143 191 223
143 191 223
143 191 223
143 191 223
143 191 223
143 191 223
143 191 223
143 191 223
143 191 223
143 191 223
143 191 223
142 191 223
142 191 223
142 191 223
142 191 223
142 191 223
142 191 223
142 191 223
142 191 223
142 190 223
142 190 223
142 190 223
141 190 223
141 190 223
141 190 223
141 190 223
141 190 223
141 190 223
141 190 223
141 190 223
141 190 223
140 190 223
140 190 223
140 190 223
140 190 223
140 190 223
140 189 222
140 189 222
140 189 222
140 189 222
140 189 222
139 189 222
139 189 222
139 189 222
139 189 222
139 189 222
139 189 222
139 189 222
139 189 222
139 189 222
138 189 222
138 189 222
138 188 222
138 188 222
138 188 222
138 188 222
138 188 222
138 188 222
138 188 222
137 188 222
137 188 222
137 188 222
137 188 222
137 188 222
137 188 222
137 188 222
137 188 222
137 188 222
136 187 221
136 187 221
136 187 221
136 187 221
136 187 221
136 187 221
136 187 221
136 187 221
135 187 221
135 187 221
135 187 221
135 187 221
135 187 221
135 187 221
135 187 221
135 186 221
135 186 221
134 186 221
134 186 221
134 186 221
134 186 221
134 186 221
134 186 221
134 186 221
134 186 221
134 186 221
133 186 221
133 186 221
133 186 221
133 186 221
133 185 220
133 185 220
133 185 220
133 185 220
133 185 220
132 185 220
132 185 220
132 185 220
132 185 220
132 185 220
132 185 220
132 185 220
132 185 220
132 185 220
132 185 220
131 185 220
131 185 220
131 185 220
131 184 220
131 184 220
131 184 220
131 184 220
131 184 220
115 163 194
57 85 104
55 83 102
55 82 101
53 81 100
55 82 100
56 82 100
52 80 98
56 83 102
54 80 98
56 84 103
55 83 101
54 80 97
55 81 99
54 80 98
57 83 101
54 80 98
50 76 94
54 80 98
55 81 99
55 81 99
54 81 99
54 80 98
57 83 100
52 78 96
57 83 100
56 83 101
54 80 97
52 78 95
54 80 97
55 81 98
54 80 98
55 81 99
54 80 97
53 80 97
54 81 98
52 78 95
54 82 101
53 79 96
57 83 100
55 81 99
55 82 100
54 81 98
56 81 98
57 82 98
53 80 99
53 79 97
53 79 97
56 84 102
52 79 97
56 83 102
50 77 94
55 81 98
53 80 98
57 83 101
55 81 99
54 79 97
54 80 97
54 81 99
53 80 98
55 81 99
55 82 100
55 80 98
54 82 100
55 81 99
57 84 102
54 81 99
57 83 100
56 81 98
58 85 103
53 81 100
55 81 98
55 82 100
54 81 100
53 81 99
52 81 100
55 83 102
54 81 99
56 83 101
56 83 102
63 93 113
108 153 183
131 184 220
131 184 220
131 184 220
131 184 220
131 184 220
131 185 220
131 185 220
131 185 220
132 185 220
132 185 220
132 185 220
132 185 220
132 185 220
132 185 220
132 185 220
132 185 220
132 185 220
132 185 220
133 185 220
133 185 220
133 185 220
133 185 220
133 185 220
133 186 221
133 186 221
133 186 221
133 186 221
134 186 221
134 186 221
134 186 221
134 186 221
134 186 221
134 186 221
134 186 221
134 186 221
134 186 221
135 186 221
135 186 221
135 187 221
135 187 221
135 187 221
135 187 221
135 187 221
135 187 221
135 187 221
136 187 221
136 187 221
136 187 221
136 187 221
136 187 221
136 187 221
136 187 221
136 187 221
137 188 222
137 188 222
137 188 222
137 188 222
137 188 222
137 188 222
137 188 222
137 188 222
137 188 222
138 188 222
138 188 222
138 188 222
138 188 222
138 188 222
138 188 222
138 188 222
138 189 222
138 189 222
139 189 222
139 189 222
139 189 222
139 189 222
139 189 222
139 189 222
139 189 222
139 189 222
139 189 222
140 189 222
140 189 222
140 189 222
140 189 222
140 189 222
140 190 223
140 190 223
140 190 223
140 190 223
140 190 223
141 190 223
141 190 223
141 190 223
141 190 223
141 190 223
141 190 223
141 190 223
141 190 223
141 190 223
141 190 223
142 190 223
142 190 223
142 191 223
142 191 223
142 191 223
142 191 223
142 191 223
142 191 223
142 191 223
142 191 223
143 191 223
143 191 223
143 191 223
143 191 223
143 191 223
143 191 223
143 191 223
143 191 223
143 191 223
143 191 223
143 191 223
143 191 223
144 192 224
144 192 224
144 192 224
144 192 224
144 192 224
144 192 224
144 192 224
144 192 224
144 192 224
144 192 224
144 192 224
145 192 224
145 192 224
145 192 224
145 192 224
145 192 224
145 192 224
145 192 224
145 192 224
145 192 224
145 193 224
145 193 224
145 193 224
145 193 224
146 193 224
146 193 224
146 193 224
146 193 224
146 193 224
146 193 224
146 193 224
146 193 224
146 193 224
146 193 224
146 193 224
146 193 224
146 193 224
147 193 224
147 193 224
147 193 224
147 193 224
147 193 224
146 193 224
146 193 224
146 193 224
146 193 224
146 193 224
146 193 224
146 193 224
146 193 224
146 193 224
146 193 224
146 193 224
146 193 224
146 193 224
145 193 224
145 193 224
145 193 224
145 193 224
145 192 224
145 192 224
145 192 224
145 192 224
145 192 224
145 192 224
145 192 224
145 192 224
145 192 224
144 192 224
144 192 224
144 192 224
144 192 224
144 192 224
144 192 224
144 192 224
144 192 224
144 192 224
144 192 224
144 192 224
143 191 223
143 191 223
143 191 223
143 191 223
143 191 223
143 191 223
143 191 223
143 191 223
143 191 223
143 191 223
143 191 223
142 191 223
142 191 223
142 191 223
142 191 223
142 191 223
142 191 223
142 191 223
142 191 223
142 190 223
142 190 223
142 190 223
141 190 223
141 190 223
141 190 223
141 190 223
141 190 223
141 190 223
141 190 223
141 190 223
141 190 223
141 190 223
140 190 223
140 190 223
140 190 223
140 190 223
140 190 223
140 189 222
140 189 222
140 189 222
140 189 222
139 189 222
139 189 222
139 189 222
139 189 222
139 189 222
139 189 222
139 189 222
139 189 222
139 189 222
138 189 222
138 189 222
138 189 222
138 188 222
138 188 222
138 188 222
138 188 222
138 188 222
138 188 222
137 188 222
137 188 222
137 188 222
137 188 222
137 188 222
137 188 222
137 188 222
137 188 222
137 188 222
136 187 221
136 187 221
136 187 221
136 187 221
136 187 221
136 187 221
136 187 221
136 187 221
136 187 221
135 187 221
135 187 221
135 187 221
135 187 221
135 187 221
135 187 221
135 187 221
135 186 221
135 186 221
134 186 221
134 186 221
134 186 221
134 186 221
134 186 221
134 186 221
134 186 221
134 186 221
134 186 221
133 186 221
133 186 221
133 186 221
133 186 221
133 186 221
133 185 220
133 185 220
133 185 220
133 185 220
132 185 220
132 185 220
132 185 220
132 185 220
132 185 220
132 185 220
132 185 220
132 185 220
132 185 220
132 185 220
132 185 220
132 185 220
93 132 159
53 82 101
53 81 100
55 82 100
54 82 101
56 82 100
57 84 102
56 84 102
55 80 98
53 80 98
53 81 99
53 81 100
53 79 97
55 82 100
56 83 102
56 82 99
56 83 102
57 84 101
57 84 102
56 81 97
54 81 98
56 82 100
54 81 99
51 78 96
56 82 99
58 83 100
54 80 97
58 83 100
55 81 98
53 79 96
56 81 98
55 82 99
54 79 96
52 80 98
54 82 100
53 80 99
56 83 101
51 78 95
55 82 101
55 82 99
56 83 101
58 84 102
53 80 98
51 77 94
56 83 101
54 80 96
54 80 98
54 80 97
57 84 102
54 81 99
53 79 96
54 80 98
53 80 98
53 80 97
52 77 93
58 83 100
54 82 100
54 80 97
55 80 98
54 81 99
53 79 97
55 82 101
55 82 100
53 79 96
55 81 99
54 81 98
57 84 103
50 77 95
52 78 96
52 77 94
54 80 97
55 81 98
57 85 103
52 80 98
56 84 102
59 84 102
56 84 103
51 78 96
55 83 101
56 83 101
55 81 99
52 79 97
54 83 102
98 141 169
132 185 220
132 185 220
132 185 220
132 185 220
132 185 220
132 185 220
132 185 220
132 185 220
132 185 220
132 185 220
132 185 220
133 185 220
133 185 220
133 185 220
133 185 220
133 185 220
133 186 221
133 186 221
133 186 221
133 186 221
133 186 221
134 186 221
134 186 221
134 186 221
134 186 221
134 186 221
134 186 221
134 186 221
134 186 221
134 186 221
135 186 221
135 186 221
135 187 221
135 187 221
135 187 221
135 187 221
135 187 221
135 187 221
135 187 221
136 187 221
136 187 221
136 187 221
136 187 221
136 187 221
136 187 221
136 187 221
136 187 221
136 187 221
137 188 222
137 188 222
137 188 222
137 188 222
137 188 222
137 188 222
137 188 222
137 188 222
137 188 222
138 188 222
138 188 222
138 188 222
138 188 222
138 188 222
138 188 222
138 189 222
138 189 222
138 189 222
139 189 222
139 189 222
139 189 222
139 189 222
139 189 222
139 189 222
139 189 222
139 189 222
139 189 222
140 189 222
140 189 222
140 189 222
140 189 222
140 190 223
140 190 223
140 190 223
140 190 223
140 190 223
141 190 223
141 190 223
141 190 223
141 190 223
141 190 223
141 190 223
141 190 223
141 190 223
141 190 223
141 190 223
142 190 223
142 190 223
142 190 223
142 191 223
142 191 223
142 191 223
142 191 223
142 191 223
142 191 223
142 191 223
142 191 223
143 191 223
143 191 223
143 191 223
143 191 223
143 191 223
143 191 223
143 191 223
143 191 223
143 191 223
143 191 223
143 191 223
144 192 224
144 192 224
144 192 224
144 192 224
144 192 224
144 192 224
144 192 224
144 192 224
144 192 224
144 192 224
144 192 224
145 192 224
145 192 224
145 192 224
145 192 224
145 192 224
145 192 224
145 192 224
145 192 224
145 192 224
145 192 224
145 193 224
145 193 224
145 193 224
146 193 224
146 193 224
146 193 224
146 193 224
146 193 224
146 193 224
146 193 224
146 193 224
146 193 224
146 193 224
146 193 224
146 193 224
146 193 224
146 193 224
147 193 224
147 193 224
147 193 224
147 193 224
147 194 225
147 194 225
147 193 224
147 193 224
147 193 224
147 193 224
147 193 224
147 193 224
147 193 224
147 193 224
146 193 224
146 193 224
146 193 224
146 193 224
146 193 224
146 193 224
146 193 224
146 193 224
146 193 224
146 193 224
146 193 224
146 193 224
146 193 224
145 193 224
145 193 224
145 193 224
145 193 224
145 192 224
145 192 224
145 192 224
145 192 224
145 192 224
145 192 224
145 192 224
145 192 224
145 192 224
144 192 224
144 192 224
144 192 224
144 192 224
144 192 224
144 192 224
144 192 224
144 192 224
144 192 224
144 192 224
144 192 224
143 191 223
143 191 223
143 191 223
143 191 223
143 191 223
143 191 223
143 191 223
143 191 223
143 191 223
143 191 223
143 191 223
142 191 223
142 191 223
142 191 223
142 191 223
142 191 223
142 191 223
142 191 223
142 191 223
142 190 223
142 190 223
141 190 223
141 190 223
141 190 223
141 190 223
141 190 223
141 190 223
141 190 223
141 190 223
141 190 223
141 190 223
140 190 223
140 190 223
140 190 223
140 190 223
140 190 223
140 189 222
140 189 222
140 189 222
140 189 222
140 189 222
139 189 222
139 189 222
139 189 222
139 189 222
139 189 222
139 189 222
139 189 222
139 189 222
139 189 222
138 189 222
138 189 222
138 188 222
138 188 222
138 188 222
138 188 222
138 188 222
138 188 222
138 188 222
137 188 222
137 188 222
137 188 222
137 188 222
137 188 222
137 188 222
137 188 222
137 188 222
137 188 222
136 187 221
136 187 221
136 187 221
136 187 221
136 187 221
136 187 221
136 187 221
136 187 221
136 187 221
135 187 221
135 187 221
135 187 221
135 187 221
135 187 221
135 187 221
135 187 221
135 186 221
135 186 221
134 186 221
134 186 221
134 186 221
134 186 221
134 186 221
134 186 221
134 186 221
134 186 221
134 186 221
133 186 221
133 186 221
133 186 221
133 186 221
133 186 221
133 186 221
133 185 220
133 185 220
133 185 220
133 185 220
133 185 220
132 185 220
132 185 220
132 185 220
131 184 219
79 116 140
56 83 101
54 82 100
52 80 98
55 83 102
54 82 101
53 80 98
54 82 101
54 80 98
54 80 98
53 79 97
57 84 102
57 83 100
54 80 97
54 80 98
56 83 102
52 78 95
53 79 96
54 79 96
56 82 99
56 84 103
55 80 97
55 81 99
57 84 102
55 81 98
58 84 102
55 81 98
57 83 100
58 83 100
56 82 99
54 81 99
53 80 98
55 81 99
57 83 101
54 81 99
52 78 96
56 82 100
53 79 97
51 77 94
52 78 96
56 82 99
52 79 96
54 80 98
53 79 96
53 79 97
54 80 98
55 82 100
54 80 97
54 79 96
56 81 98
55 82 100
56 81 99
54 80 97
56 84 103
51 79 98
55 81 98
53 81 99
50 78 96
53 79 97
55 81 98
51 78 95
55 80 97
53 81 99
54 81 99
57 82 98
55 82 100
53 81 100
54 80 97
55 82 99
52 78 95
55 83 101
54 81 99
55 81 99
54 80 96
54 81 98
54 80 98
54 81 99
53 79 97
54 80 98
56 84 102
53 80 98
52 80 99
54 81 99
53 81 99
54 81 100
85 122 147
131 183 218
132 185 220
132 185 220
132 185 220
133 185 220
133 185 220
133 185 220
133 185 220
133 185 220
133 186 221
133 186 221
133 186 221
133 186 221
133 186 221
134 186 221
134 186 221
134 186 221
134 186 221
134 186 221
134 186 221
134 186 221
134 186 221
134 186 221
134 186 221
135 186 221
135 186 221
135 186 221
135 187 221
135 187 221
135 187 221
135 187 221
135 187 221
135 187 221
136 187 221
136 187 221
136 187 221
136 187 221
136 187 221
136 187 221
136 187 221
136 187 221
136 187 221
137 188 222
137 188 222
137 188 222
137 188 222
137 188 222
137 188 222
137 188 222
137 188 222
137 188 222
138 188 222
138 188 222
138 188 222
138 188 222
138 188 222
138 188 222
138 188 222
138 189 222
138 189 222
139 189 222
139 189 222
139 189 222
139 189 222
139 189 222
139 189 222
139 189 222
139 189 222
139 189 222
140 189 222
140 189 222
140 189 222
140 189 222
140 189 222
140 190 223
140 190 223
140 190 223
140 190 223
140 190 223
141 190 223
141 190 223
141 190 223
141 190 223
141 190 223
141 190 223
141 190 223
141 190 223
141 190 223
141 190 223
142 190 223
142 190 223
142 191 223
142 191 223
142 191 223
142 191 223
142 191 223
142 191 223
142 191 223
142 191 223
143 191 223
143 191 223
143 191 223
143 191 223
143 191 223
143 191 223
143 191 223
143 191 223
143 191 223
143 191 223
143 191 223
144 192 224
144 192 224
144 192 224
144 192 224
144 192 224
144 192 224
144 192 224
144 192 224
144 192 224
144 192 224
144 192 224
145 192 224
145 192 224
145 192 224
145 192 224
145 192 224
145 192 224
145 192 224
145 192 224
145 192 224
145 192 224
145 193 224
145 193 224
145 193 224
146 193 224
146 193 224
146 193 224
146 193 224
146 193 224
146 193 224
146 193 224
146 193 224
146 193 224
146 193 224
146 193 224
146 193 224
146 193 224
147 193 224
147 193 224
147 193 224
147 193 224
147 193 224
147 193 224
147 193 224
147 194 225
147 194 225
147 194 225
148 194 225
147 194 225
147 194 225
147 194 225
147 194 225
147 194 225
147 194 225
147 194 225
147 193 224
147 193 224
147 193 224
147 193 224
147 193 224
147 193 224
147 193 224
146 193 224
146 193 224
146 193 224
146 193 224
146 193 224
146 193 224
146 193 224
146 193 224
146 193 224
146 193 224
146 193 224
146 193 224
146 193 224
145 193 224
145 193 224
145 193 224
145 192 224
145 192 224
145 192 224
145 192 224
145 192 224
145 192 224
145 192 224
145 192 224
145 192 224
144 192 224
144 192 224
144 192 224
144 192 224
144 192 224
144 192 224
144 192 224
144 192 224
144 192 224
144 192 224
144 192 224
144 192 224
143 191 223
143 191 223
143 191 223
143 191 223
143 191 223
143 191 223
143 191 223
143 191 223
143 191 223
143 191 223
143 191 223
142 191 223
142 191 223
142 191 223
142 191 223
142 191 223
142 191 223
142 191 223
142 190 223
142 190 223
142 190 223
141 190 223
141 190 223
141 190 223
141 190 223
141 190 223
141 190 223
141 190 223
141 190 223
141 190 223
141 190 223
140 190 223
140 190 223
140 190 223
140 190 223
140 189 222
140 189 222
140 189 222
140 189 222
140 189 222
139 189 222
139 189 222
139 189 222
139 189 222
139 189 222
139 189 222
139 189 222
139 189 222
139 189 222
139 189 222
138 189 222
138 189 222
138 188 222
138 188 222
138 188 222
138 188 222
138 188 222
138 188 222
138 188 222
137 188 222
137 188 222
137 188 222
137 188 222
137 188 222
137 188 222
137 188 222
137 188 222
137 188 222
136 187 221
136 187 221
136 187 221
136 187 221
136 187 221
136 187 221
136 187 221
136 187 221
136 187 221
135 187 221
135 187 221
135 187 221
135 187 221
135 187 221
135 187 221
135 187 221
135 186 221
135 186 221
134 186 221
134 186 221
134 186 221
134 186 221
134 186 221
134 186 221
134 186 221
134 186 221
134 186 221
134 186 221
133 186 221
133 186 221
133 186 221
133 186 221
133 186 221
133 186 221
133 185 220
130 181 216
77 112 136
59 87 106
55 82 99
56 83 101
50 77 95
54 81 98
58 85 103
56 83 101
52 78 95
51 77 94
52 80 98
55 81 99
53 77 94
58 86 105
53 78 95
54 82 100
52 79 97
55 81 99
54 82 100
52 77 94
55 82 100
57 85 104
54 79 96
50 75 92
58 84 101
51 76 94
55 79 95
53 79 96
57 84 102
53 79 96
53 79 97
56 82 100
56 84 102
56 82 100
52 78 96
57 83 100
53 80 97
52 77 94
53 79 96
58 85 103
54 80 97
55 81 99
54 80 97
54 80 98
55 82 100
57 84 102
53 81 99
52 78 95
55 80 97
57 82 99
56 83 101
54 80 97
54 80 98
54 80 98
51 77 95
55 80 98
59 85 102
53 79 96
55 80 97
56 80 96
55 81 98
57 83 100
55 81 98
54 79 96
55 81 99
52 79 98
54 80 98
53 81 99
53 78 95
55 83 101
55 81 98
54 81 99
52 78 96
54 81 99
55 81 98
57 83 100
58 84 102
56 82 100
53 80 98
53 80 98
56 82 100
56 83 101
56 84 102
56 81 98
55 82 99
55 83 101
54 81 100
76 108 130
128 179 213
133 185 220
133 186 221
133 186 221
133 186 221
133 186 221
133 186 221
134 186 221
134 186 221
134 186 221
134 186 221
134 186 221
134 186 221
134 186 221
134 186 221
134 186 221
134 186 221
134 186 221
135 186 221
135 186 221
135 187 221
135 187 221
135 187 221
135 187 221
135 187 221
135 187 221
135 187 221
136 187 221
136 187 221
136 187 221
136 187 221
136 187 221
136 187 221
136 187 221
136 187 221
136 187 221
137 188 222
137 188 222
137 188 222
137 188 222
137 188 222
137 188 222
137 188 222
137 188 222
137 188 222
138 188 222
138 188 222
138 188 222
138 188 222
138 188 222
138 188 222
138 188 222
138 189 222
138 189 222
138 189 222
139 189 222
139 189 222
139 189 222
139 189 222
139 189 222
139 189 222
139 189 222
139 189 222
139 189 222
140 189 222
140 189 222
140 189 222
140 189 222
140 190 223
140 190 223
140 190 223
140 190 223
140 190 223
141 190 223
141 190 223
141 190 223
141 190 223
141 190 223
141 190 223
141 190 223
141 190 223
141 190 223
141 190 223
142 190 223
142 190 223
142 191 223
142 191 223
142 191 223
142 191 223
142 191 223
142 191 223
142 191 223
142 191 223
143 191 223
143 191 223
143 191 223
143 191 223
143 191 223
143 191 223
143 191 223
143 191 223
143 191 223
143 191 223
143 191 223
144 192 224
144 192 224
144 192 224
144 192 224
144 192 224
144 192 224
144 192 224
144 192 224
144 192 224
144 192 224
144 192 224
145 192 224
145 192 224
145 192 224
145 192 224
145 192 224
145 192 224
145 192 224
145 192 224
145 192 224
145 192 224
145 193 224
145 193 224
145 193 224
146 193 224
146 193 224
146 193 224
146 193 224
146 193 224
146 193 224
146 193 224
146 193 224
146 193 224
146 193 224
146 193 224
146 193 224
146 193 224
147 193 224
147 193 224
147 193 224
147 193 224
147 193 224
147 193 224
147 193 224
147 194 225
147 194 225
147 194 225
147 194 225
147 194 225
147 194 225
147 194 225
148 194 225
148 194 225
148 194 225
148 194 225
148 194 225
148 194 225
148 194 225
147 194 225
147 194 225
147 194 225
147 194 225
147 194 225
147 194 225
147 194 225
147 193 224
147 193 224
147 193 224
147 193 224
147 193 224
147 193 224
147 193 224
147 193 224
146 193 224
146 193 224
146 193 224
146 193 224
146 193 224
146 193 224
146 193 224
146 193 224
146 193 224
146 193 224
146 193 224
146 193 224
145 193 224
145 193 224
145 193 224
145 192 224
145 192 224
145 192 224
145 192 224
145 192 224
145 192 224
145 192 224
145 192 224
145 192 224
145 192 224
144 192 224
144 192 224
144 192 224
144 192 224
144 192 224
144 192 224
144 192 224
144 192 224
144 192 224
144 192 224
144 192 224
143 191 223
143 191 223
143 191 223
143 191 223
143 191 223
143 191 223
143 191 223
143 191 223
143 191 223
143 191 223
143 191 223
142 191 223
142 191 223
142 191 223
142 191 223
142 191 223
142 191 223
142 191 223
142 190 223
142 190 223
142 190 223
141 190 223
141 190 223
141 190 223
141 190 223
141 190 223
141 190 223
141 190 223
141 190 223
141 190 223
141 190 223
140 190 223
140 190 223
140 190 223
140 190 223
140 189 222
140 189 222
140 189 222
140 189 222
140 189 222
139 189 222
139 189 222
139 189 222
139 189 222
139 189 222
139 189 222
139 189 222
139 189 222
139 189 222
138 189 222
138 189 222
138 189 222
138 188 222
138 188 222
138 188 222
138 188 222
138 188 222
138 188 222
138 188 222
137 188 222
137 188 222
137 188 222
137 188 222
137 188 222
137 188 222
137 188 222
137 188 222
137 188 222
136 187 221
136 187 221
136 187 221
136 187 221
136 187 221
136 187 221
136 187 221
136 187 221
136 187 221
135 187 221
135 187 221
135 187 221
135 187 221
135 187 221
135 187 221
135 187 221
135 186 221
135 186 221
135 186 221
134 186 221
134 186 221
134 186 221
134 186 221
134 186 221
134 186 221
134 186 221
134 186 221
134 186 221
134 186 221
127 177 210
76 109 132
56 83 100
55 80 97
53 81 99
55 81 98
54 80 97
56 83 101
55 82 100
54 81 100
55 82 100
54 80 97
56 82 100
53 80 98
53 80 98
51 77 94
55 82 101
55 81 98
55 82 100
51 78 96
52 78 95
52 78 96
55 80 97
56 83 100
55 80 98
54 81 98
56 81 98
54 80 98
54 79 96
53 78 95
53 79 96
55 82 100
51 79 97
55 81 98
57 83 101
53 79 97
54 81 99
53 77 94
57 83 100
54 79 95
54 80 98
54 80 97
54 80 97
54 80 98
55 81 99
52 77 93
53 81 100
52 79 96
53 78 95
56 81 97
54 80 98
50 75 92
54 79 96
54 81 98
55 81 99
56 83 100
55 80 96
50 76 94
53 80 98
52 78 96
53 79 97
55 82 100
55 81 99
55 80 98
54 79 96
53 79 96
51 78 96
53 80 98
51 78 96
55 81 98
58 84 101
54 80 98
54 81 98
54 81 98
58 83 99
51 77 94
54 80 98
55 82 100
52 78 95
56 83 101
51 78 96
56 82 100
55 81 99
57 84 102
55 83 101
52 79 96
54 81 99
54 81 99
55 82 100
52 79 98
75 107 129
130 181 215
134 186 221
134 186 221
134 186 221
134 186 221
134 186 221
134 186 221
134 186 221
134 186 221
134 186 221
134 186 221
135 186 221
135 186 221
135 186 221
135 187 221
135 187 221
135 187 221
135 187 221
135 187 221
135 187 221
135 187 221
136 187 221
136 187 221
136 187 221
136 187 221
136 187 221
136 187 221
136 187 221
136 187 221
136 187 221
137 188 222
137 188 222
137 188 222
137 188 222
137 188 222
137 188 222
137 188 222
137 188 222
137 188 222
138 188 222
138 188 222
138 188 222
138 188 222
138 188 222
138 188 222
138 188 222
138 189 222
138 189 222
138 189 222
139 189 222
139 189 222
139 189 222
139 189 222
139 189 222
139 189 222
139 189 222
139 189 222
139 189 222
140 189 222
140 189 222
140 189 222
140 189 222
140 189 222
140 190 223
140 190 223
140 190 223
140 190 223
141 190 223
141 190 223
141 190 223
141 190 223
141 190 223
141 190 223
141 190 223
141 190 223
141 190 223
141 190 223
142 190 223
142 190 223
142 190 223
142 191 223
142 191 223
142 191 223
142 191 223
142 191 223
142 191 223
142 191 223
143 191 223
143 191 223
143 191 223
143 191 223
143 191 223
143 191 223
143 191 223
143 191 223
143 191 223
143 191 223
143 191 223
144 192 224
144 192 224
144 192 224
144 192 224
144 192 224
144 192 224
144 192 224
144 192 224
144 192 224
144 192 224
144 192 224
145 192 224
145 192 224
145 192 224
145 192 224
145 192 224
145 192 224
145 192 224
145 192 224
145 192 224
145 192 224
145 193 224
145 193 224
146 193 224
146 193 224
146 193 224
146 193 224
146 193 224
146 193 224
146 193 224
146 193 224
146 193 224
146 193 224
146 193 224
146 193 224
146 193 224
147 193 224
147 193 224
147 193 224
147 193 224
147 193 224
147 193 224
147 193 224
147 194 225
147 194 225
147 194 225
147 194 225
147 194 225
147 194 225
147 194 225
147 194 225
148 194 225
148 194 225
148 194 225
148 194 225
148 194 225
148 194 225
148 194 225
148 194 225
148 194 225
148 194 225
148 194 225
148 194 225
148 194 225
148 194 225
148 194 225
148 194 225
148 194 225
148 194 225
147 194 225
147 194 225
147 194 225
147 194 225
147 194 225
147 194 225
147 194 225
147 193 224
147 193 224
147 193 224
147 193 224
147 193 224
147 193 224
147 193 224
146 193 224
146 193 224
146 193 224
146 193 224
146 193 224
146 193 224
146 193 224
146 193 224
146 193 224
146 193 224
146 193 224
146 193 224
146 193 224
145 193 224
145 193 224
145 193 224
145 192 224
145 192 224
145 192 224
145 192 224
145 192 224
145 192 224
145 192 224
145 192 224
145 192 224
144 192 224
144 192 224
144 192 224
144 192 224
144 192 224
144 192 224
144 192 224
144 192 224
144 192 224
144 192 224
144 192 224
143 191 223
143 191 223
143 191 223
143 191 223
143 191 223
143 191 223
143 191 223
143 191 223
143 191 223
143 191 223
143 191 223
142 191 223
142 191 223
142 191 223
142 191 223
142 191 223
142 191 223
142 191 223
142 190 223
142 190 223
142 190 223
141 190 223
141 190 223
141 190 223
141 190 223
141 190 223
141 190 223
141 190 223
141 190 223
141 190 223
141 190 223
140 190 223
140 190 223
140 190 223
140 190 223
140 189 222
140 189 222
140 189 222
140 189 222
140 189 222
139 189 222
139 189 222
139 189 222
139 189 222
139 189 222
139 189 222
139 189 222
139 189 222
139 189 222
139 189 222
138 189 222
138 188 222
138 188 222
138 188 222
138 188 222
138 188 222
138 188 222
138 188 222
138 188 222
137 188 222
137 188 222
137 188 222
137 188 222
137 188 222
137 188 222
137 188 222
137 188 222
137 188 222
136 187 221
136 187 221
136 187 221
136 187 221
136 187 221
136 187 221
136 187 221
136 187 221
136 187 221
136 187 221
135 187 221
135 187 221
135 187 221
135 187 221
135 187 221
135 187 221
135 187 221
135 186 221
135 186 221
135 186 221
134 186 221
134 186 221
134 186 221
131 181 215
66 95 115
51 79 98
52 79 96
58 84 102
56 82 99
53 80 98
55 82 100
52 79 96
53 80 98
54 80 97
55 80 97
53 79 97
51 77 95
54 82 100
51 77 95
54 80 98
51 79 97
52 78 95
55 81 99
51 77 94
52 79 97
55 80 97
53 79 96
52 78 95
56 82 100
52 77 94
55 81 98
56 81 98
54 80 97
54 81 99
53 80 97
54 81 99
52 78 96
56 81 99
56 82 100
54 81 98
56 81 98
54 80 98
56 83 101
54 80 97
55 83 102
52 77 94
53 79 96
50 74 90
51 77 94
55 82 99
53 79 96
57 82 100
52 79 97
53 80 97
55 82 100
49 76 93
53 79 96
55 82 99
56 82 100
54 80 98
56 81 98
54 80 97
55 81 98
48 73 90
54 80 97
56 82 99
52 80 99
54 79 96
55 81 98
51 77 93
52 78 95
54 80 98
55 81 98
53 79 96
54 78 95
53 80 98
52 78 96
54 80 97
56 81 97
54 80 97
58 84 100
54 79 95
53 78 94
57 84 101
51 79 98
53 79 97
52 77 94
54 80 98
50 78 96
54 81 98
55 81 98
55 81 98
55 81 99
55 83 101
55 81 98
74 106 128
129 179 212
134 186 221
134 186 221
135 186 221
135 186 221
135 186 221
135 187 221
135 187 221
135 187 221
135 187 221
135 187 221
135 187 221
135 187 221
135 187 221
136 187 221
136 187 221
136 187 221
136 187 221
136 187 221
136 187 221
136 187 221
136 187 221
136 187 221
136 187 221
137 188 222
137 188 222
137 188 222
137 188 222
137 188 222
137 188 222
137 188 222
137 188 222
137 188 222
138 188 222
138 188 222
138 188 222
138 188 222
138 188 222
138 188 222
138 188 222
138 189 222
138 189 222
138 189 222
139 189 222
139 189 222
139 189 222
139 189 222
139 189 222
139 189 222
139 189 222
139 189 222
139 189 222
140 189 222
140 189 222
140 189 222
140 189 222
140 189 222
140 190 223
140 190 223
140 190 223
140 190 223
141 190 223
141 190 223
141 190 223
141 190 223
141 190 223
141 190 223
141 190 223
141 190 223
141 190 223
141 190 223
142 190 223
142 190 223
142 190 223
142 191 223
142 191 223
142 191 223
142 191 223
142 191 223
142 191 223
142 191 223
142 191 223
143 191 223
143 191 223
143 191 223
143 191 223
143 191 223
143 191 223
143 191 223
143 191 223
143 191 223
143 191 223
144 192 224
144 192 224
144 192 224
144 192 224
144 192 224
144 192 224
144 192 224
144 192 224
144 192 224
144 192 224
144 192 224
145 192 224
145 192 224
145 192 224
145 192 224
145 192 224
145 192 224
145 192 224
145 192 224
145 192 224
145 193 224
145 193 224
145 193 224
146 193 224
146 193 224
146 193 224
146 193 224
146 193 224
146 193 224
146 193 224
146 193 224
146 193 224
146 193 224
146 193 224
146 193 224
146 193 224
147 193 224
147 193 224
147 193 224
147 193 224
147 193 224
147 193 224
147 193 224
147 194 225
147 194 225
147 194 225
147 194 225
147 194 225
147 194 225
147 194 225
148 194 225
148 194 225
148 194 225
148 194 225
148 194 225
148 194 225
148 194 225
148 194 225
148 194 225
148 194 225
148 194 225
148 194 225
149 194 225
149 194 225
149 194 225
148 194 225
148 194 225
148 194 225
148 194 225
148 194 225
148 194 225
148 194 225
148 194 225
148 194 225
148 194 225
148 194 225
148 194 225
148 194 225
148 194 225
147 194 225
147 194 225
147 194 225
147 194 225
147 194 225
147 194 225
147 194 225
147 194 225
147 193 224
147 193 224
147 193 224
147 193 224
147 193 224
147 193 224
146 193 224
146 193 224
146 193 224
146 193 224
146 193 224
146 193 224
146 193 224
146 193 224
146 193 224
146 193 224
146 193 224
146 193 224
146 193 224
145 193 224
145 193 224
145 193 224
145 192 224
145 192 224
145 192 224
145 192 224
145 192 224
145 192 224
145 192 224
145 192 224
145 192 224
144 192 224
144 192 224
144 192 224
144 192 224
144 192 224
144 192 224
144 192 224
144 192 224
144 192 224
144 192 224
144 192 224
143 191 223
143 191 223
143 191 223
143 191 223
143 191 223
143 191 223
143 191 223
143 191 223
143 191 223
143 191 223
142 191 223
142 191 223
142 191 223
142 191 223
142 191 223
142 191 223
142 191 223
142 191 223
142 190 223
142 190 223
142 190 223
141 190 223
141 190 223
141 190 223
141 190 223
141 190 223
141 190 223
141 190 223
141 190 223
141 190 223
140 190 223
140 190 223
140 190 223
140 190 223
140 190 223
140 189 222
140 189 222
140 189 222
140 189 222
140 189 222
139 189 222
139 189 222
139 189 222
139 189 222
139 189 222
139 189 222
139 189 222
139 189 222
139 189 222
138 189 222
138 189 222
138 189 222
138 188 222
138 188 222
138 188 222
138 188 222
138 188 222
138 188 222
138 188 222
137 188 222
137 188 222
137 188 222
137 188 222
137 188 222
137 188 222
137 188 222
137 188 222
137 188 222
137 188 222
136 187 221
136 187 221
136 187 221
136 187 221
136 187 221
136 187 221
136 187 221
136 187 221
136 187 221
136 187 221
135 187 221
135 187 221
135 187 221
135 187 221
135 187 221
135 187 221
128 178 211
69 100 121
54 82 100
56 83 101
56 83 101
55 81 99
56 82 99
52 78 95
54 81 98
55 80 96
53 80 98
53 79 97
56 83 101
56 82 99
55 81 98
55 80 96
57 83 100
57 83 100
52 79 97
57 82 99
56 82 100
53 78 94
52 79 96
51 76 93
54 81 99
54 79 96
52 78 95
52 78 95
53 79 97
54 80 97
50 76 93
54 80 97
53 80 97
55 83 102
55 80 97
54 79 96
56 83 101
56 82 100
54 81 99
53 78 95
56 83 101
57 83 100
50 78 97
51 77 95
54 80 97
55 80 97
56 82 99
51 76 93
52 78 95
53 80 98
56 82 100
55 80 97
53 79 95
53 79 97
54 80 97
56 80 97
55 80 97
56 81 98
54 80 96
52 78 96
56 81 98
53 80 98
55 80 96
57 82 98
55 81 99
54 79 96
55 79 95
53 78 95
57 82 99
52 78 95
51 77 94
56 81 98
53 79 97
55 81 98
56 83 102
54 81 99
53 78 96
53 79 96
52 79 98
55 80 97
52 78 95
55 80 97
52 80 98
54 81 98
53 79 97
53 80 98
55 82 100
54 80 97
55 81 99
56 84 103
54 80 98
55 82 99
52 79 96
55 82 100
67 99 120
130 180 214
135 187 221
135 187 221
135 187 221
135 187 221
135 187 221
135 187 221
136 187 221
136 187 221
136 187 221
136 187 221
136 187 221
136 187 221
136 187 221
136 187 221
136 187 221
136 187 221
137 188 222
137 188 222
137 188 222
137 188 222
137 188 222
137 188 222
137 188 222
137 188 222
137 188 222
137 188 222
138 188 222
138 188 222
138 188 222
138 188 222
138 188 222
138 188 222
138 188 222
138 189 222
138 189 222
138 189 222
139 189 222
139 189 222
139 189 222
139 189 222
139 189 222
139 189 222
139 189 222
139 189 222
139 189 222
140 189 222
140 189 222
140 189 222
140 189 222
140 189 222
140 190 223
140 190 223
140 190 223
140 190 223
141 190 223
141 190 223
141 190 223
141 190 223
141 190 223
141 190 223
141 190 223
141 190 223
141 190 223
141 190 223
142 190 223
142 190 223
142 190 223
142 191 223
142 191 223
142 191 223
142 191 223
142 191 223
142 191 223
142 191 223
142 191 223
143 191 223
143 191 223
143 191 223
143 191 223
143 191 223
143 191 223
143 191 223
143 191 223
143 191 223
143 191 223
144 192 224
144 192 224
144 192 224
144 192 224
144 192 224
144 192 224
144 192 224
144 192 224
144 192 224
144 192 224
144 192 224
145 192 224
145 192 224
145 192 224
145 192 224
145 192 224
145 192 224
145 192 224
145 192 224
145 192 224
145 193 224
145 193 224
145 193 224
146 193 224
146 193 224
146 193 224
146 193 224
146 193 224
146 193 224
146 193 224
146 193 224
146 193 224
146 193 224
146 193 224
146 193 224
146 193 224
147 193 224
147 193 224
147 193 224
147 193 224
147 193 224
147 193 224
147 194 225
147 194 225
147 194 225
147 194 225
147 194 225
147 194 225
147 194 225
147 194 225
148 194 225
148 194 225
148 194 225
148 194 225
148 194 225
148 194 225
148 194 225
148 194 225
148 194 225
148 194 225
148 194 225
148 194 225
148 194 225
148 194 225
148 194 225
149 194 225
149 194 225
149 195 225
149 195 225
149 195 225
149 195 225
149 194 225
149 194 225
149 194 225
149 194 225
148 194 225
148 194 225
148 194 225
148 194 225
148 194 225
148 194 225
148 194 225
148 194 225
148 194 225
148 194 225
148 194 225
148 194 225
148 194 225
148 194 225
148 194 225
147 194 225
147 194 225
147 194 225
147 194 225
147 194 225
147 194 225
147 194 225
147 193 224
147 193 224
147 193 224
147 193 224
147 193 224
147 193 224
146 193 224
146 193 224
146 193 224
146 193 224
146 193 224
146 193 224
146 193 224
146 193 224
146 193 224
146 193 224
146 193 224
146 193 224
146 193 224
145 193 224
145 193 224
145 193 224
145 192 224
145 192 224
145 192 224
145 192 224
145 192 224
145 192 224
145 192 224
145 192 224
145 192 224
144 192 224
144 192 224
144 192 224
144 192 224
144 192 224
144 192 224
144 192 224
144 192 224
144 192 224
144 192 224
144 192 224
143 191 223
143 191 223
143 191 223
143 191 223
143 191 223
143 191 223
143 191 223
143 191 223
143 191 223
143 191 223
143 191 223
142 191 223
142 191 223
142 191 223
142 191 223
142 191 223
142 191 223
142 191 223
142 190 223
142 190 223
141 190 223
141 190 223
141 190 223
141 190 223
141 190 223
141 190 223
141 190 223
141 190 223
141 190 223
141 190 223
141 190 223
140 190 223
140 190 223
140 190 223
140 190 223
140 189 222
140 189 222
140 189 222
140 189 222
140 189 222
139 189 222
139 189 222
139 189 222
139 189 222
139 189 222
139 189 222
139 189 222
139 189 222
139 189 222
139 189 222
138 189 222
138 189 222
138 188 222
138 188 222
138 188 222
138 188 222
138 188 222
138 188 222
138 188 222
138 188 222
137 188 222
137 188 222
137 188 222
137 188 222
137 188 222
137 188 222
137 188 222
137 188 222
137 188 222
137 188 222
136 187 221
136 187 221
136 187 221
136 187 221
136 187 221
136 187 221
136 187 221
136 187 221
136 187 221
135 186 220
75 108 130
53 79 96
53 78 96
52 81 100
51 79 97
53 79 97
53 79 97
51 78 95
55 82 100
53 78 94
54 81 98
53 80 99
52 78 96
51 77 94
53 78 95
55 80 97
55 81 98
57 84 101
54 81 98
54 79 96
55 80 97
52 78 96
55 81 98
49 76 94
52 78 95
52 79 97
55 79 96
52 78 95
55 81 99
53 79 96
54 79 97
53 78 94
58 84 102
53 79 97
54 80 97
56 81 97
53 77 93
54 79 96
55 81 99
54 79 95
51 77 95
52 78 95
53 80 97
54 79 96
56 83 101
60 86 104
53 78 95
55 80 97
55 80 97
55 81 99
51 75 91
53 80 97
54 79 96
52 77 93
58 84 101
53 78 95
54 80 98
56 82 99
57 83 100
57 82 99
51 77 95
56 81 98
55 83 101
53 79 96
56 82 99
55 80 97
55 81 99
58 84 101
56 81 98
53 79 96
53 79 96
60 84 101
52 78 95
55 81 99
51 78 96
52 77 94
56 82 100
52 78 95
51 76 94
54 81 98
55 81 98
59 86 104
56 80 96
54 80 97
54 80 98
55 82 100
55 80 97
55 80 98
54 81 99
52 78 96
55 82 99
53 80 98
52 77 94
54 80 97
54 80 97
76 109 131
135 186 220
136 187 221
136 187 221
136 187 221
136 187 221
136 187 221
136 187 221
136 187 221
136 187 221
136 187 221
137 188 222
137 188 222
137 188 222
137 188 222
137 188 222
137 188 222
137 188 222
137 188 222
137 188 222
137 188 222
137 188 222
138 188 222
138 188 222
138 188 222
138 188 222
138 188 222
138 188 222
138 188 222
138 189 222
138 189 222
139 189 222
139 189 222
139 189 222
139 189 222
139 189 222
139 189 222
139 189 222
139 189 222
139 189 222
139 189 222
140 189 222
140 189 222
140 189 222
140 189 222
140 189 222
140 190 223
140 190 223
140 190 223
140 190 223
140 190 223
141 190 223
141 190 223
141 190 223
141 190 223
141 190 223
141 190 223
141 190 223
141 190 223
141 190 223
142 190 223
142 190 223
142 190 223
142 191 223
142 191 223
142 191 223
142 191 223
142 191 223
142 191 223
142 191 223
142 191 223
143 191 223
143 191 223
143 191 223
143 191 223
143 191 223
143 191 223
143 191 223
143 191 223
143 191 223
143 191 223
144 192 224
144 192 224
144 192 224
144 192 224
144 192 224
144 192 224
144 192 224
144 192 224
144 192 224
144 192 224
144 192 224
145 192 224
145 192 224
145 192 224
145 192 224
145 192 224
145 192 224
145 192 224
145 192 224
145 192 224
145 193 224
145 193 224
145 193 224
146 193 224
146 193 224
146 193 224
146 193 224
146 193 224
146 193 224
146 193 224
146 193 224
146 193 224
146 193 224
146 193 224
146 193 224
147 193 224
147 193 224
147 193 224
147 193 224
147 193 224
147 193 224
147 193 224
147 194 225
147 194 225
147 194 225
147 194 225
147 194 225
147 194 225
147 194 225
148 194 225
148 194 225
148 194 225
148 194 225
148 194 225
148 194 225
148 194 225
148 194 225
148 194 225
148 194 225
148 194 225
148 194 225
148 194 225
148 194 225
148 194 225
149 194 225
149 194 225
149 194 225
149 194 225
149 195 225
149 195 225
149 195 225
149 195 225
149 195 225
149 195 225
149 195 225
149 195 225
149 195 225
149 195 225
149 195 225
149 195 225
149 195 225
149 195 225
149 195 225
149 194 225
149 194 225
149 194 225
148 194 225
148 194 225
148 194 225
148 194 225
148 194 225
148 194 225
148 194 225
148 194 225
148 194 225
148 194 225
148 194 225
148 194 225
148 194 225
148 194 225
148 194 225
147 194 225
147 194 225
147 194 225
147 194 225
147 194 225
147 194 225
147 194 225
147 193 224
147 193 224
147 193 224
147 193 224
147 193 224
147 193 224
146 193 224
146 193 224
146 193 224
146 193 224
146 193 224
146 193 224
146 193 224
146 193 224
146 193 224
146 193 224
146 193 224
146 193 224
146 193 224
145 193 224
145 193 224
145 192 224
145 192 224
145 192 224
145 192 224
145 192 224
145 192 224
145 192 224
145 192 224
145 192 224
144 192 224
144 192 224
144 192 224
144 192 224
144 192 224
144 192 224
144 192 224
144 192 224
144 192 224
144 192 224
144 192 224
143 191 223
143 191 223
143 191 223
143 191 223
143 191 223
143 191 223
143 191 223
143 191 223
143 191 223
143 191 223
143 191 223
142 191 223
142 191 223
142 191 223
142 191 223
142 191 223
142 191 223
142 191 223
142 190 223
142 190 223
142 190 223
141 190 223
141 190 223
141 190 223
141 190 223
141 190 223
141 190 223
141 190 223
141 190 223
141 190 223
141 190 223
140 190 223
140 190 223
140 190 223
140 190 223
140 190 223
140 189 222
140 189 222
140 189 222
140 189 222
139 189 222
139 189 222
139 189 222
139 189 222
139 189 222
139 189 222
139 189 222
139 189 222
139 189 222
139 189 222
138 189 222
138 189 222
138 189 222
138 188 222
138 188 222
138 188 222
138 188 222
138 188 222
138 188 222
138 188 222
138 188 222
137 188 222
137 188 222
137 188 222
137 188 222
137 188 222
137 188 222
137 188 222
137 188 222
137 188 222
137 188 222
137 188 222
136 187 221
136 187 221
83 118 142
55 82 100
52 78 96
54 79 96
56 82 100
54 81 98
53 79 97
56 82 100
51 76 93
58 83 100
57 83 100
56 82 100
53 78 95
54 81 100
57 83 100
56 82 99
54 80 97
54 81 100
55 81 98
53 79 96
54 81 99
52 79 97
52 78 95
53 78 95
55 81 99
53 79 95
51 75 91
55 80 97
53 79 96
53 77 94
58 83 99
55 80 96
52 77 94
54 78 94
55 80 96
54 80 98
53 79 95
54 79 96
56 81 98
55 81 98
53 78 95
54 81 98
51 76 93
57 82 99
50 76 93
50 76 93
52 76 92
54 79 95
52 77 94
55 81 98
52 77 94
53 80 98
52 77 94
55 81 99
52 77 94
53 80 97
57 83 100
56 82 99
55 79 95
55 81 98
57 82 99
53 79 97
52 78 95
52 77 94
53 77 93
56 82 99
54 79 96
52 78 95
55 81 99
53 78 95
55 81 98
53 80 97
55 83 101
53 79 97
50 77 95
51 76 92
55 81 99
55 81 99
53 79 96
53 79 96
55 81 99
52 79 96
54 80 98
54 80 97
56 81 98
54 79 96
57 81 98
54 81 99
53 79 96
54 80 97
56 80 97
54 81 99
57 82 99
54 80 98
54 80 97
58 85 103
55 81 99
83 119 143
136 187 221
136 187 221
137 188 222
137 188 222
137 188 222
137 188 222
137 188 222
137 188 222
137 188 222
137 188 222
137 188 222
137 188 222
137 188 222
138 188 222
138 188 222
138 188 222
138 188 222
138 188 222
138 188 222
138 188 222
138 188 222
138 189 222
138 189 222
138 189 222
139 189 222
139 189 222
139 189 222
139 189 222
139 189 222
139 189 222
139 189 222
139 189 222
139 189 222
140 189 222
140 189 222
140 189 222
140 189 222
140 189 222
140 190 223
140 190 223
140 190 223
140 190 223
140 190 223
141 190 223
141 190 223
141 190 223
141 190 223
141 190 223
141 190 223
141 190 223
141 190 223
141 190 223
141 190 223
142 190 223
142 190 223
142 190 223
142 191 223
142 191 223
142 191 223
142 191 223
142 191 223
142 191 223
142 191 223
143 191 223
143 191 223
143 191 223
143 191 223
143 191 223
143 191 223
143 191 223
143 191 223
143 191 223
143 191 223
143 191 223
144 192 224
144 192 224
144 192 224
144 192 224
144 192 224
144 192 224
144 192 224
144 192 224
144 192 224
144 192 224
144 192 224
145 192 224
145 192 224
145 192 224
145 192 224
145 192 224
145 192 224
145 192 224
145 192 224
145 192 224
145 193 224
145 193 224
145 193 224
146 193 224
146 193 224
146 193 224
146 193 224
146 193 224
146 193 224
146 193 224
146 193 224
146 193 224
146 193 224
146 193 224
146 193 224
147 193 224
147 193 224
147 193 224
147 193 224
147 193 224
147 193 224
147 194 225
147 194 225
147 194 225
147 194 225
147 194 225
147 194 225
147 194 225
147 194 225
148 194 225
148 194 225
148 194 225
148 194 225
148 194 225
148 194 225
148 194 225
148 194 225
148 194 225
148 194 225
148 194 225
148 194 225
148 194 225
148 194 225
149 194 225
149 194 225
149 194 225
149 194 225
149 195 225
149 195 225
149 195 225
149 195 225
149 195 225
149 195 225
149 195 225
149 195 225
149 195 225
149 195 225
150 195 225
150 195 225
150 195 225
150 195 225
150 195 225
149 195 225
149 195 225
149 195 225
149 195 225
149 195 225
149 195 225
149 195 225
149 195 225
149 195 225
149 195 225
149 195 225
149 195 225
149 194 225
149 194 225
149 194 225
148 194 225
148 194 225
148 194 225
148 194 225
148 194 225
148 194 225
148 194 225
148 194 225
148 194 225
148 194 225
148 194 225
148 194 225
148 194 225
148 194 225
147 194 225
147 194 225
147 194 225
147 194 225
147 194 225
147 194 225
147 194 225
147 193 224
147 193 224
147 193 224
147 193 224
147 193 224
147 193 224
147 193 224
146 193 224
146 193 224
146 193 224
146 193 224
146 193 224
146 193 224
146 193 224
146 193 224
146 193 224
146 193 224
146 193 224
146 193 224
145 193 224
145 193 224
145 193 224
145 192 224
145 192 224
145 192 224
145 192 224
145 192 224
145 192 224
145 192 224
145 192 224
145 192 224
144 192 224
144 192 224
144 192 224
144 192 224
144 192 224
144 192 224
144 192 224
144 192 224
144 192 224
144 192 224
143 191 223
143 191 223
143 191 223
143 191 223
143 191 223
143 191 223
143 191 223
143 191 223
143 191 223
143 191 223
143 191 223
142 191 223
142 191 223
142 191 223
142 191 223
142 191 223
142 191 223
142 191 223
142 190 223
142 190 223
142 190 223
141 190 223
141 190 223
141 190 223
141 190 223
141 190 223
141 190 223
141 190 223
141 190 223
141 190 223
141 190 223
140 190 223
140 190 223
140 190 223
140 190 223
140 190 223
140 189 222
140 189 222
140 189 222
140 189 222
140 189 222
139 189 222
139 189 222
139 189 222
139 189 222
139 189 222
139 189 222
139 189 222
139 189 222
139 189 222
139 189 222
138 189 222
138 189 222
138 189 222
138 188 222
138 188 222
138 188 222
138 188 222
138 188 222
138 188 222
138 188 222
138 188 222
137 188 222
137 188 222
137 188 222
137 188 222
137 188 222
137 188 222
96 135 161
55 82 101
54 80 97
57 83 101
54 81 98
55 83 102
57 82 98
57 84 102
55 81 99
56 81 98
53 79 97
53 79 96
55 81 99
53 80 97
52 78 95
53 79 96
52 77 94
52 77 94
56 81 98
52 77 94
51 77 93
59 85 102
54 78 94
50 74 91
53 79 96
53 78 95
54 80 97
54 79 96
51 77 94
54 79 96
53 78 94
53 79 97
51 75 92
55 80 97
53 77 93
54 81 99
56 82 99
52 77 93
53 78 95
56 80 96
51 76 93
54 80 98
57 82 99
56 82 99
54 79 96
51 76 93
53 78 95
53 79 96
53 79 97
54 79 96
56 82 99
51 77 95
53 80 98
55 80 96
52 77 94
53 78 94
50 74 90
52 78 95
51 76 93
55 82 99
57 84 102
54 81 99
51 75 91
56 81 98
53 78 95
53 79 96
52 77 94
54 80 98
55 82 100
53 78 95
54 80 97
50 75 93
53 79 96
51 77 93
53 78 95
55 80 96
55 80 97
55 80 97
51 76 93
54 81 98
53 78 94
52 77 94
56 82 99
53 79 96
53 79 96
54 80 97
53 78 95
55 81 99
54 79 96
51 76 92
54 80 97
54 80 97
54 80 97
53 79 97
55 81 98
54 82 101
57 83 101
57 83 100
52 78 96
94 132 158
137 188 222
137 188 222
137 188 222
137 188 222
137 188 222
137 188 222
138 188 222
138 188 222
138 188 222
138 188 222
138 188 222
138 188 222
138 188 222
138 188 222
138 189 222
138 189 222
138 189 222
139 189 222
139 189 222
139 189 222
139 189 222
139 189 222
139 189 222
139 189 222
139 189 222
139 189 222
139 189 222
140 189 222
140 189 222
140 189 222
140 189 222
140 189 222
140 190 223
140 190 223
140 190 223
140 190 223
140 190 223
141 190 223
141 190 223
141 190 223
141 190 223
141 190 223
141 190 223
141 190 223
141 190 223
141 190 223
141 190 223
142 190 223
142 190 223
142 190 223
142 191 223
142 191 223
142 191 223
142 191 223
142 191 223
142 191 223
142 191 223
143 191 223
143 191 223
143 191 223
143 191 223
143 191 223
143 191 223
143 191 223
143 191 223
143 191 223
143 191 223
144 192 224
144 192 224
144 192 224
144 192 224
144 192 224
144 192 224
144 192 224
144 192 224
144 192 224
144 192 224
144 192 224
144 192 224
145 192 224
145 192 224
145 192 224
145 192 224
145 192 224
145 192 224
145 192 224
145 192 224
145 193 224
145 193 224
145 193 224
146 193 224
146 193 224
146 193 224
146 193 224
146 193 224
146 193 224
146 193 224
146 193 224
146 193 224
146 193 224
146 193 224
146 193 224
146 193 224
147 193 224
147 193 224
147 193 224
147 193 224
147 193 224
147 193 224
147 194 225
147 194 225
147 194 225
147 194 225
147 194 225
147 194 225
147 194 225
148 194 225
148 194 225
148 194 225
148 194 225
148 194 225
148 194 225
148 194 225
148 194 225
148 194 225
148 194 225
148 194 225
148 194 225
148 194 225
148 194 225
149 194 225
149 194 225
149 194 225
149 194 225
149 195 225
149 195 225
149 195 225
149 195 225
149 195 225
149 195 225
149 195 225
149 195 225
149 195 225
149 195 225
149 195 225
149 195 225
150 195 225
150 195 225
150 195 225
150 195 225
150 195 225
150 195 225
150 195 225
150 195 225
150 195 225
150 195 225
150 195 225
150 195 225
150 195 225
150 195 225
149 195 225
149 195 225
149 195 225
149 195 225
149 195 225
149 195 225
149 195 225
149 195 225
149 195 225
149 195 225
149 195 225
149 195 225
149 194 225
149 194 225
149 194 225
149 194 225
148 194 225
148 194 225
148 194 225
148 194 225
148 194 225
148 194 225
148 194 225
148 194 225
148 194 225
148 194 225
148 194 225
148 194 225
148 194 225
148 194 225
147 194 225
147 194 225
147 194 225
147 194 225
147 194 225
147 194 225
147 194 225
147 193 224
147 193 224
147 193 224
147 193 224
147 193 224
147 193 224
146 193 224
146 193 224
146 193 224
146 193 224
146 193 224
146 193 224
146 193 224
146 193 224
146 193 224
146 193 224
146 193 224
146 193 224
145 193 224
145 193 224
145 193 224
145 192 224
145 192 224
145 192 224
145 192 224
145 192 224
145 192 224
145 192 224
145 192 224
145 192 224
144 192 224
144 192 224
144 192 224
144 192 224
144 192 224
144 192 224
144 192 224
144 192 224
144 192 224
144 192 224
144 192 224
143 191 223
143 191 223
143 191 223
143 191 223
143 191 223
143 191 223
143 191 223
143 191 223
143 191 223
143 191 223
142 191 223
142 191 223
142 191 223
142 191 223
142 191 223
142 191 223
142 191 223
142 191 223
142 190 223
142 190 223
142 190 223
141 190 223
141 190 223
141 190 223
141 190 223
141 190 223
141 190 223
141 190 223
141 190 223
141 190 223
141 190 223
140 190 223
140 190 223
140 190 223
140 190 223
140 190 223
140 189 222
140 189 222
140 189 222
140 189 222
140 189 222
139 189 222
139 189 222
139 189 222
139 189 222
139 189 222
139 189 222
139 189 222
139 189 222
139 189 222
139 189 222
139 189 222
138 189 222
138 189 222
138 188 222
138 188 222
138 188 222
138 188 222
138 188 222
138 188 222
138 188 222
108 150 177
53 79 97
55 80 98
56 82 99
51 77 94
51 77 95
55 81 99
53 80 98
53 78 94
53 81 99
57 83 100
56 82 99
53 78 95
54 80 97
54 80 97
50 75 92
54 80 97
54 82 100
53 78 95
54 80 97
52 78 95
50 75 92
54 79 95
52 77 93
52 77 94
52 77 94
58 84 101
52 77 94
53 77 94
56 80 97
54 79 96
52 78 94
56 81 99
52 76 93
53 79 95
52 78 95
48 74 91
51 77 94
49 75 92
57 82 100
53 79 96
53 79 97
53 77 93
55 81 98
54 80 96
52 77 94
52 76 92
59 85 102
51 75 90
54 79 95
50 75 92
54 81 99
52 77 94
53 78 95
50 75 92
56 81 97
53 79 96
56 81 97
52 77 94
53 79 96
53 78 95
52 78 95
51 78 95
55 81 98
48 72 87
54 81 98
53 79 96
55 81 98
50 76 93
53 76 92
52 78 96
55 80 97
56 81 97
53 79 96
54 78 93
55 82 100
52 76 93
52 77 94
54 79 96
52 77 94
54 80 97
56 79 95
54 82 100
52 76 92
53 78 95
51 75 92
50 75 92
56 81 97
53 79 97
60 86 103
49 74 91
55 82 99
52 77 93
52 78 96
52 78 96
52 77 93
53 80 97
53 79 96
57 83 101
52 77 94
55 81 98
111 154 182
138 188 222
138 188 222
138 188 222
138 188 222
138 188 222
138 188 222
138 188 222
138 189 222
138 189 222
138 189 222
139 189 222
139 189 222
139 189 222
139 189 222
139 189 222
139 189 222
139 189 222
139 189 222
139 189 222
139 189 222
140 189 222
140 189 222
140 189 222
140 189 222
140 189 222
140 190 223
140 190 223
140 190 223
140 190 223
140 190 223
141 190 223
141 190 223
141 190 223
141 190 223
141 190 223
141 190 223
141 190 223
141 190 223
141 190 223
141 190 223
142 190 223
142 190 223
142 190 223
142 191 223
142 191 223
142 191 223
142 191 223
142 191 223
142 191 223
142 191 223
143 191 223
143 191 223
143 191 223
143 191 223
143 191 223
143 191 223
143 191 223
143 191 223
143 191 223
143 191 223
143 191 223
144 192 224
144 192 224
144 192 224
144 192 224
144 192 224
144 192 224
144 192 224
144 192 224
144 192 224
144 192 224
144 192 224
145 192 224
145 192 224
145 192 224
145 192 224
145 192 224
145 192 224
145 192 224
145 192 224
145 192 224
145 193 224
145 193 224
146 193 224
146 193 224
146 193 224
146 193 224
146 193 224
146 193 224
146 193 224
146 193 224
146 193 224
146 193 224
146 193 224
146 193 224
147 193 224
147 193 224
147 193 224
147 193 224
147 193 224
147 193 224
147 193 224
147 194 225
147 194 225
147 194 225
147 194 225
147 194 225
147 194 225
148 194 225
148 194 225
148 194 225
148 194 225
148 194 225
148 194 225
148 194 225
148 194 225
148 194 225
148 194 225
148 194 225
148 194 225
148 194 225
148 194 225
148 194 225
149 194 225
149 194 225
149 194 225
149 194 225
149 195 225
149 195 225
149 195 225
149 195 225
149 195 225
149 195 225
149 195 225
149 195 225
149 195 225
149 195 225
149 195 225
150 195 225
150 195 225
150 195 225
150 195 225
150 195 225
150 195 225
150 195 225
150 195 225
150 195 225
150 195 225
150 195 225
150 195 225
150 195 225
150 195 225
150 195 225
150 195 225
150 195 225
150 195 225
150 195 225
150 195 225
150 195 225
150 195 225
150 195 225
150 195 225
150 195 225
150 195 225
150 195 225
150 195 225
149 195 225
149 195 225
149 195 225
149 195 225
149 195 225
149 195 225
149 195 225
149 195 225
149 195 225
149 195 225
149 195 225
149 195 225
149 194 225
149 194 225
149 194 225
148 194 225
148 194 225
148 194 225
148 194 225
148 194 225
148 194 225
148 194 225
148 194 225
148 194 225
148 194 225
148 194 225
148 194 225
148 194 225
148 194 225
147 194 225
147 194 225
147 194 225
147 194 225
147 194 225
147 194 225
147 194 225
147 193 224
147 193 224
147 193 224
147 193 224
147 193 224
147 193 224
146 193 224
146 193 224
146 193 224
146 193 224
146 193 224
146 193 224
146 193 224
146 193 224
146 193 224
146 193 224
146 193 224
146 193 224
145 193 224
145 193 224
145 193 224
145 192 224
145 192 224
145 192 224
145 192 224
145 192 224
145 192 224
145 192 224
145 192 224
145 192 224
144 192 224
144 192 224
144 192 224
144 192 224
144 192 224
144 192 224
144 192 224
144 192 224
144 192 224
144 192 224
144 192 224
143 191 223
143 191 223
143 191 223
143 191 223
143 191 223
143 191 223
143 191 223
143 191 223
143 191 223
143 191 223
142 191 223
142 191 223
142 191 223
142 191 223
142 191 223
142 191 223
142 191 223
142 191 223
142 190 223
142 190 223
142 190 223
141 190 223
141 190 223
141 190 223
141 190 223
141 190 223
141 190 223
141 190 223
141 190 223
141 190 223
141 190 223
140 190 223
140 190 223
140 190 223
140 190 223
140 190 223
140 189 222
140 189 222
140 189 222
140 189 222
140 189 222
139 189 222
139 189 222
139 189 222
139 189 222
139 189 222
139 189 222
139 189 222
139 189 222
139 189 222
139 189 222
139 189 222
138 189 222
138 189 222
112 155 184
61 90 109
51 77 94
55 80 97
52 78 95
53 78 95
54 80 98
55 82 100
55 82 101
54 80 97
56 81 98
56 83 101
55 80 97
53 78 95
54 78 94
51 77 94
57 82 99
56 81 98
53 78 96
53 78 94
58 83 100
50 75 91
52 78 95
52 77 94
53 77 94
52 77 94
53 79 96
55 80 97
54 79 95
50 75 91
51 77 94
52 77 94
51 77 94
54 78 94
55 80 96
51 75 91
51 77 94
57 82 100
49 73 89
59 83 99
52 77 93
52 77 94
54 79 95
56 81 97
53 77 94
58 83 99
54 78 95
54 78 94
55 79 96
53 78 94
55 80 96
53 78 94
54 80 97
53 79 95
54 79 96
53 78 94
52 75 90
55 80 97
54 78 95
51 77 94
54 80 97
50 75 92
53 78 95
53 79 97
54 79 95
54 78 94
52 78 95
52 76 93
52 77 94
53 78 94
51 77 94
55 80 96
55 80 97
55 80 98
58 82 99
52 78 95
52 78 95
54 79 96
55 81 98
57 84 101
51 75 91
52 78 96
57 83 100
55 81 99
48 73 90
52 76 92
51 77 95
54 78 94
56 82 100
54 79 96
56 81 98
53 77 92
51 76 92
55 81 97
50 76 93
50 75 92
55 78 94
52 78 95
54 79 95
55 81 99
50 75 92
51 77 94
59 85 103
123 169 199
138 189 222
139 189 222
139 189 222
139 189 222
139 189 222
139 189 222
139 189 222
139 189 222
139 189 222
139 189 222
139 189 222
139 189 222
139 189 222
140 189 222
140 189 222
140 189 222
140 189 222
140 189 222
140 190 223
140 190 223
140 190 223
140 190 223
140 190 223
141 190 223
141 190 223
141 190 223
141 190 223
141 190 223
141 190 223
141 190 223
141 190 223
141 190 223
141 190 223
141 190 223
142 190 223
142 190 223
142 191 223
142 191 223
142 191 223
142 191 223
142 191 223
142 191 223
142 191 223
142 191 223
143 191 223
143 191 223
143 191 223
143 191 223
143 191 223
143 191 223
143 191 223
143 191 223
143 191 223
143 191 223
144 192 224
144 192 224
144 192 224
144 192 224
144 192 224
144 192 224
144 192 224
144 192 224
144 192 224
144 192 224
144 192 224
144 192 224
145 192 224
145 192 224
145 192 224
145 192 224
145 192 224
145 192 224
145 192 224
145 192 224
145 193 224
145 193 224
145 193 224
146 193 224
146 193 224
146 193 224
146 193 224
146 193 224
146 193 224
146 193 224
146 193 224
146 193 224
146 193 224
146 193 224
146 193 224
147 193 224
147 193 224
147 193 224
147 193 224
147 193 224
147 193 224
147 194 225
147 194 225
147 194 225
147 194 225
147 194 225
147 194 225
147 194 225
148 194 225
148 194 225
148 194 225
148 194 225
148 194 225
148 194 225
148 194 225
148 194 225
148 194 225
148 194 225
148 194 225
148 194 225
148 194 225
148 194 225
149 194 225
149 194 225
149 194 225
149 194 225
149 195 225
149 195 225
149 195 225
149 195 225
149 195 225
149 195 225
149 195 225
149 195 225
149 195 225
149 195 225
149 195 225
150 195 225
150 195 225
150 195 225
150 195 225
150 195 225
150 195 225
150 195 225
150 195 225
150 195 225
150 195 225
150 195 225
150 195 225
150 195 225
150 195 225
150 195 225
150 195 225
150 195 225
151 196 226
151 196 226
151 196 226
151 196 226
151 196 226
151 196 226
151 196 226
150 195 225
150 195 225
150 195 225
150 195 225
150 195 225
150 195 225
150 195 225
150 195 225
150 195 225
150 195 225
150 195 225
150 195 225
150 195 225
150 195 225
150 195 225
150 195 225
149 195 225
149 195 225
149 195 225
149 195 225
149 195 225
149 195 225
149 195 225
149 195 225
149 195 225
149 195 225
149 195 225
149 195 225
149 194 225
149 194 225
149 194 225
148 194 225
148 194 225
148 194 225
148 194 225
148 194 225
148 194 225
148 194 225
148 194 225
148 194 225
148 194 225
148 194 225
148 194 225
148 194 225
148 194 225
147 194 225
147 194 225
147 194 225
147 194 225
147 194 225
147 194 225
147 194 225
147 193 224
147 193 224
147 193 224
147 193 224
147 193 224
147 193 224
146 193 224
146 193 224
146 193 224
146 193 224
146 193 224
146 193 224
146 193 224
146 193 224
146 193 224
146 193 224
146 193 224
146 193 224
145 193 224
145 193 224
145 193 224
145 192 224
145 192 224
145 192 224
145 192 224
145 192 224
145 192 224
145 192 224
145 192 224
145 192 224
144 192 224
144 192 224
144 192 224
144 192 224
144 192 224
144 192 224
144 192 224
144 192 224
144 192 224
144 192 224
143 191 223
143 191 223
143 191 223
143 191 223
143 191 223
143 191 223
143 191 223
143 191 223
143 191 223
143 191 223
143 191 223
142 191 223
142 191 223
142 191 223
142 191 223
142 191 223
142 191 223
142 191 223
142 191 223
142 190 223
142 190 223
142 190 223
141 190 223
141 190 223
141 190 223
141 190 223
141 190 223
141 190 223
141 190 223
141 190 223
141 190 223
141 190 223
140 190 223
140 190 223
140 190 223
140 190 223
140 190 223
140 189 222
140 189 222
140 189 222
140 189 222
140 189 222
140 189 222
139 189 222
139 189 222
139 189 222
139 189 222
139 189 222
134 182 214
62 90 108
55 81 99
55 80 97
57 83 100
57 81 98
53 77 93
56 83 100
53 79 97
55 82 99
54 79 96
53 79 96
57 83 100
59 84 101
50 74 90
56 82 99
52 78 95
52 77 94
55 81 98
54 79 96
55 79 95
51 77 95
55 81 98
52 79 96
51 76 92
51 75 91
52 78 94
53 78 94
54 79 95
54 78 95
53 79 97
53 78 95
53 77 93
55 80 97
52 75 90
51 76 93
52 77 94
55 80 98
50 74 90
53 76 92
55 80 97
54 79 95
54 79 95
58 82 99
56 82 99
52 78 95
52 75 91
54 79 95
53 78 95
51 77 95
51 76 93
53 80 97
52 77 93
52 78 96
51 76 92
54 79 95
53 77 93
56 81 97
51 74 89
53 79 96
53 78 95
55 80 97
53 77 93
54 78 94
54 80 97
53 78 95
53 79 96
57 82 99
52 76 93
54 79 96
56 82 100
56 81 98
54 80 97
54 80 97
51 76 93
54 79 96
54 80 97
54 77 93
49 74 91
54 79 96
56 80 96
52 78 95
51 76 92
54 80 97
57 83 101
57 83 100
53 78 94
51 76 92
54 79 95
54 80 98
57 84 102
55 80 97
53 79 96
54 81 98
56 82 99
55 81 98
57 82 99
55 81 98
54 78 95
50 76 93
50 75 92
53 80 98
52 79 96
56 82 99
65 96 116
135 184 216
139 189 222
139 189 222
139 189 222
139 189 222
140 189 222
140 189 222
140 189 222
140 189 222
140 189 222
140 189 222
140 189 222
140 190 223
140 190 223
140 190 223
140 190 223
140 190 223
141 190 223
141 190 223
141 190 223
141 190 223
141 190 223
141 190 223
141 190 223
141 190 223
141 190 223
141 190 223
141 190 223
142 190 223
142 190 223
142 191 223
142 191 223
142 191 223
142 191 223
142 191 223
142 191 223
142 191 223
142 191 223
143 191 223
143 191 223
143 191 223
143 191 223
143 191 223
143 191 223
143 191 223
143 191 223
143 191 223
143 191 223
143 191 223
144 192 224
144 192 224
144 192 224
144 192 224
144 192 224
144 192 224
144 192 224
144 192 224
144 192 224
144 192 224
144 192 224
145 192 224
145 192 224
145 192 224
145 192 224
145 192 224
145 192 224
145 192 224
145 192 224
145 193 224
145 193 224
145 193 224
146 193 224
146 193 224
146 193 224
146 193 224
146 193 224
146 193 224
146 193 224
146 193 224
146 193 224
146 193 224
146 193 224
146 193 224
147 193 224
147 193 224
147 193 224
147 193 224
147 193 224
147 193 224
147 193 224
147 194 225
147 194 225
147 194 225
147 194 225
147 194 225
147 194 225
148 194 225
148 194 225
148 194 225
148 194 225
148 194 225
148 194 225
148 194 225
148 194 225
148 194 225
148 194 225
148 194 225
148 194 225
148 194 225
148 194 225
149 194 225
149 194 225
149 194 225
149 195 225
149 195 225
149 195 225
149 195 225
149 195 225
149 195 225
149 195 225
149 195 225
149 195 225
149 195 225
149 195 225
149 195 225
150 195 225
150 195 225
150 195 225
150 195 225
150 195 225
150 195 225
150 195 225
150 195 225
150 195 225
150 195 225
150 195 225
150 195 225
150 195 225
150 195 225
150 195 225
150 195 225
151 196 226
151 196 226
151 196 226
151 196 226
151 196 226
151 196 226
151 196 226
151 196 226
151 196 226
151 196 226
151 196 226
151 196 226
151 196 226
151 196 226
151 196 226
151 196 226
151 196 226
151 196 226
151 196 226
151 196 226
151 196 226
150 195 225
150 195 225
150 195 225
150 195 225
150 195 225
150 195 225
150 195 225
150 195 225
150 195 225
150 195 225
150 195 225
150 195 225
150 195 225
150 195 225
150 195 225
150 195 225
149 195 225
149 195 225
149 195 225
149 195 225
149 195 225
149 195 225
149 195 225
149 195 225
149 195 225
149 195 225
149 195 225
149 194 225
149 194 225
149 194 225
148 194 225
148 194 225
148 194 225
148 194 225
148 194 225
148 194 225
148 194 225
148 194 225
148 194 225
148 194 225
148 194 225
148 194 225
148 194 225
148 194 225
147 194 225
147 194 225
147 194 225
147 194 225
147 194 225
147 194 225
147 193 224
147 193 224
147 193 224
147 193 224
147 193 224
147 193 224
147 193 224
146 193 224
146 193 224
146 193 224
146 193 224
146 193 224
146 193 224
146 193 224
146 193 224
146 193 224
146 193 224
146 193 224
146 193 224
145 193 224
145 193 224
145 193 224
145 192 224
145 192 224
145 192 224
145 192 224
145 192 224
145 192 224
145 192 224
145 192 224
144 192 224
144 192 224
144 192 224
144 192 224
144 192 224
144 192 224
144 192 224
144 192 224
144 192 224
144 192 224
144 192 224
143 191 223
143 191 223
143 191 223
143 191 223
143 191 223
143 191 223
143 191 223
143 191 223
143 191 223
143 191 223
143 191 223
142 191 223
142 191 223
142 191 223
142 191 223
142 191 223
142 191 223
142 191 223
142 191 223
142 190 223
142 190 223
142 190 223
141 190 223
141 190 223
141 190 223
141 190 223
141 190 223
141 190 223
141 190 223
141 190 223
141 190 223
141 190 223
141 190 223
140 190 223
140 190 223
140 190 223
140 190 223
140 190 223
140 190 223
140 189 222
140 189 222
140 189 222
79 112 134
55 81 98
55 82 99
51 77 95
56 81 98
51 77 94
52 77 94
50 76 94
55 81 98
50 76 92
51 77 94
54 79 95
56 82 100
51 76 93
53 78 95
57 81 97
52 77 94
57 83 100
58 82 99
52 77 94
52 77 94
55 80 96
54 78 95
54 80 97
55 81 98
52 76 92
54 80 97
60 85 101
55 80 96
55 79 95
55 79 95
53 78 95
53 77 93
55 79 95
55 81 97
57 82 99
54 79 95
53 77 93
53 77 93
51 75 91
52 76 91
53 79 96
52 78 95
53 79 96
53 78 94
54 78 94
54 78 95
54 79 95
52 76 93
54 79 95
49 75 92
55 81 98
51 76 92
53 77 94
51 78 96
52 77 94
53 77 93
55 81 98
53 78 94
54 79 96
51 74 90
53 79 95
56 81 97
50 75 93
54 80 97
54 78 94
52 76 92
53 78 95
53 78 94
54 79 96
51 75 90
52 77 94
53 78 95
53 78 95
53 80 98
55 79 96
53 77 93
54 80 97
53 78 94
49 74 91
52 78 95
54 79 96
51 76 93
54 80 97
53 77 94
53 77 94
52 77 94
51 77 95
54 78 94
52 76 92
52 79 96
55 79 95
54 78 94
55 79 96
53 79 97
53 79 96
51 77 95
54 78 94
54 79 96
52 77 94
55 81 99
56 82 99
52 76 92
52 79 96
54 79 96
84 119 141
140 189 222
140 189 222
140 189 222
140 189 222
140 190 223
140 190 223
140 190 223
140 190 223
140 190 223
141 190 223
141 190 223
141 190 223
141 190 223
141 190 223
141 190 223
141 190 223
141 190 223
141 190 223
141 190 223
141 190 223
141 190 223
142 190 223
142 190 223
142 191 223
142 191 223
142 191 223
142 191 223
142 191 223
142 191 223
142 191 223
142 191 223
143 191 223
143 191 223
143 191 223
143 191 223
143 191 223
143 191 223
143 191 223
143 191 223
143 191 223
143 191 223
143 191 223
144 192 224
144 192 224
144 192 224
144 192 224
144 192 224
144 192 224
144 192 224
144 192 224
144 192 224
144 192 224
144 192 224
145 192 224
145 192 224
145 192 224
145 192 224
145 192 224
145 192 224
145 192 224
145 192 224
145 192 224
145 193 224
145 193 224
146 193 224
146 193 224
146 193 224
146 193 224
146 193 224
146 193 224
146 193 224
146 193 224
146 193 224
146 193 224
146 193 224
146 193 224
147 193 224
147 193 224
147 193 224
147 193 224
147 193 224
147 193 224
147 193 224
147 194 225
147 194 225
147 194 225
147 194 225
147 194 225
147 194 225
148 194 225
148 194 225
148 194 225
148 194 225
148 194 225
148 194 225
148 194 225
148 194 225
148 194 225
148 194 225
148 194 225
148 194 225
148 194 225
148 194 225
149 194 225
149 194 225
149 194 225
149 195 225
149 195 225
149 195 225
149 195 225
149 195 225
149 195 225
149 195 225
149 195 225
149 195 225
149 195 225
149 195 225
150 195 225
150 195 225
150 195 225
150 195 225
150 195 225
150 195 225
150 195 225
150 195 225
150 195 225
150 195 225
150 195 225
150 195 225
150 195 225
150 195 225
150 195 225
150 195 225
150 195 225
151 196 226
151 196 226
151 196 226
151 196 226
151 196 226
151 196 226
151 196 226
151 196 226
151 196 226
151 196 226
151 196 226
151 196 226
151 196 226
152 196 226
152 196 226
151 196 226
151 196 226
151 196 226
151 196 226
151 196 226
151 196 226
151 196 226
151 196 226
151 196 226
151 196 226
151 196 226
151 196 226
151 196 226
151 196 226
151 196 226
151 196 226
151 196 226
151 196 226
150 195 225
150 195 225
150 195 225
150 195 225
150 195 225
150 195 225
150 195 225
150 195 225
150 195 225
150 195 225
150 195 225
150 195 225
150 195 225
150 195 225
150 195 225
150 195 225
149 195 225
149 195 225
149 195 225
149 195 225
149 195 225
149 195 225
149 195 225
149 195 225
149 195 225
149 195 225
149 195 225
149 194 225
149 194 225
149 194 225
149 194 225
148 194 225
148 194 225
148 194 225
148 194 225
148 194 225
148 194 225
148 194 225
148 194 225
148 194 225
148 194 225
148 194 225
148 194 225
148 194 225
147 194 225
147 194 225
147 194 225
147 194 225
147 194 225
147 194 225
147 194 225
147 193 224
147 193 224
147 193 224
147 193 224
147 193 224
147 193 224
146 193 224
146 193 224
146 193 224
146 193 224
146 193 224
146 193 224
146 193 224
146 193 224
146 193 224
146 193 224
146 193 224
145 193 224
145 193 224
145 193 224
145 193 224
145 192 224
145 192 224
145 192 224
145 192 224
145 192 224
145 192 224
145 192 224
145 192 224
144 192 224
144 192 224
144 192 224
144 192 224
144 192 224
144 192 224
144 192 224
144 192 224
144 192 224
144 192 224
144 192 224
143 191 223
143 191 223
143 191 223
143 191 223
143 191 223
143 191 223
143 191 223
143 191 223
143 191 223
143 191 223
143 191 223
142 191 223
142 191 223
142 191 223
142 191 223
142 191 223
142 191 223
142 191 223
142 191 223
142 190 223
142 190 223
142 190 223
142 190 223
141 190 223
141 190 223
141 190 223
141 190 223
141 190 223
141 190 223
141 190 223
141 190 223
141 190 223
141 190 223
141 190 223
140 190 223
107 147 174
59 83 100
54 79 96
48 73 89
53 79 97
56 83 100
53 79 97
53 78 95
54 81 98
58 83 99
55 80 96
51 76 92
54 79 96
56 82 99
54 80 97
54 79 96
52 77 94
55 81 98
54 80 97
53 78 94
56 81 97
54 79 96
56 82 99
56 81 98
54 80 98
52 76 93
51 77 95
52 76 92
54 79 95
53 77 93
50 74 91
56 80 96
55 80 96
50 76 93
53 78 95
52 78 95
53 77 93
54 79 95
50 75 91
53 78 95
52 76 92
48 72 89
50 75 92
52 77 94
51 77 94
53 77 93
51 76 93
53 78 94
54 78 95
51 76 93
54 78 94
52 76 93
53 77 92
53 79 96
57 82 98
52 77 94
52 77 93
55 82 100
53 78 95
54 80 97
52 77 93
54 79 96
54 78 95
52 78 95
54 77 92
53 76 91
55 80 97
52 77 93
53 77 93
55 81 98
49 75 91
52 78 95
54 79 96
55 80 97
55 82 100
52 75 91
55 81 98
56 80 96
55 80 98
48 73 90
52 77 94
51 76 92
53 78 95
54 79 96
50 75 91
57 82 99
53 80 98
53 77 94
49 72 88
55 81 98
53 78 94
57 83 100
51 77 95
51 77 94
55 80 97
53 78 94
52 77 93
50 76 94
53 77 93
51 76 92
57 82 99
51 79 98
52 77 94
53 79 96
54 80 97
57 82 100
55 80 97
106 147 174
140 190 223
141 190 223
141 190 223
141 190 223
141 190 223
141 190 223
141 190 223
141 190 223
141 190 223
141 190 223
141 190 223
141 190 223
141 190 223
142 190 223
142 190 223
142 191 223
142 191 223
142 191 223
142 191 223
142 191 223
142 191 223
142 191 223
142 191 223
142 191 223
143 191 223
143 191 223
143 191 223
143 191 223
143 191 223
143 191 223
143 191 223
143 191 223
143 191 223
143 191 223
143 191 223
144 192 224
144 192 224
144 192 224
144 192 224
144 192 224
144 192 224
144 192 224
144 192 224
144 192 224
144 192 224
144 192 224
145 192 224
145 192 224
145 192 224
145 192 224
145 192 224
145 192 224
145 192 224
145 192 224
145 193 224
145 193 224
145 193 224
146 193 224
146 193 224
146 193 224
146 193 224
146 193 224
146 193 224
146 193 224
146 193 224
146 193 224
146 193 224
146 193 224
146 193 224
147 193 224
147 193 224
147 193 224
147 193 224
147 193 224
147 193 224
147 194 225
147 194 225
147 194 225
147 194 225
147 194 225
147 194 225
147 194 225
148 194 225
148 194 225
148 194 225
148 194 225
148 194 225
148 194 225
148 194 225
148 194 225
148 194 225
148 194 225
148 194 225
148 194 225
148 194 225
149 194 225
149 194 225
149 194 225
149 194 225
149 195 225
149 195 225
149 195 225
149 195 225
149 195 225
149 195 225
149 195 225
149 195 225
149 195 225
149 195 225
149 195 225
150 195 225
150 195 225
150 195 225
150 195 225
150 195 225
150 195 225
150 195 225
150 195 225
150 195 225
150 195 225
150 195 225
150 195 225
150 195 225
150 195 225
150 195 225
150 195 225
151 196 226
151 196 226
151 196 226
151 196 226
151 196 226
151 196 226
151 196 226
151 196 226
151 196 226
151 196 226
151 196 226
151 196 226
151 196 226
151 196 226
151 196 226
151 196 226
151 196 226
152 196 226
152 196 226
152 196 226
152 196 226
152 196 226
152 196 226
152 196 226
152 196 226
152 196 226
152 196 226
152 196 226
152 196 226
152 196 226
151 196 226
151 196 226
151 196 226
151 196 226
151 196 226
151 196 226
151 196 226
151 196 226
151 196 226
151 196 226
151 196 226
151 196 226
151 196 226
151 196 226
151 196 226
151 196 226
151 196 226
150 195 225
150 195 225
150 195 225
150 195 225
150 195 225
150 195 225
150 195 225
150 195 225
150 195 225
150 195 225
150 195 225
150 195 225
150 195 225
150 195 225
150 195 225
150 195 225
149 195 225
149 195 225
149 195 225
149 195 225
149 195 225
149 195 225
149 195 225
149 195 225
149 195 225
149 195 225
149 194 225
149 194 225
149 194 225
149 194 225
148 194 225
148 194 225
148 194 225
148 194 225
148 194 225
148 194 225
148 194 225
148 194 225
148 194 225
148 194 225
148 194 225
148 194 225
148 194 225
148 194 225
147 194 225
147 194 225
147 194 225
147 194 225
147 194 225
147 194 225
147 193 224
147 193 224
147 193 224
147 193 224
147 193 224
147 193 224
146 193 224
146 193 224
146 193 224
146 193 224
146 193 224
146 193 224
146 193 224
146 193 224
146 193 224
146 193 224
146 193 224
146 193 224
145 193 224
145 193 224
145 193 224
145 192 224
145 192 224
145 192 224
145 192 224
145 192 224
145 192 224
145 192 224
145 192 224
144 192 224
144 192 224
144 192 224
144 192 224
144 192 224
144 192 224
144 192 224
144 192 224
144 192 224
144 192 224
144 192 224
144 192 224
143 191 223
143 191 223
143 191 223
143 191 223
143 191 223
143 191 223
143 191 223
143 191 223
143 191 223
143 191 223
143 191 223
142 191 223
142 191 223
142 191 223
142 191 223
142 191 223
142 191 223
142 191 223
142 191 223
142 191 223
142 190 223
142 190 223
142 190 223
141 190 223
141 190 223
141 190 223
141 190 223
129 175 205
58 83 101
51 78 97
55 80 98
52 77 94
51 76 93
57 83 100
55 80 97
52 77 93
51 76 93
55 81 98
55 80 96
55 79 96
56 81 98
54 80 96
53 78 96
56 81 97
51 77 94
54 80 97
51 75 91
59 84 101
55 79 96
56 81 98
56 81 98
54 79 96
52 77 94
51 76 93
54 79 95
53 78 94
52 77 94
51 75 92
55 80 96
53 78 95
51 76 92
54 79 96
54 80 97
53 79 96
54 78 95
52 76 92
52 78 94
53 78 95
51 76 93
54 79 96
52 76 93
55 79 96
51 76 93
53 77 94
48 72 89
52 75 90
51 76 92
50 73 88
53 78 94
52 77 94
57 83 101
56 81 97
50 76 94
57 82 99
53 79 97
52 76 92
52 76 93
50 74 90
55 80 97
53 77 94
51 74 90
55 79 96
52 77 94
51 77 94
54 79 95
54 78 95
55 80 97
54 79 95
53 78 94
57 82 98
53 77 94
56 82 99
55 79 96
53 78 96
52 77 94
55 80 98
54 80 98
52 77 94
50 75 91
53 79 96
54 78 93
54 80 97
52 76 93
54 79 96
55 81 98
47 71 87
54 81 98
51 76 92
52 77 94
53 77 93
53 78 94
50 75 91
54 80 98
58 84 102
51 77 94
52 78 95
55 80 96
50 77 94
52 78 95
54 79 96
54 79 96
54 80 97
54 81 99
54 82 100
51 76 93
60 87 105
130 177 208
141 190 223
141 190 223
141 190 223
141 190 223
142 190 223
142 190 223
142 190 223
142 191 223
142 191 223
142 191 223
142 191 223
142 191 223
142 191 223
142 191 223
142 191 223
142 191 223
143 191 223
143 191 223
143 191 223
143 191 223
143 191 223
143 191 223
143 191 223
143 191 223
143 191 223
143 191 223
143 191 223
143 191 223
144 192 224
144 192 224
144 192 224
144 192 224
144 192 224
144 192 224
144 192 224
144 192 224
144 192 224
144 192 224
144 192 224
145 192 224
145 192 224
145 192 224
145 192 224
145 192 224
145 192 224
145 192 224
145 192 224
145 193 224
145 193 224
145 193 224
146 193 224
146 193 224
146 193 224
146 193 224
146 193 224
146 193 224
146 193 224
146 193 224
146 193 224
146 193 224
146 193 224
146 193 224
147 193 224
147 193 224
147 193 224
147 193 224
147 193 224
147 193 224
147 194 225
147 194 225
147 194 225
147 194 225
147 194 225
147 194 225
148 194 225
148 194 225
148 194 225
148 194 225
148 194 225
148 194 225
148 194 225
148 194 225
148 194 225
148 194 225
148 194 225
148 194 225
148 194 225
148 194 225
149 194 225
149 194 225
149 194 225
149 195 225
149 195 225
149 195 225
149 195 225
149 195 225
149 195 225
149 195 225
149 195 225
149 195 225
149 195 225
149 195 225
150 195 225
150 195 225
150 195 225
150 195 225
150 195 225
150 195 225
150 195 225
150 195 225
150 195 225
150 195 225
150 195 225
150 195 225
150 195 225
150 195 225
150 195 225
150 195 225
151 196 226
151 196 226
151 196 226
151 196 226
151 196 226
151 196 226
151 196 226
151 196 226
151 196 226
151 196 226
151 196 226
151 196 226
151 196 226
151 196 226
151 196 226
151 196 226
151 196 226
152 196 226
152 196 226
152 196 226
152 196 226
152 196 226
152 196 226
152 196 226
152 196 226
152 196 226
152 196 226
152 197 226
152 197 226
152 197 226
152 196 226
152 196 226
152 196 226
152 196 226
152 196 226
152 196 226
152 196 226
152 196 226
152 196 226
152 196 226
152 196 226
152 196 226
152 196 226
152 196 226
152 196 226
151 196 226
151 196 226
151 196 226
151 196 226
151 196 226
151 196 226
151 196 226
151 196 226
151 196 226
151 196 226
151 196 226
151 196 226
151 196 226
151 196 226
151 196 226
151 196 226
150 195 225
150 195 225
150 195 225
150 195 225
150 195 225
150 195 225
150 195 225
150 195 225
150 195 225
150 195 225
150 195 225
150 195 225
150 195 225
150 195 225
150 195 225
149 195 225
149 195 225
149 195 225
149 195 225
149 195 225
149 195 225
149 195 225
149 195 225
149 195 225
149 195 225
149 195 225
149 194 225
149 194 225
149 194 225
149 194 225
148 194 225
148 194 225
148 194 225
148 194 225
148 194 225
148 194 225
148 194 225
148 194 225
148 194 225
148 194 225
148 194 225
148 194 225
148 194 225
147 194 225
147 194 225
147 194 225
147 194 225
147 194 225
147 194 225
147 194 225
147 193 224
147 193 224
147 193 224
147 193 224
147 193 224
146 193 224
146 193 224
146 193 224
146 193 224
146 193 224
146 193 224
146 193 224
146 193 224
146 193 224
146 193 224
146 193 224
146 193 224
145 193 224
145 193 224
145 193 224
145 192 224
145 192 224
145 192 224
145 192 224
145 192 224
145 192 224
145 192 224
145 192 224
145 192 224
144 192 224
144 192 224
144 192 224
144 192 224
144 192 224
144 192 224
144 192 224
144 192 224
144 192 224
144 192 224
144 192 224
144 192 224
143 191 223
143 191 223
143 191 223
143 191 223
143 191 223
143 191 223
143 191 223
143 191 223
143 191 223
143 191 223
143 191 223
142 191 223
142 191 223
142 191 223
142 191 223
142 191 223
142 191 223
142 191 223
142 191 223
142 191 223
78 110 131
54 79 96
54 80 98
50 75 92
53 77 92
50 73 89
51 76 93
49 73 89
55 82 100
54 79 96
59 83 99
54 79 96
58 82 98
54 78 94
50 75 92
52 76 93
53 79 96
54 80 97
54 80 97
53 79 96
51 75 91
56 81 97
53 78 95
55 80 96
54 77 93
54 78 94
54 79 96
52 77 94
55 79 95
52 77 93
52 78 95
54 79 95
55 81 98
53 78 95
49 73 89
54 81 98
51 76 93
50 73 89
55 79 95
53 76 92
55 79 95
53 77 92
53 78 95
52 77 93
54 79 96
55 81 98
52 75 91
53 76 91
50 75 92
51 77 94
51 75 92
52 76 91
50 74 89
52 77 94
53 79 96
49 73 89
56 81 97
52 75 90
52 76 92
57 82 99
53 76 92
55 78 94
52 78 95
53 76 92
51 76 93
53 77 94
56 79 94
55 80 97
51 75 91
52 78 95
54 80 97
54 77 92
53 77 93
52 78 95
55 80 96
52 76 92
53 77 93
57 82 99
53 77 93
54 79 95
51 74 90
49 76 93
52 76 93
51 76 92
58 82 98
56 80 97
54 79 96
52 77 94
52 76 93
53 77 94
54 79 96
52 78 95
53 79 96
53 80 98
54 78 94
55 80 97
51 76 92
52 76 92
55 80 97
54 80 97
52 78 95
54 80 97
55 80 96
54 79 96
55 80 98
53 78 95
49 75 92
53 78 96
56 82 99
79 111 133
142 191 223
142 191 223
142 191 223
142 191 223
142 191 223
142 191 223
142 191 223
142 191 223
142 191 223
143 191 223
143 191 223
143 191 223
143 191 223
143 191 223
143 191 223
143 191 223
143 191 223
143 191 223
143 191 223
143 191 223
143 191 223
144 192 224
144 192 224
144 192 224
144 192 224
144 192 224
144 192 224
144 192 224
144 192 224
144 192 224
144 192 224
144 192 224
145 192 224
145 192 224
145 192 224
145 192 224
145 192 224
145 192 224
145 192 224
145 192 224
145 192 224
145 193 224
145 193 224
145 193 224
146 193 224
146 193 224
146 193 224
146 193 224
146 193 224
146 193 224
146 193 224
146 193 224
146 193 224
146 193 224
146 193 224
146 193 224
147 193 224
147 193 224
147 193 224
147 193 224
147 193 224
147 193 224
147 194 225
147 194 225
147 194 225
147 194 225
147 194 225
147 194 225
148 194 225
148 194 225
148 194 225
148 194 225
148 194 225
148 194 225
148 194 225
148 194 225
148 194 225
148 194 225
148 194 225
148 194 225
148 194 225
149 194 225
149 194 225
149 194 225
149 194 225
149 195 225
149 195 225
149 195 225
149 195 225
149 195 225
149 195 225
149 195 225
149 195 225
149 195 225
149 195 225
150 195 225
150 195 225
150 195 225
150 195 225
150 195 225
150 195 225
150 195 225
150 195 225
150 195 225
150 195 225
150 195 225
150 195 225
150 195 225
150 195 225
150 195 225
150 195 225
151 196 226
151 196 226
151 196 226
151 196 226
151 196 226
151 196 226
151 196 226
151 196 226
151 196 226
151 196 226
151 196 226
151 196 226
151 196 226
151 196 226
151 196 226
151 196 226
151 196 226
152 196 226
152 196 226
152 196 226
152 196 226
152 196 226
152 196 226
152 196 226
152 196 226
152 196 226
152 196 226
152 196 226
152 196 226
152 196 226
152 196 226
152 197 226
152 197 226
152 197 226
153 197 226
153 197 226
153 197 226
153 197 226
153 197 226
152 197 226
152 197 226
152 197 226
152 197 226
152 197 226
152 197 226
152 196 226
152 196 226
152 196 226
152 196 226
152 196 226
152 196 226
152 196 226
152 196 226
152 196 226
152 196 226
152 196 226
152 196 226
152 196 226
151 196 226
151 196 226
151 196 226
151 196 226
151 196 226
151 196 226
151 196 226
151 196 226
151 196 226
151 196 226
151 196 226
151 196 226
151 196 226
151 196 226
151 196 226
151 196 226
151 196 226
150 195 225
150 195 225
150 195 225
150 195 225
150 195 225
150 195 225
150 195 225
150 195 225
150 195 225
150 195 225
150 195 225
150 195 225
150 195 225
150 195 225
150 195 225
149 195 225
149 195 225
149 195 225
149 195 225
149 195 225
149 195 225
149 195 225
149 195 225
149 195 225
149 195 225
149 195 225
149 194 225
149 194 225
149 194 225
148 194 225
148 194 225
148 194 225
148 194 225
148 194 225
148 194 225
148 194 225
148 194 225
148 194 225
148 194 225
148 194 225
148 194 225
148 194 225
148 194 225
147 194 225
147 194 225
147 194 225
147 194 225
147 194 225
147 194 225
147 193 224
147 193 224
147 193 224
147 193 224
147 193 224
147 193 224
146 193 224
146 193 224
146 193 224
146 193 224
146 193 224
146 193 224
146 193 224
146 193 224
146 193 224
146 193 224
146 193 224
146 193 224
145 193 224
145 193 224
145 193 224
145 192 224
145 192 224
145 192 224
145 192 224
145 192 224
145 192 224
145 192 224
145 192 224
145 192 224
144 192 224
144 192 224
144 192 224
144 192 224
144 192 224
144 192 224
144 192 224
144 192 224
144 192 224
144 192 224
144 192 224
144 192 224
143 191 223
143 191 223
143 191 223
143 191 223
143 191 223
143 191 223
143 191 223
143 191 223
143 191 223
143 191 223
143 191 223
143 191 223
110 150 177
52 79 96
55 80 97
52 77 94
56 83 101
55 80 97
54 79 95
51 76 93
55 81 98
54 79 95
53 78 94
53 78 94
52 77 93
55 81 99
55 80 97
54 78 94
51 75 92
55 81 98
55 80 98
53 79 96
57 82 99
52 77 94
53 77 93
52 76 91
51 75 91
54 78 94
56 79 95
53 76 92
54 79 95
54 79 95
53 79 96
53 77 93
51 76 93
54 79 96
54 78 94
49 74 91
49 73 90
49 73 90
51 76 93
53 79 96
54 78 94
51 75 91
55 80 97
51 76 92
51 76 92
52 75 91
54 79 96
53 79 96
53 78 95
52 76 93
55 80 96
53 78 95
53 77 93
55 80 97
57 82 99
51 77 94
50 74 91
53 79 97
55 80 96
52 77 93
50 74 90
50 73 89
52 77 93
53 77 93
51 75 91
52 76 92
51 76 93
51 75 91
52 77 93
51 74 90
52 77 93
50 75 91
54 78 94
49 74 91
53 77 93
52 77 93
55 80 96
57 82 98
53 78 94
52 77 94
49 73 89
56 82 100
52 76 92
52 77 93
55 79 95
52 77 94
53 78 94
49 74 90
55 80 96
50 75 92
55 80 96
54 80 97
51 77 94
49 74 91
54 78 95
55 79 95
55 81 98
53 77 94
55 79 95
49 74 90
53 78 94
53 80 97
54 79 96
52 78 95
53 79 96
50 74 90
56 81 98
51 76 92
53 78 94
56 82 99
58 84 101
120 162 191
143 191 223
143 191 223
143 191 223
143 191 223
143 191 223
143 191 223
143 191 223
143 191 223
143 191 223
143 191 223
143 191 223
143 191 223
143 191 223
144 192 224
144 192 224
144 192 224
144 192 224
144 192 224
144 192 224
144 192 224
144 192 224
144 192 224
144 192 224
144 192 224
145 192 224
145 192 224
145 192 224
145 192 224
145 192 224
145 192 224
145 192 224
145 192 224
145 192 224
145 193 224
145 193 224
145 193 224
146 193 224
146 193 224
146 193 224
146 193 224
146 193 224
146 193 224
146 193 224
146 193 224
146 193 224
146 193 224
146 193 224
146 193 224
147 193 224
147 193 224
147 193 224
147 193 224
147 193 224
147 193 224
147 194 225
147 194 225
147 194 225
147 194 225
147 194 225
147 194 225
147 194 225
148 194 225
148 194 225
148 194 225
148 194 225
148 194 225
148 194 225
148 194 225
148 194 225
148 194 225
148 194 225
148 194 225
148 194 225
148 194 225
149 194 225
149 194 225
149 194 225
149 195 225
149 195 225
149 195 225
149 195 225
149 195 225
149 195 225
149 195 225
149 195 225
149 195 225
149 195 225
149 195 225
150 195 225
150 195 225
150 195 225
150 195 225
150 195 225
150 195 225
150 195 225
150 195 225
150 195 225
150 195 225
150 195 225
150 195 225
150 195 225
150 195 225
150 195 225
151 196 226
151 196 226
151 196 226
151 196 226
151 196 226
151 196 226
151 196 226
151 196 226
151 196 226
151 196 226
151 196 226
151 196 226
151 196 226
151 196 226
151 196 226
151 196 226
151 196 226
152 196 226
152 196 226
152 196 226
152 196 226
152 196 226
152 196 226
152 196 226
152 196 226
152 196 226
152 196 226
152 196 226
152 196 226
152 196 226
152 196 226
152 197 226
152 197 226
152 197 226
152 197 226
153 197 226
153 197 226
153 197 226
153 197 226
153 197 226
153 197 226
153 197 226
153 197 226
153 197 226
153 197 226
153 197 226
153 197 226
153 197 226
153 197 226
153 197 226
153 197 226
153 197 226
153 197 226
153 197 226
152 197 226
152 197 226
152 197 226
152 197 226
152 197 226
152 196 226
152 196 226
152 196 226
152 196 226
152 196 226
152 196 226
152 196 226
152 196 226
152 196 226
152 196 226
152 196 226
152 196 226
152 196 226
151 196 226
151 196 226
151 196 226
151 196 226
151 196 226
151 196 226
151 196 226
151 196 226
151 196 226
151 196 226
151 196 226
151 196 226
151 196 226
151 196 226
151 196 226
151 196 226
151 196 226
150 195 225
150 195 225
150 195 225
150 195 225
150 195 225
150 195 225
150 195 225
150 195 225
150 195 225
150 195 225
150 195 225
150 195 225
150 195 225
150 195 225
150 195 225
149 195 225
149 195 225
149 195 225
149 195 225
149 195 225
149 195 225
149 195 225
149 195 225
149 195 225
149 195 225
149 195 225
149 194 225
149 194 225
149 194 225
148 194 225
148 194 225
148 194 225
148 194 225
148 194 225
148 194 225
148 194 225
148 194 225
148 194 225
148 194 225
148 194 225
148 194 225
148 194 225
147 194 225
147 194 225
147 194 225
147 194 225
147 194 225
147 194 225
147 193 224
147 193 224
147 193 224
147 193 224
147 193 224
147 193 224
147 193 224
146 193 224
146 193 224
146 193 224
146 193 224
146 193 224
146 193 224
146 193 224
146 193 224
146 193 224
146 193 224
146 193 224
146 193 224
145 193 224
145 193 224
145 193 224
145 192 224
145 192 224
145 192 224
145 192 224
145 192 224
145 192 224
145 192 224
145 192 224
145 192 224
144 192 224
144 192 224
144 192 224
144 192 224
144 192 224
144 192 224
144 192 224
144 192 224
144 192 224
144 192 224
144 192 224
144 192 224
144 192 224
143 191 223
143 191 223
143 191 223
139 186 217
64 91 108
54 79 96
54 80 97
56 82 99
54 78 94
53 77 93
54 79 96
49 74 91
47 70 85
51 75 91
56 82 99
51 77 94
52 76 92
51 76 93
49 75 92
56 80 97
50 75 92
51 77 93
57 81 98
54 78 94
53 78 94
54 79 95
57 83 100
52 76 92
55 79 95
52 78 95
53 78 94
53 76 92
51 76 93
55 80 97
48 71 86
53 79 95
56 82 99
54 78 95
53 77 94
53 77 92
52 77 93
54 78 94
57 81 97
55 79 95
51 76 92
55 79 94
55 79 94
53 77 93
54 78 95
55 80 96
53 78 95
52 75 91
52 78 95
54 80 97
51 77 95
53 77 93
46 70 87
53 77 93
49 74 90
55 79 96
53 79 96
52 78 95
52 77 93
52 75 91
51 75 90
52 77 93
53 77 93
53 76 92
53 77 94
51 76 92
55 80 96
53 78 95
56 80 96
54 79 95
53 77 94
53 79 96
52 76 93
52 77 94
51 75 91
53 77 94
57 82 98
53 77 93
54 78 94
50 73 89
56 80 96
56 80 96
51 76 92
52 77 94
49 73 89
52 76 92
55 78 94
50 74 90
54 79 95
53 79 96
56 81 97
53 76 91
56 81 97
56 80 97
50 75 92
52 77 94
55 81 98
56 83 100
53 77 93
53 79 95
55 80 96
52 77 94
55 80 97
53 78 95
53 78 94
50 76 94
54 79 95
54 79 95
51 76 93
51 76 92
55 80 98
64 93 112
140 187 219
143 191 223
143 191 223
143 191 223
143 191 223
144 192 224
144 192 224
144 192 224
144 192 224
144 192 224
144 192 224
144 192 224
144 192 224
144 192 224
144 192 224
144 192 224
144 192 224
145 192 224
145 192 224
145 192 224
145 192 224
145 192 224
145 192 224
145 192 224
145 192 224
145 192 224
145 193 224
145 193 224
145 193 224
146 193 224
146 193 224
146 193 224
146 193 224
146 193 224
146 193 224
146 193 224
146 193 224
146 193 224
146 193 224
146 193 224
146 193 224
147 193 224
147 193 224
147 193 224
147 193 224
147 193 224
147 193 224
147 193 224
147 194 225
147 194 225
147 194 225
147 194 225
147 194 225
147 194 225
148 194 225
148 194 225
148 194 225
148 194 225
148 194 225
148 194 225
148 194 225
148 194 225
148 194 225
148 194 225
148 194 225
148 194 225
148 194 225
149 194 225
149 194 225
149 194 225
149 195 225
149 195 225
149 195 225
149 195 225
149 195 225
149 195 225
149 195 225
149 195 225
149 195 225
149 195 225
149 195 225
150 195 225
150 195 225
150 195 225
150 195 225
150 195 225
150 195 225
150 195 225
150 195 225
150 195 225
150 195 225
150 195 225
150 195 225
150 195 225
150 195 225
150 195 225
151 196 226
151 196 226
151 196 226
151 196 226
151 196 226
151 196 226
151 196 226
151 196 226
151 196 226
151 196 226
151 196 226
151 196 226
151 196 226
151 196 226
151 196 226
151 196 226
151 196 226
152 196 226
152 196 226
152 196 226
152 196 226
152 196 226
152 196 226
152 196 226
152 196 226
152 196 226
152 196 226
152 196 226
152 196 226
152 196 226
152 197 226
152 197 226
152 197 226
152 197 226
152 197 226
153 197 226
153 197 226
153 197 226
153 197 226
153 197 226
153 197 226
153 197 226
153 197 226
153 197 226
153 197 226
153 197 226
153 197 226
153 197 226
153 197 226
153 197 226
153 197 226
153 197 226
153 197 226
153 197 226
153 197 226
153 197 226
153 197 226
153 197 226
153 197 226
153 197 226
153 197 226
153 197 226
153 197 226
153 197 226
153 197 226
153 197 226
153 197 226
153 197 226
153 197 226
152 197 226
152 197 226
152 197 226
152 197 226
152 197 226
152 196 226
152 196 226
152 196 226
152 196 226
152 196 226
152 196 226
152 196 226
152 196 226
152 196 226
152 196 226
152 196 226
152 196 226
152 196 226
151 196 226
151 196 226
151 196 226
151 196 226
151 196 226
151 196 226
151 196 226
151 196 226
151 196 226
151 196 226
151 196 226
151 196 226
151 196 226
151 196 226
151 196 226
151 196 226
150 195 225
150 195 225
150 195 225
150 195 225
150 195 225
150 195 225
150 195 225
150 195 225
150 195 225
150 195 225
150 195 225
150 195 225
150 195 225
150 195 225
150 195 225
149 195 225
149 195 225
149 195 225
149 195 225
149 195 225
149 195 225
149 195 225
149 195 225
149 195 225
149 195 225
149 195 225
149 194 225
149 194 225
148 194 225
148 194 225
148 194 225
148 194 225
148 194 225
148 194 225
148 194 225
148 194 225
148 194 225
148 194 225
148 194 225
148 194 225
148 194 225
148 194 225
147 194 225
147 194 225
147 194 225
147 194 225
147 194 225
147 194 225
147 193 224
147 193 224
147 193 224
147 193 224
147 193 224
147 193 224
147 193 224
146 193 224
146 193 224
146 193 224
146 193 224
146 193 224
146 193 224
146 193 224
146 193 224
146 193 224
146 193 224
146 193 224
146 193 224
145 193 224
145 193 224
145 193 224
145 192 224
145 192 224
145 192 224
145 192 224
145 192 224
145 192 224
145 192 224
145 192 224
145 192 224
145 192 224
144 192 224
144 192 224
144 192 224
144 192 224
144 192 224
144 192 224
144 192 224
144 192 224
100 137 162
52 77 94
50 74 91
51 76 92
55 80 97
52 77 94
55 80 97
53 79 97
54 80 96
52 78 96
49 75 92
52 76 92
53 78 94
54 78 94
49 73 88
52 76 93
50 73 89
52 78 96
52 77 93
52 77 94
52 76 93
52 75 91
50 74 89
51 76 93
52 77 94
54 78 93
49 74 90
56 80 96
54 78 94
49 74 90
50 74 90
53 77 93
56 80 96
52 75 91
54 79 95
48 73 89
53 77 93
51 76 93
53 79 96
52 76 92
52 75 91
54 78 94
53 78 95
53 78 94
51 75 91
56 80 97
53 77 93
50 74 90
53 75 90
50 74 89
56 80 97
52 75 91
50 74 90
56 81 98
54 80 98
51 74 89
51 76 93
48 72 88
52 77 93
53 78 95
53 77 94
54 78 95
52 75 90
51 76 93
51 75 90
52 78 96
55 80 97
47 70 85
51 75 91
53 77 93
51 76 92
53 78 94
51 76 93
52 77 93
53 78 94
54 79 96
50 74 90
53 76 92
50 75 92
57 82 99
51 77 95
52 76 92
50 74 90
54 80 98
54 79 95
51 76 92
52 76 92
58 83 100
51 74 89
52 77 94
54 78 95
51 75 91
57 82 99
50 75 92
52 75 91
52 75 91
55 80 96
55 80 96
51 77 94
50 75 91
53 79 95
50 75 91
56 80 96
52 77 93
52 77 93
54 78 94
54 79 96
54 80 97
54 79 96
50 75 91
52 78 96
51 77 94
53 78 95
100 137 162
144 192 224
144 192 224
144 192 224
144 192 224
144 192 224
144 192 224
144 192 224
144 192 224
145 192 224
145 192 224
145 192 224
145 192 224
145 192 224
145 192 224
145 192 224
145 192 224
145 192 224
145 192 224
145 193 224
145 193 224
145 193 224
146 193 224
146 193 224
146 193 224
146 193 224
146 193 224
146 193 224
146 193 224
146 193 224
146 193 224
146 193 224
146 193 224
146 193 224
147 193 224
147 193 224
147 193 224
147 193 224
147 193 224
147 193 224
147 193 224
147 194 225
147 194 225
147 194 225
147 194 225
147 194 225
147 194 225
148 194 225
148 194 225
148 194 225
148 194 225
148 194 225
148 194 225
148 194 225
148 194 225
148 194 225
148 194 225
148 194 225
148 194 225
148 194 225
149 194 225
149 194 225
149 194 225
149 195 225
149 195 225
149 195 225
149 195 225
149 195 225
149 195 225
149 195 225
149 195 225
149 195 225
149 195 225
149 195 225
150 195 225
150 195 225
150 195 225
150 195 225
150 195 225
150 195 225
150 195 225
150 195 225
150 195 225
150 195 225
150 195 225
150 195 225
150 195 225
150 195 225
150 195 225
151 196 226
151 196 226
151 196 226
151 196 226
151 196 226
151 196 226
151 196 226
151 196 226
151 196 226
151 196 226
151 196 226
151 196 226
151 196 226
151 196 226
151 196 226
151 196 226
152 196 226
152 196 226
152 196 226
152 196 226
152 196 226
152 196 226
152 196 226
152 196 226
152 196 226
152 196 226
152 196 226
152 196 226
152 196 226
152 196 226
152 197 226
152 197 226
152 197 226
152 197 226
153 197 226
153 197 226
153 197 226
153 197 226
153 197 226
153 197 226
153 197 226
153 197 226
153 197 226
153 197 226
153 197 226
153 197 226
153 197 226
153 197 226
153 197 226
153 197 226
153 197 226
153 197 226
153 197 226
153 197 226
153 197 226
154 197 226
154 197 226
154 197 226
154 197 226
154 197 226
154 197 226
154 197 226
154 197 226
154 197 226
153 197 226
153 197 226
153 197 226
153 197 226
153 197 226
153 197 226
153 197 226
153 197 226
153 197 226
153 197 226
153 197 226
153 197 226
153 197 226
153 197 226
153 197 226
153 197 226
153 197 226
153 197 226
153 197 226
152 197 226
152 197 226
152 197 226
152 197 226
152 197 226
152 196 226
152 196 226
152 196 226
152 196 226
152 196 226
152 196 226
152 196 226
152 196 226
152 196 226
152 196 226
152 196 226
152 196 226
152 196 226
151 196 226
151 196 226
151 196 226
151 196 226
151 196 226
151 196 226
151 196 226
151 196 226
151 196 226
151 196 226
151 196 226
151 196 226
151 196 226
151 196 226
151 196 226
151 196 226
151 196 226
150 195 225
150 195 225
150 195 225
150 195 225
150 195 225
150 195 225
150 195 225
150 195 225
150 195 225
150 195 225
150 195 225
150 195 225
150 195 225
150 195 225
150 195 225
149 195 225
149 195 225
149 195 225
149 195 225
149 195 225
149 195 225
149 195 225
149 195 225
149 195 225
149 195 225
149 194 225
149 194 225
149 194 225
148 194 225
148 194 225
148 194 225
148 194 225
148 194 225
148 194 225
148 194 225
148 194 225
148 194 225
148 194 225
148 194 225
148 194 225
148 194 225
148 194 225
147 194 225
147 194 225
147 194 225
147 194 225
147 194 225
147 194 225
147 193 224
147 193 224
147 193 224
147 193 224
147 193 224
147 193 224
146 193 224
146 193 224
146 193 224
146 193 224
146 193 224
146 193 224
146 193 224
146 193 224
146 193 224
146 193 224
146 193 224
146 193 224
145 193 224
145 193 224
145 193 224
145 193 224
145 192 224
145 192 224
145 192 224
145 192 224
145 192 224
145 192 224
145 192 224
145 192 224
145 192 224
135 181 211
54 79 96
55 81 97
56 83 101
51 76 93
52 77 93
52 77 93
54 78 95
52 77 94
58 81 97
54 78 94
52 75 91
53 78 94
55 79 95
53 79 96
55 79 95
49 72 87
53 77 93
54 79 95
53 78 95
52 77 93
55 78 94
58 83 99
53 77 93
52 77 94
53 78 94
52 75 91
55 79 96
53 79 95
52 77 93
55 80 96
51 77 93
52 77 93
53 76 92
52 75 91
53 79 96
54 79 96
52 76 92
54 78 94
51 76 93
52 77 94
54 79 95
52 78 95
52 76 92
52 76 91
54 79 95
49 73 90
59 83 99
51 76 93
57 83 100
49 72 87
51 75 91
52 76 92
53 78 94
55 80 98
50 73 88
52 75 90
53 75 90
52 76 92
55 79 95
56 80 96
53 77 93
50 73 89
48 73 89
51 76 92
53 77 93
49 73 88
49 73 89
52 75 91
53 77 93
50 75 91
53 77 93
53 76 91
58 83 100
52 77 93
53 76 92
50 74 90
54 80 97
56 81 97
51 75 92
54 78 94
53 78 95
53 79 96
54 78 95
49 73 89
55 79 94
53 77 92
50 74 91
53 77 93
55 80 97
56 81 97
49 74 91
49 74 90
52 77 93
50 74 90
50 74 90
51 75 91
51 74 90
53 78 95
53 77 94
51 77 94
55 80 97
50 75 91
52 76 92
53 77 93
54 79 96
52 75 91
52 77 94
55 79 95
54 80 97
54 79 96
51 76 93
51 76 92
52 77 93
59 84 101
133 178 208
145 192 224
145 192 224
145 192 224
145 192 224
145 192 224
145 192 224
145 192 224
145 192 224
145 193 224
145 193 224
145 193 224
145 193 224
146 193 224
146 193 224
146 193 224
146 193 224
146 193 224
146 193 224
146 193 224
146 193 224
146 193 224
146 193 224
146 193 224
146 193 224
146 193 224
147 193 224
147 193 224
147 193 224
147 193 224
147 193 224
147 193 224
147 194 225
147 194 225
147 194 225
147 194 225
147 194 225
147 194 225
148 194 225
148 194 225
148 194 225
148 194 225
148 194 225
148 194 225
148 194 225
148 194 225
148 194 225
148 194 225
148 194 225
148 194 225
148 194 225
148 194 225
149 194 225
149 194 225
149 194 225
149 194 225
149 195 225
149 195 225
149 195 225
149 195 225
149 195 225
149 195 225
149 195 225
149 195 225
149 195 225
149 195 225
150 195 225
150 195 225
150 195 225
150 195 225
150 195 225
150 195 225
150 195 225
150 195 225
150 195 225
150 195 225
150 195 225
150 195 225
150 195 225
150 195 225
151 196 226
151 196 226
151 196 226
151 196 226
151 196 226
151 196 226
151 196 226
151 196 226
151 196 226
151 196 226
151 196 226
151 196 226
151 196 226
151 196 226
151 196 226
151 196 226
151 196 226
152 196 226
152 196 226
152 196 226
152 196 226
152 196 226
152 196 226
152 196 226
152 196 226
152 196 226
152 196 226
152 196 226
152 196 226
152 197 226
152 197 226
152 197 226
152 197 226
152 197 226
152 197 226
153 197 226
153 197 226
153 197 226
153 197 226
153 197 226
153 197 226
153 197 226
153 197 226
153 197 226
153 197 226
153 197 226
153 197 226
153 197 226
153 197 226
153 197 226
153 197 226
153 197 226
153 197 226
153 197 226
154 197 226
154 197 226
154 197 226
154 197 226
154 197 226
154 197 226
154 197 226
154 197 226
154 197 226
154 198 227
154 198 227
154 198 227
154 198 227
154 198 227
154 198 227
154 197 226
154 197 226
154 197 226
154 197 226
154 197 226
154 197 226
154 197 226
154 197 226
154 197 226
154 197 226
154 197 226
153 197 226
153 197 226
153 197 226
153 197 226
153 197 226
153 197 226
153 197 226
153 197 226
153 197 226
153 197 226
153 197 226
153 197 226
153 197 226
153 197 226
153 197 226
153 197 226
153 197 226
153 197 226
153 197 226
152 197 226
152 197 226
152 197 226
152 197 226
152 197 226
152 196 226
152 196 226
152 196 226
152 196 226
152 196 226
152 196 226
152 196 226
152 196 226
152 196 226
152 196 226
152 196 226
152 196 226
152 196 226
151 196 226
151 196 226
151 196 226
151 196 226
151 196 226
151 196 226
151 196 226
151 196 226
151 196 226
151 196 226
151 196 226
151 196 226
151 196 226
151 196 226
151 196 226
151 196 226
150 195 225
150 195 225
150 195 225
150 195 225
150 195 225
150 195 225
150 195 225
150 195 225
150 195 225
150 195 225
150 195 225
150 195 225
150 195 225
150 195 225
150 195 225
149 195 225
149 195 225
149 195 225
149 195 225
149 195 225
149 195 225
149 195 225
149 195 225
149 195 225
149 195 225
149 194 225
149 194 225
149 194 225
148 194 225
148 194 225
148 194 225
148 194 225
148 194 225
148 194 225
148 194 225
148 194 225
148 194 225
148 194 225
148 194 225
148 194 225
148 194 225
148 194 225
147 194 225
147 194 225
147 194 225
147 194 225
147 194 225
147 194 225
147 194 225
147 193 224
147 193 224
147 193 224
147 193 224
147 193 224
147 193 224
146 193 224
146 193 224
146 193 224
146 193 224
146 193 224
146 193 224
146 193 224
146 193 224
146 193 224
146 193 224
146 193 224
146 193 224
146 193 224
146 193 224
145 193 224
145 193 224
145 193 224
102 138 163
53 78 94
50 76 93
52 76 93
54 79 95
55 79 96
53 80 98
48 71 86
52 77 94
56 81 97
52 77 93
52 77 93
55 79 95
53 77 93
53 77 93
52 77 93
54 78 94
55 79 95
54 79 95
53 77 92
49 74 90
52 78 94
52 77 94
55 80 96
51 75 92
56 80 96
49 72 87
52 76 92
52 76 92
51 76 92
52 76 93
53 76 91
55 80 96
51 75 90
57 81 97
49 74 90
54 79 95
47 71 88
54 79 95
51 75 91
54 77 93
53 77 93
55 78 94
53 77 94
55 78 94
54 79 95
51 75 90
53 78 95
50 75 91
54 78 94
50 74 90
52 77 94
54 77 92
51 75 91
51 75 91
50 74 90
52 76 92
50 74 90
57 81 97
52 77 94
52 77 94
51 75 91
54 79 95
52 74 89
51 75 91
52 76 91
51 75 91
49 73 88
53 78 94
53 77 94
55 81 98
48 72 87
54 78 94
51 74 90
48 72 88
54 80 97
51 74 89
51 75 91
53 77 93
54 78 95
53 78 94
52 76 92
53 77 93
52 76 92
54 78 95
51 76 93
50 74 90
55 79 95
55 80 96
51 74 89
50 75 91
53 77 92
52 76 92
54 78 95
51 76 92
52 76 92
51 74 90
53 77 94
55 79 94
50 74 89
51 74 89
56 80 96
49 74 90
54 79 96
51 76 92
53 79 97
51 75 91
55 80 97
50 74 91
54 77 93
51 77 95
54 78 94
54 80 98
53 79 96
51 76 92
86 119 141
145 193 224
145 193 224
145 193 224
145 193 224
146 193 224
146 193 224
146 193 224
146 193 224
146 193 224
146 193 224
146 193 224
146 193 224
146 193 224
146 193 224
146 193 224
146 193 224
146 193 224
147 193 224
147 193 224
147 193 224
147 193 224
147 193 224
147 193 224
147 194 225
147 194 225
147 194 225
147 194 225
147 194 225
147 194 225
147 194 225
148 194 225
148 194 225
148 194 225
148 194 225
148 194 225
148 194 225
148 194 225
148 194 225
148 194 225
148 194 225
148 194 225
148 194 225
148 194 225
148 194 225
149 194 225
149 194 225
149 194 225
149 195 225
149 195 225
149 195 225
149 195 225
149 195 225
149 195 225
149 195 225
149 195 225
149 195 225
149 195 225
149 195 225
150 195 225
150 195 225
150 195 225
150 195 225
150 195 225
150 195 225
150 195 225
150 195 225
150 195 225
150 195 225
150 195 225
150 195 225
150 195 225
150 195 225
151 196 226
151 196 226
151 196 226
151 196 226
151 196 226
151 196 226
151 196 226
151 196 226
151 196 226
151 196 226
151 196 226
151 196 226
151 196 226
151 196 226
151 196 226
151 196 226
152 196 226
152 196 226
152 196 226
152 196 226
152 196 226
152 196 226
152 196 226
152 196 226
152 196 226
152 196 226
152 196 226
152 196 226
152 196 226
152 197 226
152 197 226
152 197 226
152 197 226
153 197 226
153 197 226
153 197 226
153 197 226
153 197 226
153 197 226
153 197 226
153 197 226
153 197 226
153 197 226
153 197 226
153 197 226
153 197 226
153 197 226
153 197 226
153 197 226
153 197 226
153 197 226
153 197 226
153 197 226
154 197 226
154 197 226
154 197 226
154 197 226
154 197 226
154 197 226
154 197 226
154 197 226
154 197 226
154 197 226
154 197 226
154 198 227
154 198 227
154 198 227
154 198 227
154 198 227
154 198 227
155 198 227
155 198 227
155 198 227
155 198 227
154 198 227
154 198 227
154 198 227
154 198 227
154 198 227
154 198 227
154 198 227
154 198 227
154 198 227
154 198 227
154 198 227
154 197 226
154 197 226
154 197 226
154 197 226
154 197 226
154 197 226
154 197 226
154 197 226
154 197 226
154 197 226
153 197 226
153 197 226
153 197 226
153 197 226
153 197 226
153 197 226
153 197 226
153 197 226
153 197 226
153 197 226
153 197 226
153 197 226
153 197 226
153 197 226
153 197 226
153 197 226
153 197 226
153 197 226
153 197 226
153 197 226
152 197 226
152 197 226
152 197 226
152 197 226
152 196 226
152 196 226
152 196 226
152 196 226
152 196 226
152 196 226
152 196 226
152 196 226
152 196 226
152 196 226
152 196 226
152 196 226
152 196 226
151 196 226
151 196 226
151 196 226
151 196 226
151 196 226
151 196 226
151 196 226
151 196 226
151 196 226
151 196 226
151 196 226
151 196 226
151 196 226
151 196 226
151 196 226
150 195 225
150 195 225
150 195 225
150 195 225
150 195 225
150 195 225
150 195 225
150 195 225
150 195 225
150 195 225
150 195 225
150 195 225
150 195 225
150 195 225
150 195 225
150 195 225
149 195 225
149 195 225
149 195 225
149 195 225
149 195 225
149 195 225
149 195 225
149 195 225
149 195 225
149 195 225
149 194 225
149 194 225
149 194 225
148 194 225
148 194 225
148 194 225
148 194 225
148 194 225
148 194 225
148 194 225
148 194 225
148 194 225
148 194 225
148 194 225
148 194 225
148 194 225
148 194 225
147 194 225
147 194 225
147 194 225
147 194 225
147 194 225
147 194 225
147 193 224
147 193 224
147 193 224
147 193 224
147 193 224
147 193 224
147 193 224
146 193 224
146 193 224
146 193 224
146 193 224
146 193 224
146 193 224
146 193 224
146 193 224
134 178 208
63 89 107
53 78 95
54 78 94
55 80 96
56 81 97
51 75 91
52 77 93
56 80 96
50 74 91
47 71 87
52 78 95
52 76 91
51 75 90
52 76 93
50 76 93
53 78 95
51 76 92
51 75 92
58 81 97
48 72 88
51 76 92
55 78 94
53 77 93
52 76 92
55 79 95
52 76 92
56 80 97
50 76 93
53 78 94
51 75 91
52 76 93
50 74 90
52 77 93
53 77 93
53 77 92
48 73 90
52 77 94
52 75 90
50 75 91
52 78 95
52 76 92
48 73 90
56 82 98
53 78 94
53 76 91
53 77 93
54 80 98
51 76 92
52 76 92
49 75 92
53 78 95
51 75 91
55 79 95
49 74 91
55 80 97
54 78 95
56 80 96
53 78 95
50 74 90
55 79 95
52 76 92
53 77 93
52 76 92
50 73 88
54 77 93
50 74 89
49 72 88
51 76 92
53 77 92
50 74 90
54 78 94
53 77 93
50 73 89
50 73 89
52 76 91
56 80 97
53 78 94
51 75 91
54 80 97
50 72 87
49 73 89
51 75 91
55 79 96
50 76 93
50 74 90
53 77 94
54 77 93
50 74 90
50 74 90
52 76 92
52 75 91
51 75 91
55 80 97
51 75 91
51 75 91
52 77 93
50 73 89
52 77 93
55 79 95
52 78 95
55 80 97
53 77 93
52 76 93
52 75 91
49 74 91
53 78 95
51 74 89
56 80 97
52 77 94
55 80 96
56 82 99
49 73 90
51 76 93
56 80 97
54 79 95
56 82 100
131 174 203
146 193 224
146 193 224
146 193 224
146 193 224
146 193 224
146 193 224
146 193 224
146 193 224
147 193 224
147 193 224
147 193 224
147 193 224
147 193 224
147 193 224
147 194 225
147 194 225
147 194 225
147 194 225
147 194 225
147 194 225
147 194 225
148 194 225
148 194 225
148 194 225
148 194 225
148 194 225
148 194 225
148 194 225
148 194 225
148 194 225
148 194 225
148 194 225
148 194 225
148 194 225
148 194 225
149 194 225
149 194 225
149 194 225
149 195 225
149 195 225
149 195 225
149 195 225
149 195 225
149 195 225
149 195 225
149 195 225
149 195 225
149 195 225
149 195 225
150 195 225
150 195 225
150 195 225
150 195 225
150 195 225
150 195 225
150 195 225
150 195 225
150 195 225
150 195 225
150 195 225
150 195 225
150 195 225
150 195 225
151 196 226
151 196 226
151 196 226
151 196 226
151 196 226
151 196 226
151 196 226
151 196 226
151 196 226
151 196 226
151 196 226
151 196 226
151 196 226
151 196 226
151 196 226
151 196 226
152 196 226
152 196 226
152 196 226
152 196 226
152 196 226
152 196 226
152 196 226
152 196 226
152 196 226
152 196 226
152 196 226
152 196 226
152 196 226
152 197 226
152 197 226
152 197 226
152 197 226
153 197 226
153 197 226
153 197 226
153 197 226
153 197 226
153 197 226
153 197 226
153 197 226
153 197 226
153 197 226
153 197 226
153 197 226
153 197 226
153 197 226
153 197 226
153 197 226
153 197 226
153 197 226
153 197 226
154 197 226
154 197 226
154 197 226
154 197 226
154 197 226
154 197 226
154 197 226
154 197 226
154 197 226
154 197 226
154 197 226
154 198 227
154 198 227
154 198 227
154 198 227
154 198 227
154 198 227
154 198 227
154 198 227
154 198 227
154 198 227
154 198 227
155 198 227
155 198 227
155 198 227
155 198 227
155 198 227
155 198 227
155 198 227
155 198 227
155 198 227
155 198 227
155 198 227
155 198 227
155 198 227
155 198 227
155 198 227
155 198 227
155 198 227
154 198 227
154 198 227
154 198 227
154 198 227
154 198 227
154 198 227
154 198 227
154 198 227
154 198 227
154 198 227
154 198 227
154 197 226
154 197 226
154 197 226
154 197 226
154 197 226
154 197 226
154 197 226
154 197 226
154 197 226
154 197 226
153 197 226
153 197 226
153 197 226
153 197 226
153 197 226
153 197 226
153 197 226
153 197 226
153 197 226
153 197 226
153 197 226
153 197 226
153 197 226
153 197 226
153 197 226
153 197 226
153 197 226
153 197 226
153 197 226
152 197 226
152 197 226
152 197 226
152 197 226
152 196 226
152 196 226
152 196 226
152 196 226
152 196 226
152 196 226
152 196 226
152 196 226
152 196 226
152 196 226
152 196 226
152 196 226
152 196 226
151 196 226
151 196 226
151 196 226
151 196 226
151 196 226
151 196 226
151 196 226
151 196 226
151 196 226
151 196 226
151 196 226
151 196 226
151 196 226
151 196 226
151 196 226
151 196 226
150 195 225
150 195 225
150 195 225
150 195 225
150 195 225
150 195 225
150 195 225
150 195 225
150 195 225
150 195 225
150 195 225
150 195 225
150 195 225
150 195 225
149 195 225
149 195 225
149 195 225
149 195 225
149 195 225
149 195 225
149 195 225
149 195 225
149 195 225
149 195 225
149 195 225
149 194 225
149 194 225
149 194 225
148 194 225
148 194 225
148 194 225
148 194 225
148 194 225
148 194 225
148 194 225
148 194 225
148 194 225
148 194 225
148 194 225
148 194 225
148 194 225
148 194 225
147 194 225
147 194 225
147 194 225
147 194 225
147 194 225
147 194 225
147 194 225
147 193 224
147 193 224
147 193 224
147 193 224
147 193 224
147 193 224
77 107 128
52 78 95
55 80 96
48 71 86
52 76 92
49 74 90
54 78 93
50 73 88
52 76 92
54 78 94
53 80 97
52 78 95
53 77 94
51 75 92
51 75 90
52 77 94
53 77 93
51 76 93
54 77 92
51 76 93
52 75 91
57 83 99
50 73 88
52 75 91
49 74 90
50 74 90
50 75 91
53 78 95
52 75 90
52 76 92
51 75 91
52 76 92
53 77 93
49 72 88
55 80 96
50 73 88
54 78 94
51 75 90
53 77 94
52 76 92
53 78 95
46 70 86
54 78 94
53 78 95
50 74 90
49 72 87
53 77 94
55 79 96
53 77 93
51 75 91
46 69 84
53 76 92
50 73 88
52 73 88
51 74 89
56 81 98
52 75 91
50 74 90
50 74 91
54 79 95
51 76 93
49 73 89
50 74 90
53 77 93
52 76 93
56 80 96
50 73 88
52 75 91
57 83 101
52 76 92
51 75 91
51 74 89
49 72 88
50 74 89
53 76 91
52 76 92
53 76 92
53 76 92
52 75 91
51 75 91
56 80 96
53 78 95
52 76 92
52 76 93
52 76 91
54 77 93
54 78 94
51 74 90
51 75 91
51 74 89
49 74 90
52 76 92
55 78 93
48 73 90
48 72 87
49 72 87
50 72 87
52 78 95
51 75 90
52 77 93
50 74 90
53 77 93
52 76 92
50 75 91
55 79 95
49 73 89
52 77 93
52 76 91
50 74 90
52 76 92
52 77 94
49 74 91
54 80 97
55 79 95
52 77 94
52 78 95
52 76 93
82 115 137
147 193 224
147 193 224
147 193 224
147 193 224
147 193 224
147 193 224
147 194 225
147 194 225
147 194 225
147 194 225
147 194 225
147 194 225
147 194 225
148 194 225
148 194 225
148 194 225
148 194 225
148 194 225
148 194 225
148 194 225
148 194 225
148 194 225
148 194 225
148 194 225
148 194 225
148 194 225
149 194 225
149 194 225
149 194 225
149 194 225
149 195 225
149 195 225
149 195 225
149 195 225
149 195 225
149 195 225
149 195 225
149 195 225
149 195 225
149 195 225
149 195 225
150 195 225
150 195 225
150 195 225
150 195 225
150 195 225
150 195 225
150 195 225
150 195 225
150 195 225
150 195 225
150 195 225
150 195 225
150 195 225
150 195 225
150 195 225
151 196 226
151 196 226
151 196 226
151 196 226
151 196 226
151 196 226
151 196 226
151 196 226
151 196 226
151 196 226
151 196 226
151 196 226
151 196 226
151 196 226
151 196 226
152 196 226
152 196 226
152 196 226
152 196 226
152 196 226
152 196 226
152 196 226
152 196 226
152 196 226
152 196 226
152 196 226
152 196 226
152 196 226
152 197 226
152 197 226
152 197 226
152 197 226
153 197 226
153 197 226
153 197 226
153 197 226
153 197 226
153 197 226
153 197 226
153 197 226
153 197 226
153 197 226
153 197 226
153 197 226
153 197 226
153 197 226
153 197 226
153 197 226
153 197 226
153 197 226
153 197 226
154 197 226
154 197 226
154 197 226
154 197 226
154 197 226
154 197 226
154 197 226
154 197 226
154 197 226
154 197 226
154 198 227
154 198 227
154 198 227
154 198 227
154 198 227
154 198 227
154 198 227
154 198 227
154 198 227
154 198 227
154 198 227
155 198 227
155 198 227
155 198 227
155 198 227
155 198 227
155 198 227
155 198 227
155 198 227
155 198 227
155 198 227
155 198 227
155 198 227
155 198 227
155 198 227
155 198 227
155 198 227
155 198 227
155 198 227
155 198 227
155 198 227
155 198 227
155 198 227
155 198 227
155 198 227
155 198 227
155 198 227
155 198 227
155 198 227
155 198 227
155 198 227
155 198 227
155 198 227
155 198 227
155 198 227
155 198 227
154 198 227
154 198 227
154 198 227
154 198 227
154 198 227
154 198 227
154 198 227
154 198 227
154 198 227
154 198 227
154 198 227
154 197 226
154 197 226
154 197 226
154 197 226
154 197 226
154 197 226
154 197 226
154 197 226
154 197 226
154 197 226
153 197 226
153 197 226
153 197 226
153 197 226
153 197 226
153 197 226
153 197 226
153 197 226
153 197 226
153 197 226
153 197 226
153 197 226
153 197 226
153 197 226
153 197 226
153 197 226
153 197 226
153 197 226
152 197 226
152 197 226
152 197 226
152 197 226
152 196 226
152 196 226
152 196 226
152 196 226
152 196 226
152 196 226
152 196 226
152 196 226
152 196 226
152 196 226
152 196 226
152 196 226
152 196 226
152 196 226
151 196 226
151 196 226
151 196 226
151 196 226
151 196 226
151 196 226
151 196 226
151 196 226
151 196 226
151 196 226
151 196 226
151 196 226
151 196 226
151 196 226
151 196 226
150 195 225
150 195 225
150 195 225
150 195 225
150 195 225
150 195 225
150 195 225
150 195 225
150 195 225
150 195 225
150 195 225
150 195 225
150 195 225
150 195 225
150 195 225
149 195 225
149 195 225
149 195 225
149 195 225
149 195 225
149 195 225
149 195 225
149 195 225
149 195 225
149 195 225
149 194 225
149 194 225
149 194 225
149 194 225
148 194 225
148 194 225
148 194 225
148 194 225
148 194 225
148 194 225
148 194 225
148 194 225
148 194 225
148 194 225
148 194 225
148 194 225
148 194 225
148 194 225
147 194 225
147 194 225
147 194 225
140 184 214
58 84 101
54 76 91
55 79 95
52 76 93
51 75 92
53 78 95
56 81 97
55 79 95
56 80 97
52 76 92
53 78 94
52 76 92
49 74 90
51 76 93
53 77 93
53 78 94
54 79 96
57 80 96
53 77 93
55 79 96
49 72 87
50 74 89
56 79 95
55 79 95
53 76 91
51 76 93
51 75 92
52 77 94
50 73 89
46 70 86
51 76 92
51 75 92
52 76 92
51 74 90
55 79 95
53 77 93
56 79 95
49 73 89
52 74 89
53 76 92
49 73 90
54 79 95
51 74 90
50 74 89
51 74 90
53 76 92
50 75 91
52 76 91
50 73 89
50 73 88
49 73 89
52 76 92
52 77 93
51 74 90
53 76 91
52 76 92
52 75 91
53 78 94
54 77 93
53 78 95
52 75 90
48 72 88
56 80 96
55 79 95
55 79 94
54 78 94
49 74 90
52 76 91
51 75 91
52 76 93
55 79 95
56 79 95
50 74 90
53 76 92
52 76 92
54 78 95
50 73 88
53 77 93
53 77 92
51 75 92
53 76 92
52 76 92
46 70 85
53 77 93
51 75 91
52 76 92
52 76 92
51 74 89
49 73 90
51 75 90
52 76 91
56 80 96
47 72 88
50 74 90
52 76 91
54 79 95
55 79 95
55 78 93
53 76 92
51 77 93
53 78 95
53 78 95
53 77 92
55 80 97
52 76 92
54 79 96
53 78 95
52 77 94
51 75 91
51 75 91
53 77 94
53 79 96
51 75 92
50 74 90
56 80 97
52 78 95
48 71 86
53 77 94
142 188 218
147 194 225
147 194 225
148 194 225
148 194 225
148 194 225
148 194 225
148 194 225
148 194 225
148 194 225
148 194 225
148 194 225
148 194 225
148 194 225
148 194 225
148 194 225
148 194 225
148 194 225
149 194 225
149 194 225
149 194 225
149 194 225
149 195 225
149 195 225
149 195 225
149 195 225
149 195 225
149 195 225
149 195 225
149 195 225
149 195 225
149 195 225
150 195 225
150 195 225
150 195 225
150 195 225
150 195 225
150 195 225
150 195 225
150 195 225
150 195 225
150 195 225
150 195 225
150 195 225
150 195 225
150 195 225
150 195 225
151 196 226
151 196 226
151 196 226
151 196 226
151 196 226
151 196 226
151 196 226
151 196 226
151 196 226
151 196 226
151 196 226
151 196 226
151 196 226
151 196 226
151 196 226
151 196 226
152 196 226
152 196 226
152 196 226
152 196 226
152 196 226
152 196 226
152 196 226
152 196 226
152 196 226
152 196 226
152 196 226
152 196 226
152 197 226
152 197 226
152 197 226
152 197 226
152 197 226
153 197 226
153 197 226
153 197 226
153 197 226
153 197 226
153 197 226
153 197 226
153 197 226
153 197 226
153 197 226
153 197 226
153 197 226
153 197 226
153 197 226
153 197 226
153 197 226
153 197 226
153 197 226
154 197 226
154 197 226
154 197 226
154 197 226
154 197 226
154 197 226
154 197 226
154 197 226
154 197 226
154 197 226
154 198 227
154 198 227
154 198 227
154 198 227
154 198 227
154 198 227
154 198 227
154 198 227
154 198 227
154 198 227
154 198 227
155 198 227
155 198 227
155 198 227
155 198 227
155 198 227
155 198 227
155 198 227
155 198 227
155 198 227
155 198 227
155 198 227
155 198 227
155 198 227
155 198 227
155 198 227
155 198 227
155 198 227
155 198 227
155 198 227
155 198 227
155 198 227
155 198 227
156 199 227
156 199 227
156 198 227
156 198 227
156 198 227
156 198 227
156 198 227
156 198 227
155 198 227
155 198 227
155 198 227
155 198 227
155 198 227
155 198 227
155 198 227
155 198 227
155 198 227
155 198 227
155 198 227
155 198 227
155 198 227
155 198 227
155 198 227
155 198 227
155 198 227
155 198 227
155 198 227
155 198 227
155 198 227
155 198 227
155 198 227
154 198 227
154 198 227
154 198 227
154 198 227
154 198 227
154 198 227
154 198 227
154 198 227
154 198 227
154 198 227
154 198 227
154 197 226
154 197 226
154 197 226
154 197 226
154 197 226
154 197 226
154 197 226
154 197 226
154 197 226
153 197 226
153 197 226
153 197 226
153 197 226
153 197 226
153 197 226
153 197 226
153 197 226
153 197 226
153 197 226
153 197 226
153 197 226
153 197 226
153 197 226
153 197 226
153 197 226
153 197 226
153 197 226
152 197 226
152 197 226
152 197 226
152 197 226
152 197 226
152 196 226
152 196 226
152 196 226
152 196 226
152 196 226
152 196 226
152 196 226
152 196 226
152 196 226
152 196 226
152 196 226
152 196 226
152 196 226
151 196 226
151 196 226
151 196 226
151 196 226
151 196 226
151 196 226
151 196 226
151 196 226
151 196 226
151 196 226
151 196 226
151 196 226
151 196 226
151 196 226
151 196 226
150 195 225
150 195 225
150 195 225
150 195 225
150 195 225
150 195 225
150 195 225
150 195 225
150 195 225
150 195 225
150 195 225
150 195 225
150 195 225
150 195 225
150 195 225
150 195 225
149 195 225
149 195 225
149 195 225
149 195 225
149 195 225
149 195 225
149 195 225
149 195 225
149 195 225
149 195 225
149 195 225
149 194 225
149 194 225
149 194 225
149 194 225
148 194 225
148 194 225
148 194 225
148 194 225
148 194 225
148 194 225
148 194 225
101 137 161
54 79 95
46 70 85
51 76 93
54 79 95
52 77 94
53 77 93
49 72 88
47 71 87
57 81 97
52 77 93
55 80 97
55 81 98
49 74 90
51 76 92
54 79 96
55 81 99
48 71 86
51 75 91
50 74 89
53 76 91
51 75 91
55 79 95
49 73 89
53 78 94
47 72 88
56 81 97
49 73 89
51 75 90
53 76 92
54 77 93
51 75 91
55 79 96
54 78 94
54 78 94
51 76 93
53 76 91
51 75 91
56 80 96
57 81 97
53 76 91
46 70 85
53 76 91
53 76 92
48 72 88
51 74 89
51 75 91
54 78 94
51 74 90
52 76 92
52 75 91
52 76 92
50 73 89
53 77 93
49 73 89
51 74 89
51 74 90
47 71 86
50 74 89
51 75 91
52 77 94
51 75 90
47 70 84
48 72 88
54 79 95
53 76 92
44 67 82
49 73 89
52 75 90
52 75 90
52 77 93
52 75 91
52 76 92
50 75 91
52 76 92
52 78 94
52 75 91
51 74 90
47 70 85
52 75 91
53 75 91
53 76 92
52 76 91
52 77 94
51 76 92
52 75 90
55 79 95
49 73 89
50 74 89
57 81 97
50 73 89
53 77 93
53 77 92
54 77 92
52 75 90
52 76 92
50 73 88
50 72 86
55 80 96
51 76 92
50 72 87
54 78 94
53 78 94
54 78 93
52 76 93
50 74 90
49 72 87
53 78 94
55 81 97
53 79 96
55 80 97
52 77 94
52 77 94
51 74 90
60 86 103
56 80 96
52 76 92
52 75 90
54 79 95
99 135 159
148 194 225
148 194 225
148 194 225
148 194 225
148 194 225
148 194 225
148 194 225
148 194 225
149 194 225
149 194 225
149 194 225
149 194 225
149 195 225
149 195 225
149 195 225
149 195 225
149 195 225
149 195 225
149 195 225
149 195 225
149 195 225
149 195 225
149 195 225
150 195 225
150 195 225
150 195 225
150 195 225
150 195 225
150 195 225
150 195 225
150 195 225
150 195 225
150 195 225
150 195 225
150 195 225
150 195 225
150 195 225
150 195 225
151 196 226
151 196 226
151 196 226
151 196 226
151 196 226
151 196 226
151 196 226
151 196 226
151 196 226
151 196 226
151 196 226
151 196 226
151 196 226
151 196 226
151 196 226
152 196 226
152 196 226
152 196 226
152 196 226
152 196 226
152 196 226
152 196 226
152 196 226
152 196 226
152 196 226
152 196 226
152 196 226
152 196 226
152 197 226
152 197 226
152 197 226
152 197 226
153 197 226
153 197 226
153 197 226
153 197 226
153 197 226
153 197 226
153 197 226
153 197 226
153 197 226
153 197 226
153 197 226
153 197 226
153 197 226
153 197 226
153 197 226
153 197 226
153 197 226
153 197 226
154 197 226
154 197 226
154 197 226
154 197 226
154 197 226
154 197 226
154 197 226
154 197 226
154 197 226
154 197 226
154 197 226
154 198 227
154 198 227
154 198 227
154 198 227
154 198 227
154 198 227
154 198 227
154 198 227
154 198 227
154 198 227
155 198 227
155 198 227
155 198 227
155 198 227
155 198 227
155 198 227
155 198 227
155 198 227
155 198 227
155 198 227
155 198 227
155 198 227
155 198 227
155 198 227
155 198 227
155 198 227
155 198 227
155 198 227
155 198 227
155 198 227
155 198 227
155 198 227
155 198 227
156 198 227
156 198 227
156 198 227
156 198 227
156 198 227
156 198 227
156 199 227
156 199 227
156 199 227
156 199 227
156 199 227
156 199 227
156 199 227
156 199 227
156 199 227
156 199 227
156 199 227
156 199 227
156 199 227
156 199 227
156 198 227
156 198 227
156 198 227
156 198 227
156 198 227
156 198 227
155 198 227
155 198 227
155 198 227
155 198 227
155 198 227
155 198 227
155 198 227
155 198 227
155 198 227
155 198 227
155 198 227
155 198 227
155 198 227
155 198 227
155 198 227
155 198 227
155 198 227
155 198 227
155 198 227
155 198 227
155 198 227
155 198 227
155 198 227
154 198 227
154 198 227
154 198 227
154 198 227
154 198 227
154 198 227
154 198 227
154 198 227
154 198 227
154 198 227
154 197 226
154 197 226
154 197 226
154 197 226
154 197 226
154 197 226
154 197 226
154 197 226
154 197 226
154 197 226
153 197 226
153 197 226
153 197 226
153 197 226
153 197 226
153 197 226
153 197 226
153 197 226
153 197 226
153 197 226
153 197 226
153 197 226
153 197 226
153 197 226
153 197 226
153 197 226
153 197 226
153 197 226
152 197 226
152 197 226
152 197 226
152 197 226
152 196 226
152 196 226
152 196 226
152 196 226
152 196 226
152 196 226
152 196 226
152 196 226
152 196 226
152 196 226
152 196 226
152 196 226
152 196 226
151 196 226
151 196 226
151 196 226
151 196 226
151 196 226
151 196 226
151 196 226
151 196 226
151 196 226
151 196 226
151 196 226
151 196 226
151 196 226
151 196 226
151 196 226
150 195 225
150 195 225
150 195 225
150 195 225
150 195 225
150 195 225
150 195 225
150 195 225
150 195 225
150 195 225
150 195 225
150 195 225
150 195 225
150 195 225
150 195 225
150 195 225
149 195 225
149 195 225
149 195 225
149 195 225
149 195 225
149 195 225
149 195 225
149 195 225
149 195 225
149 195 225
149 195 225
149 195 225
146 191 221
63 89 107
52 77 93
51 75 92
52 76 91
52 75 91
53 78 95
54 79 95
52 75 91
54 78 94
55 79 95
50 75 91
52 75 90
54 79 96
51 76 93
52 76 93
54 78 95
51 75 91
50 73 88
49 72 87
54 78 94
52 76 92
57 82 99
52 75 90
52 77 94
52 73 88
52 76 92
53 76 91
51 76 93
50 73 89
53 77 93
51 75 91
53 77 93
53 76 92
52 76 92
52 75 90
52 77 94
54 78 94
51 75 91
52 77 93
55 80 97
51 74 89
53 77 92
54 77 93
51 75 90
52 76 92
51 75 90
51 74 89
53 76 92
51 74 90
48 71 86
48 73 90
48 72 88
55 79 96
50 73 88
55 79 94
52 76 92
49 72 88
49 72 87
50 73 89
52 77 94
50 73 88
50 73 88
55 79 95
48 72 89
53 75 90
51 75 90
52 76 92
56 80 96
56 79 94
51 73 89
53 77 93
53 77 93
51 75 91
51 74 90
51 74 89
53 77 93
52 74 89
52 77 93
54 77 93
49 71 85
50 73 88
51 76 93
55 78 94
50 75 91
49 71 86
51 74 88
54 79 95
50 72 87
54 78 95
51 76 92
54 80 97
49 72 88
51 75 91
52 77 93
51 75 92
53 77 92
54 76 91
54 78 94
51 74 88
53 78 95
52 76 93
52 76 92
52 76 92
53 77 93
51 75 90
50 73 89
54 79 95
52 75 91
49 73 89
56 81 98
50 75 92
54 78 94
49 75 91
52 76 93
54 79 95
53 77 93
51 75 92
55 80 97
52 76 91
62 88 106
143 187 217
149 194 225
149 195 225
149 195 225
149 195 225
149 195 225
149 195 225
149 195 225
149 195 225
149 195 225
149 195 225
149 195 225
149 195 225
150 195 225
150 195 225
150 195 225
150 195 225
150 195 225
150 195 225
150 195 225
150 195 225
150 195 225
150 195 225
150 195 225
150 195 225
150 195 225
150 195 225
150 195 225
150 195 225
151 196 226
151 196 226
151 196 226
151 196 226
151 196 226
151 196 226
151 196 226
151 196 226
151 196 226
151 196 226
151 196 226
151 196 226
151 196 226
151 196 226
151 196 226
152 196 226
152 196 226
152 196 226
152 196 226
152 196 226
152 196 226
152 196 226
152 196 226
152 196 226
152 196 226
152 196 226
152 196 226
152 197 226
152 197 226
152 197 226
152 197 226
152 197 226
153 197 226
153 197 226
153 197 226
153 197 226
153 197 226
153 197 226
153 197 226
153 197 226
153 197 226
153 197 226
153 197 226
153 197 226
153 197 226
153 197 226
153 197 226
153 197 226
153 197 226
153 197 226
154 197 226
154 197 226
154 197 226
154 197 226
154 197 226
154 197 226
154 197 226
154 197 226
154 197 226
154 197 226
154 198 227
154 198 227
154 198 227
154 198 227
154 198 227
154 198 227
154 198 227
154 198 227
154 198 227
154 198 227
155 198 227
155 198 227
155 198 227
155 198 227
155 198 227
155 198 227
155 198 227
155 198 227
155 198 227
155 198 227
155 198 227
155 198 227
155 198 227
155 198 227
155 198 227
155 198 227
155 198 227
155 198 227
155 198 227
155 198 227
155 198 227
155 198 227
155 198 227
156 198 227
156 198 227
156 198 227
156 198 227
156 198 227
156 198 227
156 198 227
156 199 227
156 199 227
156 199 227
156 199 227
156 199 227
156 199 227
156 199 227
156 199 227
156 199 227
156 199 227
156 199 227
157 199 227
157 199 227
156 199 227
156 199 227
156 199 227
156 199 227
156 199 227
156 199 227
156 199 227
156 199 227
156 199 227
156 199 227
156 199 227
156 199 227
156 199 227
156 199 227
156 199 227
156 199 227
156 199 227
156 199 227
156 199 227
156 199 227
156 198 227
156 198 227
156 198 227
156 198 227
156 198 227
156 198 227
155 198 227
155 198 227
155 198 227
155 198 227
155 198 227
155 198 227
155 198 227
155 198 227
155 198 227
155 198 227
155 198 227
155 198 227
155 198 227
155 198 227
155 198 227
155 198 227
155 198 227
155 198 227
155 198 227
155 198 227
155 198 227
155 198 227
155 198 227
154 198 227
154 198 227
154 198 227
154 198 227
154 198 227
154 198 227
154 198 227
154 198 227
154 198 227
154 198 227
154 197 226
154 197 226
154 197 226
154 197 226
154 197 226
154 197 226
154 197 226
154 197 226
154 197 226
153 197 226
153 197 226
153 197 226
153 197 226
153 197 226
153 197 226
153 197 226
153 197 226
153 197 226
153 197 226
153 197 226
153 197 226
153 197 226
153 197 226
153 197 226
153 197 226
153 197 226
152 197 226
152 197 226
152 197 226
152 197 226
152 197 226
152 197 226
152 196 226
152 196 226
152 196 226
152 196 226
152 196 226
152 196 226
152 196 226
152 196 226
152 196 226
152 196 226
152 196 226
152 196 226
151 196 226
151 196 226
151 196 226
151 196 226
151 196 226
151 196 226
151 196 226
151 196 226
151 196 226
151 196 226
151 196 226
151 196 226
151 196 226
151 196 226
151 196 226
151 196 226
150 195 225
150 195 225
150 195 225
150 195 225
150 195 225
150 195 225
150 195 225
150 195 225
150 195 225
150 195 225
150 195 225
150 195 225
150 195 225
150 195 225
150 195 225
150 195 225
149 195 225
149 195 225
111 150 175
52 77 93
53 76 92
49 74 91
49 72 87
51 76 93
50 74 91
56 80 96
54 80 97
49 73 89
48 72 88
52 77 93
54 79 96
52 76 91
52 76 92
53 77 92
50 73 89
55 80 96
52 76 92
50 75 91
53 76 92
54 79 96
56 80 96
50 73 89
55 79 95
49 72 87
56 80 96
50 73 89
49 73 89
53 77 93
49 72 87
49 73 89
50 74 91
49 72 88
49 73 90
49 72 88
49 72 88
53 77 93
52 76 92
53 77 92
49 73 89
50 74 90
49 73 88
51 76 92
53 77 92
50 74 90
52 75 91
53 76 91
50 73 89
51 73 88
52 74 89
51 75 91
52 75 91
51 75 91
47 70 85
49 72 87
52 75 91
48 72 88
50 74 90
52 76 92
53 76 92
48 72 88
50 73 88
48 72 87
53 76 92
49 72 87
52 78 95
47 68 82
53 77 93
52 76 92
53 77 93
49 73 89
55 78 93
52 76 91
51 73 88
54 77 92
51 75 91
47 71 86
54 79 96
48 70 86
50 73 88
51 76 93
50 73 89
51 75 92
55 79 95
51 74 90
50 72 87
49 72 87
50 73 88
50 74 90
51 76 93
48 71 87
51 74 89
53 77 93
53 77 93
52 75 91
52 75 90
54 77 92
52 75 91
51 74 90
56 81 98
54 77 93
54 78 94
54 79 95
51 77 94
48 71 87
52 78 95
51 76 93
50 72 88
51 74 89
52 75 91
45 68 83
54 78 94
53 78 95
53 76 92
51 75 91
49 72 88
49 74 90
54 78 95
54 79 96
51 76 93
112 149 174
149 195 225
149 195 225
150 195 225
150 195 225
150 195 225
150 195 225
150 195 225
150 195 225
150 195 225
150 195 225
150 195 225
150 195 225
150 195 225
150 195 225
150 195 225
150 195 225
150 195 225
150 195 225
151 196 226
151 196 226
151 196 226
151 196 226
151 196 226
151 196 226
151 196 226
151 196 226
151 196 226
151 196 226
151 196 226
151 196 226
151 196 226
151 196 226
151 196 226
151 196 226
152 196 226
152 196 226
152 196 226
152 196 226
152 196 226
152 196 226
152 196 226
152 196 226
152 196 226
152 196 226
152 196 226
152 196 226
152 196 226
152 197 226
152 197 226
152 197 226
152 197 226
153 197 226
153 197 226
153 197 226
153 197 226
153 197 226
153 197 226
153 197 226
153 197 226
153 197 226
153 197 226
153 197 226
153 197 226
153 197 226
153 197 226
153 197 226
153 197 226
153 197 226
153 197 226
154 197 226
154 197 226
154 197 226
154 197 226
154 197 226
154 197 226
154 197 226
154 197 226
154 197 226
154 197 226
154 198 227
154 198 227
154 198 227
154 198 227
154 198 227
154 198 227
154 198 227
154 198 227
154 198 227
154 198 227
155 198 227
155 198 227
155 198 227
155 198 227
155 198 227
155 198 227
155 198 227
155 198 227
155 198 227
155 198 227
155 198 227
155 198 227
155 198 227
155 198 227
155 198 227
155 198 227
155 198 227
155 198 227
155 198 227
155 198 227
155 198 227
155 198 227
156 198 227
156 198 227
156 198 227
156 198 227
156 198 227
156 198 227
156 199 227
156 199 227
156 199 227
156 199 227
156 199 227
156 199 227
156 199 227
156 199 227
156 199 227
156 199 227
156 199 227
156 199 227
156 199 227
156 199 227
156 199 227
156 199 227
156 199 227
156 199 227
156 199 227
156 199 227
157 199 227
157 199 227
157 199 227
157 199 227
157 199 227
157 199 227
157 199 227
157 199 227
157 199 227
157 199 227
157 199 227
157 199 227
157 199 227
157 199 227
157 199 227
156 199 227
156 199 227
156 199 227
156 199 227
156 199 227
156 199 227
156 199 227
156 199 227
156 199 227
156 199 227
156 199 227
156 199 227
156 199 227
156 199 227
156 199 227
156 199 227
156 199 227
156 199 227
156 199 227
156 198 227
156 198 227
156 198 227
156 198 227
156 198 227
156 198 227
155 198 227
155 198 227
155 198 227
155 198 227
155 198 227
155 198 227
155 198 227
155 198 227
155 198 227
155 198 227
155 198 227
155 198 227
155 198 227
155 198 227
155 198 227
155 198 227
155 198 227
155 198 227
155 198 227
155 198 227
155 198 227
155 198 227
154 198 227
154 198 227
154 198 227
154 198 227
154 198 227
154 198 227
154 198 227
154 198 227
154 198 227
154 198 227
154 197 226
154 197 226
154 197 226
154 197 226
154 197 226
154 197 226
154 197 226
154 197 226
154 197 226
153 197 226
153 197 226
153 197 226
153 197 226
153 197 226
153 197 226
153 197 226
153 197 226
153 197 226
153 197 226
153 197 226
153 197 226
153 197 226
153 197 226
153 197 226
153 197 226
153 197 226
153 197 226
153 197 226
152 197 226
152 197 226
152 197 226
152 197 226
152 197 226
152 196 226
152 196 226
152 196 226
152 196 226
152 196 226
152 196 226
152 196 226
152 196 226
152 196 226
152 196 226
152 196 226
151 196 226
151 196 226
151 196 226
151 196 226
151 196 226
151 196 226
151 196 226
151 196 226
151 196 226
151 196 226
151 196 226
151 196 226
151 196 226
151 196 226
151 196 226
151 196 226
151 196 226
151 196 226
150 195 225
150 195 225
150 195 225
150 195 225
150 195 225
150 195 225
150 195 225
74 104 123
56 80 96
53 77 93
53 78 94
49 72 87
52 78 96
51 74 89
50 75 92
49 73 89
51 75 91
54 79 95
47 70 85
53 76 91
51 75 90
51 74 89
52 77 94
55 78 94
51 75 91
51 74 90
54 77 93
51 74 90
54 78 94
51 74 90
53 77 93
52 77 93
49 74 91
51 74 89
50 75 91
51 75 90
50 73 88
52 77 94
50 76 93
54 77 93
54 79 95
52 77 93
51 75 91
51 74 90
52 76 92
51 74 90
48 71 86
53 76 92
51 75 91
52 75 91
49 71 87
52 76 91
54 79 95
47 70 85
53 77 93
51 74 89
49 72 87
53 75 90
52 76 92
49 73 89
51 76 93
52 75 90
50 73 89
52 76 91
52 76 91
50 73 89
50 73 88
55 77 92
53 78 94
46 69 84
52 75 90
47 71 87
51 74 90
50 72 86
53 76 91
56 82 98
47 69 83
52 75 90
52 78 95
50 73 89
53 77 93
51 75 91
55 79 95
54 78 94
53 78 94
51 74 89
53 76 91
50 74 89
48 71 86
52 76 92
50 73 88
53 75 90
49 71 87
49 72 87
49 72 87
49 73 89
48 69 84
53 76 91
52 76 93
54 78 94
52 76 92
52 77 93
53 77 93
48 70 85
53 77 92
52 77 93
55 80 97
51 75 91
52 74 89
52 76 92
53 75 90
54 77 93
50 73 89
53 76 91
53 76 91
51 74 90
53 77 92
50 74 91
55 79 95
51 75 90
55 80 97
49 73 89
50 72 87
53 78 95
50 75 91
51 76 92
52 77 93
52 77 94
78 109 129
150 195 225
150 195 225
150 195 225
150 195 225
150 195 225
150 195 225
150 195 225
150 195 225
151 196 226
151 196 226
151 196 226
151 196 226
151 196 226
151 196 226
151 196 226
151 196 226
151 196 226
151 196 226
151 196 226
151 196 226
151 196 226
151 196 226
151 196 226
151 196 226
152 196 226
152 196 226
152 196 226
152 196 226
152 196 226
152 196 226
152 196 226
152 196 226
152 196 226
152 196 226
152 196 226
152 196 226
152 196 226
152 197 226
152 197 226
152 197 226
152 197 226
152 197 226
153 197 226
153 197 226
153 197 226
153 197 226
153 197 226
153 197 226
153 197 226
153 197 226
153 197 226
153 197 226
153 197 226
153 197 226
153 197 226
153 197 226
153 197 226
153 197 226
153 197 226
154 197 226
154 197 226
154 197 226
154 197 226
154 197 226
154 197 226
154 197 226
154 197 226
154 197 226
154 197 226
154 198 227
154 198 227
154 198 227
154 198 227
154 198 227
154 198 227
154 198 227
154 198 227
154 198 227
154 198 227
155 198 227
155 198 227
155 198 227
155 198 227
155 198 227
155 198 227
155 198 227
155 198 227
155 198 227
155 198 227
155 198 227
155 198 227
155 198 227
155 198 227
155 198 227
155 198 227
155 198 227
155 198 227
155 198 227
155 198 227
155 198 227
155 198 227
156 198 227
156 198 227
156 198 227
156 198 227
156 198 227
156 198 227
156 199 227
156 199 227
156 199 227
156 199 227
156 199 227
156 199 227
156 199 227
156 199 227
156 199 227
156 199 227
156 199 227
156 199 227
156 199 227
156 199 227
156 199 227
156 199 227
156 199 227
156 199 227
156 199 227
157 199 227
157 199 227
157 199 227
157 199 227
157 199 227
157 199 227
157 199 227
157 199 227
157 199 227
157 199 227
157 199 227
157 199 227
157 199 227
157 199 227
157 199 227
157 199 227
157 199 227
157 199 227
157 199 227
157 199 227
157 199 227
157 199 227
157 199 227
157 199 227
157 199 227
157 199 227
157 199 227
157 199 227
157 199 227
157 199 227
157 199 227
157 199 227
157 199 227
157 199 227
157 199 227
157 199 227
157 199 227
156 199 227
156 199 227
156 199 227
156 199 227
156 199 227
156 199 227
156 199 227
156 199 227
156 199 227
156 199 227
156 199 227
156 199 227
156 199 227
156 199 227
156 199 227
156 199 227
156 199 227
156 199 227
156 199 227
156 199 227
156 198 227
156 198 227
156 198 227
156 198 227
156 198 227
155 198 227
155 198 227
155 198 227
155 198 227
155 198 227
155 198 227
155 198 227
155 198 227
155 198 227
155 198 227
155 198 227
155 198 227
155 198 227
155 198 227
155 198 227
155 198 227
155 198 227
155 198 227
155 198 227
155 198 227
155 198 227
154 198 227
154 198 227
154 198 227
154 198 227
154 198 227
154 198 227
154 198 227
154 198 227
154 198 227
154 198 227
154 198 227
154 197 226
154 197 226
154 197 226
154 197 226
154 197 226
154 197 226
154 197 226
154 197 226
154 197 226
153 197 226
153 197 226
153 197 226
153 197 226
153 197 226
153 197 226
153 197 226
153 197 226
153 197 226
153 197 226
153 197 226
153 197 226
153 197 226
153 197 226
153 197 226
153 197 226
153 197 226
153 197 226
152 197 226
152 197 226
152 197 226
152 197 226
152 196 226
152 196 226
152 196 226
152 196 226
152 196 226
152 196 226
152 196 226
152 196 226
152 196 226
152 196 226
152 196 226
152 196 226
152 196 226
151 196 226
151 196 226
151 196 226
151 196 226
151 196 226
151 196 226
151 196 226
151 196 226
151 196 226
151 196 226
151 196 226
151 196 226
151 196 226
141 184 213
56 82 99
54 79 96
52 76 92
53 78 94
52 77 94
52 75 90
53 77 93
50 73 88
50 75 91
52 76 92
54 77 93
51 76 92
49 73 88
54 78 95
50 74 90
53 77 94
54 79 96
50 75 91
51 74 90
48 71 86
49 72 87
50 74 90
54 78 94
51 73 87
49 72 88
51 75 90
50 74 90
53 77 93
52 77 93
51 74 89
52 77 93
49 73 89
53 77 93
51 74 90
51 75 91
51 74 89
52 76 92
52 74 89
53 78 94
54 77 92
55 79 95
53 78 94
50 72 87
52 77 93
51 74 90
49 72 88
53 77 94
51 76 92
48 72 87
51 74 89
47 69 84
53 78 95
52 76 91
51 72 87
54 78 95
51 75 91
51 74 90
50 74 89
50 74 90
51 74 90
54 79 95
54 77 92
51 75 91
53 77 92
49 71 86
50 73 88
50 73 89
51 76 93
54 77 93
47 70 86
51 73 89
46 68 83
49 71 85
56 81 97
49 73 89
51 74 89
53 77 92
49 72 88
53 76 91
50 72 87
51 73 88
53 76 92
46 70 85
54 78 93
50 73 88
48 71 86
52 76 92
50 73 88
56 78 94
50 73 89
48 72 88
49 73 88
51 74 90
50 74 90
55 78 94
51 75 91
51 75 90
48 71 86
50 72 87
52 75 90
51 75 91
49 73 89
53 77 93
53 76 92
52 76 92
50 73 89
50 75 92
54 77 93
54 78 94
50 74 89
50 73 89
51 74 90
49 73 88
49 73 90
53 77 94
49 73 88
48 72 88
51 76 92
51 75 91
53 77 93
52 76 92
57 82 99
141 184 213
151 196 226
151 196 226
151 196 226
151 196 226
151 196 226
151 196 226
151 196 226
151 196 226
151 196 226
151 196 226
151 196 226
151 196 226
151 196 226
152 196 226
152 196 226
152 196 226
152 196 226
152 196 226
152 196 226
152 196 226
152 196 226
152 196 226
152 196 226
152 196 226
152 196 226
152 197 226
152 197 226
152 197 226
152 197 226
152 197 226
153 197 226
153 197 226
153 197 226
153 197 226
153 197 226
153 197 226
153 197 226
153 197 226
153 197 226
153 197 226
153 197 226
153 197 226
153 197 226
153 197 226
153 197 226
153 197 226
153 197 226
153 197 226
154 197 226
154 197 226
154 197 226
154 197 226
154 197 226
154 197 226
154 197 226
154 197 226
154 197 226
154 197 226
154 198 227
154 198 227
154 198 227
154 198 227
154 198 227
154 198 227
154 198 227
154 198 227
154 198 227
155 198 227
155 198 227
155 198 227
155 198 227
155 198 227
155 198 227
155 198 227
155 198 227
155 198 227
155 198 227
155 198 227
155 198 227
155 198 227
155 198 227
155 198 227
155 198 227
155 198 227
155 198 227
155 198 227
155 198 227
155 198 227
155 198 227
156 198 227
156 198 227
156 198 227
156 198 227
156 198 227
156 198 227
156 199 227
156 199 227
156 199 227
156 199 227
156 199 227
156 199 227
156 199 227
156 199 227
156 199 227
156 199 227
156 199 227
156 199 227
156 199 227
156 199 227
156 199 227
156 199 227
156 199 227
156 199 227
156 199 227
157 199 227
157 199 227
157 199 227
157 199 227
157 199 227
157 199 227
157 199 227
157 199 227
157 199 227
157 199 227
157 199 227
157 199 227
157 199 227
157 199 227
157 199 227
157 199 227
157 199 227
157 199 227
157 199 227
157 199 227
157 199 227
157 199 227
157 199 227
157 199 227
158 200 228
158 200 228
158 200 228
158 200 228
158 200 228
158 200 228
158 200 228
157 199 227
157 199 227
157 199 227
157 199 227
157 199 227
157 199 227
157 199 227
157 199 227
157 199 227
157 199 227
157 199 227
157 199 227
157 199 227
157 199 227
157 199 227
157 199 227
157 199 227
157 199 227
157 199 227
157 199 227
157 199 227
157 199 227
157 199 227
157 199 227
157 199 227
157 199 227
157 199 227
157 199 227
157 199 227
156 199 227
156 199 227
156 199 227
156 199 227
156 199 227
156 199 227
156 199 227
156 199 227
156 199 227
156 199 227
156 199 227
156 199 227
156 199 227
156 199 227
156 199 227
156 199 227
156 199 227
156 199 227
156 198 227
156 198 227
156 198 227
156 198 227
156 198 227
156 198 227
156 198 227
155 198 227
155 198 227
155 198 227
155 198 227
155 198 227
155 198 227
155 198 227
155 198 227
155 198 227
155 198 227
155 198 227
155 198 227
155 198 227
155 198 227
155 198 227
155 198 227
155 198 227
155 198 227
155 198 227
155 198 227
154 198 227
154 198 227
154 198 227
154 198 227
154 198 227
154 198 227
154 198 227
154 198 227
154 198 227
154 198 227
154 197 226
154 197 226
154 197 226
154 197 226
154 197 226
154 197 226
154 197 226
154 197 226
154 197 226
153 197 226
153 197 226
153 197 226
153 197 226
153 197 226
153 197 226
153 197 226
153 197 226
153 197 226
153 197 226
153 197 226
153 197 226
153 197 226
153 197 226
153 197 226
153 197 226
153 197 226
153 197 226
152 197 226
152 197 226
152 197 226
152 197 226
152 196 226
152 196 226
152 196 226
152 196 226
152 196 226
152 196 226
152 196 226
152 196 226
152 196 226
152 196 226
152 196 226
152 196 226
152 196 226
152 196 226
152 196 226
151 196 226
109 145 169
53 78 95
56 80 96
52 76 93
57 82 98
52 76 92
53 76 91
49 74 90
49 73 88
54 78 93
51 74 90
51 74 90
53 76 91
53 76 91
53 76 92
51 75 91
53 76 91
48 71 87
53 77 93
52 77 93
47 69 84
55 77 93
50 72 87
52 74 89
51 75 91
54 79 95
51 74 90
50 74 89
50 74 90
53 76 92
54 77 92
52 75 90
50 72 87
55 78 94
51 74 89
50 74 90
52 76 92
50 75 91
53 77 93
50 74 91
55 78 94
51 75 90
51 75 91
53 77 92
52 75 90
50 75 91
49 72 88
51 73 88
55 79 94
45 67 82
50 73 89
51 74 89
53 76 91
54 77 92
47 70 85
50 74 89
49 73 89
49 71 86
51 73 88
49 73 89
53 76 91
51 74 90
49 73 88
54 78 93
51 74 89
55 78 94
54 78 94
51 73 88
52 75 91
52 74 89
50 74 89
53 75 89
50 72 87
54 77 93
52 76 92
53 77 93
49 72 88
48 71 86
50 73 89
51 75 91
50 73 89
49 73 89
53 76 91
55 79 95
53 77 93
51 75 90
50 73 89
52 76 92
52 76 91
48 72 88
53 76 92
47 71 86
52 77 94
47 70 85
52 75 91
53 78 94
49 71 86
53 77 93
50 73 89
51 76 92
51 75 90
49 71 86
49 71 86
53 75 90
51 73 88
49 73 89
52 77 93
50 74 90
50 73 89
52 76 91
55 78 93
49 74 90
53 77 93
49 71 86
52 76 92
51 75 91
49 72 87
50 76 93
49 72 87
49 74 90
54 77 92
55 80 97
48 73 90
107 143 166
151 196 226
152 196 226
152 196 226
152 196 226
152 196 226
152 196 226
152 196 226
152 196 226
152 196 226
152 196 226
152 196 226
152 196 226
152 196 226
152 196 226
152 196 226
152 197 226
152 197 226
152 197 226
152 197 226
153 197 226
153 197 226
153 197 226
153 197 226
153 197 226
153 197 226
153 197 226
153 197 226
153 197 226
153 197 226
153 197 226
153 197 226
153 197 226
153 197 226
153 197 226
153 197 226
153 197 226
153 197 226
153 197 226
154 197 226
154 197 226
154 197 226
154 197 226
154 197 226
154 197 226
154 197 226
154 197 226
154 197 226
154 198 227
154 198 227
154 198 227
154 198 227
154 198 227
154 198 227
154 198 227
154 198 227
154 198 227
154 198 227
155 198 227
155 198 227
155 198 227
155 198 227
155 198 227
155 198 227
155 198 227
155 198 227
155 198 227
155 198 227
155 198 227
155 198 227
155 198 227
155 198 227
155 198 227
155 198 227
155 198 227
155 198 227
155 198 227
155 198 227
155 198 227
156 198 227
156 198 227
156 198 227
156 198 227
156 198 227
156 198 227
156 199 227
156 199 227
156 199 227
156 199 227
156 199 227
156 199 227
156 199 227
156 199 227
156 199 227
156 199 227
156 199 227
156 199 227
156 199 227
156 199 227
156 199 227
156 199 227
156 199 227
156 199 227
157 199 227
157 199 227
157 199 227
157 199 227
157 199 227
157 199 227
157 199 227
157 199 227
157 199 227
157 199 227
157 199 227
157 199 227
157 199 227
157 199 227
157 199 227
157 199 227
157 199 227
157 199 227
157 199 227
157 199 227
157 199 227
157 199 227
157 199 227
157 199 227
157 199 227
157 199 227
157 199 227
157 199 227
157 199 227
158 200 228
158 200 228
158 200 228
158 200 228
158 200 228
158 200 228
158 200 228
158 200 228
158 200 228
158 200 228
158 200 228
158 200 228
158 200 228
158 200 228
158 200 228
158 200 228
158 200 228
158 200 228
158 200 228
158 200 228
158 200 228
158 200 228
158 200 228
158 200 228
158 200 228
158 200 228
158 200 228
157 199 227
157 199 227
157 199 227
157 199 227
157 199 227
157 199 227
157 199 227
157 199 227
157 199 227
157 199 227
157 199 227
157 199 227
157 199 227
157 199 227
157 199 227
157 199 227
157 199 227
157 199 227
157 199 227
157 199 227
157 199 227
157 199 227
157 199 227
157 199 227
157 199 227
157 199 227
157 199 227
157 199 227
156 199 227
156 199 227
156 199 227
156 199 227
156 199 227
156 199 227
156 199 227
156 199 227
156 199 227
156 199 227
156 199 227
156 199 227
156 199 227
156 199 227
156 199 227
156 199 227
156 199 227
156 198 227
156 198 227
156 198 227
156 198 227
156 198 227
156 198 227
155 198 227
155 198 227
155 198 227
155 198 227
155 198 227
155 198 227
155 198 227
155 198 227
155 198 227
155 198 227
155 198 227
155 198 227
155 198 227
155 198 227
155 198 227
155 198 227
155 198 227
155 198 227
155 198 227
155 198 227
155 198 227
154 198 227
154 198 227
154 198 227
154 198 227
154 198 227
154 198 227
154 198 227
154 198 227
154 198 227
154 198 227
154 197 226
154 197 226
154 197 226
154 197 226
154 197 226
154 197 226
154 197 226
154 197 226
154 197 226
154 197 226
153 197 226
153 197 226
153 197 226
153 197 226
153 197 226
153 197 226
153 197 226
153 197 226
153 197 226
153 197 226
153 197 226
153 197 226
153 197 226
153 197 226
153 197 226
153 197 226
153 197 226
153 197 226
153 197 226
152 197 226
152 197 226
152 197 226
152 197 226
152 196 226
152 196 226
152 196 226
70 97 115
50 75 91
50 74 90
51 75 91
53 77 93
54 78 94
50 73 88
49 73 90
51 74 89
50 73 89
51 74 89
51 75 91
53 77 93
49 72 87
51 75 91
51 73 88
50 73 88
51 73 88
52 74 89
55 80 97
48 70 85
52 76 92
52 77 93
55 80 96
52 75 91
56 80 96
54 79 95
53 77 94
56 79 95
55 78 94
52 75 90
51 74 89
51 75 90
50 73 88
51 75 91
52 77 94
53 76 91
56 79 94
51 74 89
50 73 88
51 75 90
51 74 89
49 72 87
50 74 90
51 75 91
50 72 86
52 75 91
50 73 89
52 75 91
51 75 90
50 73 88
47 69 83
51 74 90
57 79 94
47 70 85
47 70 84
47 71 87
49 72 87
53 78 94
53 75 90
52 76 91
48 72 87
54 77 93
47 71 87
50 74 89
49 72 88
49 71 87
50 75 92
50 73 88
48 70 84
52 76 92
51 73 88
49 72 87
49 72 88
54 79 95
53 77 93
51 75 91
52 75 90
53 77 93
51 73 88
49 72 88
53 75 90
50 75 92
51 74 89
47 70 85
49 71 86
50 73 88
51 75 90
53 78 94
53 76 92
53 76 92
50 74 89
48 70 85
52 75 91
50 73 88
52 75 90
52 76 92
48 70 85
49 71 86
51 75 92
54 79 95
48 71 86
52 74 89
50 73 89
46 71 87
46 68 83
54 78 93
51 73 89
53 76 92
50 74 90
50 75 92
53 78 94
50 72 87
53 78 94
53 77 93
50 74 89
51 75 90
52 75 91
50 74 90
53 77 92
51 74 90
52 76 91
54 78 94
72 100 119
152 196 226
152 196 226
152 197 226
152 197 226
152 197 226
152 197 226
152 197 226
153 197 226
153 197 226
153 197 226
153 197 226
153 197 226
153 197 226
153 197 226
153 197 226
153 197 226
153 197 226
153 197 226
153 197 226
153 197 226
153 197 226
153 197 226
153 197 226
153 197 226
153 197 226
153 197 226
154 197 226
154 197 226
154 197 226
154 197 226
154 197 226
154 197 226
154 197 226
154 197 226
154 197 226
154 197 226
154 198 227
154 198 227
154 198 227
154 198 227
154 198 227
154 198 227
154 198 227
154 198 227
154 198 227
154 198 227
155 198 227
155 198 227
155 198 227
155 198 227
155 198 227
155 198 227
155 198 227
155 198 227
155 198 227
155 198 227
155 198 227
155 198 227
155 198 227
155 198 227
155 198 227
155 198 227
155 198 227
155 198 227
155 198 227
155 198 227
155 198 227
156 198 227
156 198 227
156 198 227
156 198 227
156 198 227
156 198 227
156 199 227
156 199 227
156 199 227
156 199 227
156 199 227
156 199 227
156 199 227
156 199 227
156 199 227
156 199 227
156 199 227
156 199 227
156 199 227
156 199 227
156 199 227
156 199 227
156 199 227
156 199 227
157 199 227
157 199 227
157 199 227
157 199 227
157 199 227
157 199 227
157 199 227
157 199 227
157 199 227
157 199 227
157 199 227
157 199 227
157 199 227
157 199 227
157 199 227
157 199 227
157 199 227
157 199 227
157 199 227
157 199 227
157 199 227
157 199 227
157 199 227
157 199 227
157 199 227
157 199 227
157 199 227
158 200 228
158 200 228
158 200 228
158 200 228
158 200 228
158 200 228
158 200 228
158 200 228
158 200 228
158 200 228
158 200 228
158 200 228
158 200 228
158 200 228
158 200 228
158 200 228
158 200 228
158 200 228
158 200 228
158 200 228
158 200 228
158 200 228
158 200 228
158 200 228
158 200 228
158 200 228
158 200 228
158 200 228
158 200 228
158 200 228
158 200 228
158 200 228
158 200 228
158 200 228
158 200 228
158 200 228
158 200 228
158 200 228
158 200 228
158 200 228
158 200 228
158 200 228
158 200 228
158 200 228
158 200 228
158 200 228
158 200 228
158 200 228
158 200 228
158 200 228
158 200 228
157 199 227
157 199 227
157 199 227
157 199 227
157 199 227
157 199 227
157 199 227
157 199 227
157 199 227
157 199 227
157 199 227
157 199 227
157 199 227
157 199 227
157 199 227
157 199 227
157 199 227
157 199 227
157 199 227
157 199 227
157 199 227
157 199 227
157 199 227
157 199 227
157 199 227
157 199 227
157 199 227
157 199 227
156 199 227
156 199 227
156 199 227
156 199 227
156 199 227
156 199 227
156 199 227
156 199 227
156 199 227
156 199 227
156 199 227
156 199 227
156 199 227
156 199 227
156 199 227
156 199 227
156 199 227
156 198 227
156 198 227
156 198 227
156 198 227
156 198 227
156 198 227
156 198 227
155 198 227
155 198 227
155 198 227
155 198 227
155 198 227
155 198 227
155 198 227
155 198 227
155 198 227
155 198 227
155 198 227
155 198 227
155 198 227
155 198 227
155 198 227
155 198 227
155 198 227
155 198 227
155 198 227
155 198 227
155 198 227
154 198 227
154 198 227
154 198 227
154 198 227
154 198 227
154 198 227
154 198 227
154 198 227
154 198 227
154 197 226
154 197 226
154 197 226
154 197 226
154 197 226
154 197 226
154 197 226
154 197 226
154 197 226
154 197 226
153 197 226
153 197 226
153 197 226
153 197 226
153 197 226
153 197 226
153 197 226
153 197 226
153 197 226
153 197 226
153 197 226
153 197 226
153 197 226
153 197 226
142 184 212
52 75 90
49 72 88
53 75 90
55 79 95
53 77 93
49 73 89
50 75 91
53 76 92
47 69 84
51 74 89
53 77 92
52 75 90
53 76 92
53 77 93
52 75 91
52 75 91
53 77 93
53 77 92
51 75 91
52 77 93
50 73 88
52 75 90
48 71 86
52 74 90
50 74 91
52 75 90
53 77 92
55 79 94
49 72 86
54 76 90
56 79 95
51 74 90
47 70 85
47 69 85
51 74 90
54 78 94
51 74 89
54 77 92
50 73 88
50 73 88
51 74 89
51 74 88
51 76 92
53 77 92
51 74 90
49 73 89
49 72 87
50 73 88
50 73 88
53 77 93
49 71 86
51 74 89
55 79 95
54 76 90
53 76 92
49 73 89
48 70 85
54 76 91
48 71 86
50 73 88
51 72 87
49 71 86
51 74 89
49 74 90
52 75 89
51 75 91
49 73 88
50 73 89
48 69 84
51 74 90
50 73 89
51 73 88
48 69 83
54 77 93
52 75 91
50 72 87
50 73 88
51 74 89
51 75 90
49 73 88
49 71 86
54 77 92
51 74 90
51 74 90
51 74 89
53 78 95
52 76 92
46 69 84
50 73 89
53 77 93
53 76 91
52 76 92
55 79 94
54 77 92
49 72 87
47 70 86
51 76 93
51 76 92
50 74 89
52 75 91
49 72 87
53 76 91
49 72 88
50 73 89
50 75 91
52 77 93
52 75 90
47 70 86
48 70 84
56 79 94
50 72 87
50 72 87
48 72 87
48 70 86
52 74 89
56 81 97
53 78 94
51 73 88
51 74 90
52 77 93
48 72 89
49 71 85
54 79 96
51 76 93
142 184 212
153 197 226
153 197 226
153 197 226
153 197 226
153 197 226
153 197 226
153 197 226
153 197 226
153 197 226
153 197 226
153 197 226
153 197 226
153 197 226
154 197 226
154 197 226
154 197 226
154 197 226
154 197 226
154 197 226
154 197 226
154 197 226
154 197 226
154 197 226
154 197 226
154 198 227
154 198 227
154 198 227
154 198 227
154 198 227
154 198 227
154 198 227
154 198 227
154 198 227
154 198 227
155 198 227
155 198 227
155 198 227
155 198 227
155 198 227
155 198 227
155 198 227
155 198 227
155 198 227
155 198 227
155 198 227
155 198 227
155 198 227
155 198 227
155 198 227
155 198 227
155 198 227
155 198 227
155 198 227
155 198 227
156 198 227
156 198 227
156 198 227
156 198 227
156 198 227
156 198 227
156 199 227
156 199 227
156 199 227
156 199 227
156 199 227
156 199 227
156 199 227
156 199 227
156 199 227
156 199 227
156 199 227
156 199 227
156 199 227
156 199 227
156 199 227
156 199 227
156 199 227
157 199 227
157 199 227
157 199 227
157 199 227
157 199 227
157 199 227
157 199 227
157 199 227
157 199 227
157 199 227
157 199 227
157 199 227
157 199 227
157 199 227
157 199 227
157 199 227
157 199 227
157 199 227
157 199 227
157 199 227
157 199 227
157 199 227
157 199 227
157 199 227
157 199 227
157 199 227
157 199 227
157 199 227
158 200 228
158 200 228
158 200 228
158 200 228
158 200 228
158 200 228
158 200 228
158 200 228
158 200 228
158 200 228
158 200 228
158 200 228
158 200 228
158 200 228
158 200 228
158 200 228
158 200 228
158 200 228
158 200 228
158 200 228
158 200 228
158 200 228
158 200 228
158 200 228
158 200 228
158 200 228
158 200 228
158 200 228
158 200 228
158 200 228
158 200 228
158 200 228
159 200 228
159 200 228
159 200 228
159 200 228
159 200 228
159 200 228
159 200 228
159 200 228
159 200 228
159 200 228
159 200 228
159 200 228
159 200 228
158 200 228
159 200 228
158 200 228
158 200 228
158 200 228
158 200 228
158 200 228
158 200 228
158 200 228
158 200 228
158 200 228
158 200 228
158 200 228
158 200 228
158 200 228
158 200 228
158 200 228
158 200 228
158 200 228
158 200 228
158 200 228
158 200 228
158 200 228
158 200 228
158 200 228
158 200 228
158 200 228
158 200 228
158 200 228
158 200 228
158 200 228
158 200 228
158 200 228
157 199 227
157 199 227
157 199 227
157 199 227
157 199 227
157 199 227
157 199 227
157 199 227
157 199 227
157 199 227
157 199 227
157 199 227
157 199 227
157 199 227
157 199 227
157 199 227
157 199 227
157 199 227
157 199 227
157 199 227
157 199 227
157 199 227
157 199 227
157 199 227
157 199 227
157 199 227
156 199 227
156 199 227
156 199 227
156 199 227
156 199 227
156 199 227
156 199 227
156 199 227
156 199 227
156 199 227
156 199 227
156 199 227
156 199 227
156 199 227
156 199 227
156 199 227
156 199 227
156 198 227
156 198 227
156 198 227
156 198 227
156 198 227
156 198 227
155 198 227
155 198 227
155 198 227
155 198 227
155 198 227
155 198 227
155 198 227
155 198 227
155 198 227
155 198 227
155 198 227
155 198 227
155 198 227
155 198 227
155 198 227
155 198 227
155 198 227
155 198 227
155 198 227
155 198 227
155 198 227
154 198 227
154 198 227
154 198 227
154 198 227
154 198 227
154 198 227
154 198 227
154 198 227
154 198 227
154 198 227
154 198 227
154 197 226
154 197 226
154 197 226
154 197 226
154 197 226
154 197 226
154 197 226
154 197 226
154 197 226
154 197 226
117 153 177
52 75 91
51 74 90
56 80 96
53 77 93
51 74 89
48 71 86
53 76 91
51 75 90
53 77 94
50 72 87
57 82 98
53 76 91
52 75 91
53 78 94
50 73 88
50 74 90
53 77 93
49 71 87
50 74 90
50 74 90
50 73 88
51 74 88
50 75 92
48 70 85
50 74 91
49 71 86
55 79 94
50 72 87
52 76 92
51 72 87
51 74 89
50 72 87
48 71 87
48 71 86
51 74 90
54 78 93
53 76 91
55 78 93
55 77 92
53 76 92
53 75 90
52 75 91
52 74 89
54 77 93
54 76 91
52 74 89
48 72 87
51 73 88
49 72 88
53 75 90
52 74 89
51 75 90
52 75 91
50 73 89
52 75 90
50 73 88
53 77 93
50 74 89
48 70 84
54 76 91
50 74 89
52 76 92
54 77 92
49 72 87
51 75 91
50 73 88
54 78 94
53 76 92
50 73 89
50 73 88
49 71 85
51 73 88
54 77 92
52 77 93
50 74 90
51 75 91
51 73 88
47 70 85
53 75 90
50 75 92
55 79 94
49 73 88
50 72 87
50 73 88
49 72 88
53 77 93
52 75 90
51 73 87
52 76 92
48 72 87
53 76 91
55 78 93
50 74 91
52 77 93
54 76 92
51 74 90
53 75 90
53 77 93
52 74 89
54 77 91
52 74 89
54 78 94
51 74 90
50 74 89
51 74 90
56 80 96
53 75 90
48 72 88
48 71 87
52 75 90
53 77 92
53 77 93
50 73 89
55 78 93
52 75 91
53 77 93
50 73 88
53 76 91
46 68 83
51 75 91
51 75 91
51 74 90
51 75 91
52 75 91
109 145 169
154 197 226
154 197 226
154 197 226
154 197 226
154 197 226
154 197 226
154 197 226
154 197 226
154 197 226
154 197 226
154 198 227
154 198 227
154 198 227
154 198 227
154 198 227
154 198 227
154 198 227
154 198 227
154 198 227
154 198 227
154 198 227
155 198 227
155 198 227
155 198 227
155 198 227
155 198 227
155 198 227
155 198 227
155 198 227
155 198 227
155 198 227
155 198 227
155 198 227
155 198 227
155 198 227
155 198 227
155 198 227
155 198 227
155 198 227
155 198 227
155 198 227
155 198 227
156 198 227
156 198 227
156 198 227
156 198 227
156 198 227
156 198 227
156 199 227
156 199 227
156 199 227
156 199 227
156 199 227
156 199 227
156 199 227
156 199 227
156 199 227
156 199 227
156 199 227
156 199 227
156 199 227
156 199 227
156 199 227
156 199 227
156 199 227
157 199 227
157 199 227
157 199 227
157 199 227
157 199 227
157 199 227
157 199 227
157 199 227
157 199 227
157 199 227
157 199 227
157 199 227
157 199 227
157 199 227
157 199 227
157 199 227
157 199 227
157 199 227
157 199 227
157 199 227
157 199 227
157 199 227
157 199 227
157 199 227
157 199 227
157 199 227
158 200 228
158 200 228
158 200 228
158 200 228
158 200 228
158 200 228
158 200 228
158 200 228
158 200 228
158 200 228
158 200 228
158 200 228
158 200 228
158 200 228
158 200 228
158 200 228
158 200 228
158 200 228
158 200 228
158 200 228
158 200 228
158 200 228
158 200 228
158 200 228
158 200 228
158 200 228
158 200 228
158 200 228
158 200 228
158 200 228
158 200 228
158 200 228
158 200 228
159 200 228
159 200 228
159 200 228
159 200 228
159 200 228
159 200 228
159 200 228
159 200 228
159 200 228
159 200 228
159 200 228
159 200 228
159 200 228
159 201 228
159 201 228
159 200 228
159 200 228
159 200 228
159 200 228
159 200 228
159 200 228
159 200 228
159 200 228
159 200 228
159 200 228
159 200 228
159 200 228
159 200 228
159 200 228
159 200 228
159 200 228
159 200 228
159 200 228
159 200 228
159 200 228
159 200 228
159 200 228
159 200 228
159 200 228
159 200 228
159 200 228
159 200 228
158 200 228
158 200 228
158 200 228
158 200 228
158 200 228
158 200 228
158 200 228
158 200 228
158 200 228
158 200 228
158 200 228
158 200 228
158 200 228
158 200 228
158 200 228
158 200 228
158 200 228
158 200 228
158 200 228
158 200 228
158 200 228
158 200 228
158 200 228
158 200 228
158 200 228
158 200 228
158 200 228
158 200 228
158 200 228
158 200 228
157 199 227
157 199 227
157 199 227
157 199 227
157 199 227
157 199 227
157 199 227
157 199 227
157 199 227
157 199 227
157 199 227
157 199 227
157 199 227
157 199 227
157 199 227
157 199 227
157 199 227
157 199 227
157 199 227
157 199 227
157 199 227
157 199 227
157 199 227
157 199 227
157 199 227
157 199 227
156 199 227
156 199 227
156 199 227
156 199 227
156 199 227
156 199 227
156 199 227
156 199 227
156 199 227
156 199 227
156 199 227
156 199 227
156 199 227
156 199 227
156 199 227
156 199 227
156 199 227
156 198 227
156 198 227
156 198 227
156 198 227
156 198 227
156 198 227
155 198 227
155 198 227
155 198 227
155 198 227
155 198 227
155 198 227
155 198 227
155 198 227
155 198 227
155 198 227
155 198 227
155 198 227
155 198 227
155 198 227
155 198 227
155 198 227
155 198 227
155 198 227
155 198 227
155 198 227
155 198 227
155 198 227
154 198 227
154 198 227
154 198 227
154 198 227
154 198 227
154 198 227
154 198 227
79 109 128
49 72 88
51 74 90
54 76 91
53 77 92
48 72 88
55 79 94
51 75 91
49 71 86
51 73 88
48 71 86
49 73 89
48 71 85
50 74 89
49 71 87
49 72 88
46 69 85
51 75 91
55 78 94
51 74 90
54 77 93
52 74 89
53 77 93
53 76 91
55 79 95
52 76 91
51 75 91
50 74 89
53 76 91
52 75 90
51 75 90
52 76 91
53 76 91
48 72 88
50 72 87
50 72 87
48 70 84
49 72 87
50 73 88
52 75 90
52 76 92
54 77 92
51 74 90
53 76 91
48 70 85
47 69 84
51 74 90
52 74 89
51 73 87
50 73 88
48 70 84
52 76 92
50 72 87
47 70 85
50 74 90
54 77 92
49 72 87
51 76 92
50 72 87
55 79 96
53 75 90
47 70 85
55 78 94
51 73 87
49 72 87
50 74 89
51 74 89
50 74 90
52 76 92
52 75 90
50 73 88
55 78 92
54 77 92
56 78 93
53 76 92
51 74 89
50 72 86
51 73 88
53 75 91
54 78 94
49 71 87
51 76 92
51 74 89
50 72 87
51 74 89
49 72 88
51 75 90
55 79 95
54 78 95
55 78 93
48 71 86
50 73 88
48 70 85
51 74 90
49 73 88
50 73 88
52 75 91
53 77 93
46 68 83
52 74 89
50 72 87
55 80 96
50 73 88
50 74 89
52 75 90
53 77 93
50 72 87
51 75 91
47 70 86
45 68 83
50 71 86
49 73 89
54 77 92
53 76 91
50 73 88
49 72 88
50 73 88
49 72 87
46 69 84
52 74 88
51 76 92
51 74 89
48 73 89
49 72 87
49 72 88
86 116 136
154 198 227
154 198 227
154 198 227
154 198 227
154 198 227
154 198 227
154 198 227
154 198 227
155 198 227
155 198 227
155 198 227
155 198 227
155 198 227
155 198 227
155 198 227
155 198 227
155 198 227
155 198 227
155 198 227
155 198 227
155 198 227
155 198 227
155 198 227
155 198 227
155 198 227
155 198 227
155 198 227
155 198 227
155 198 227
155 198 227
156 198 227
156 198 227
156 198 227
156 198 227
156 198 227
156 199 227
156 199 227
156 199 227
156 199 227
156 199 227
156 199 227
156 199 227
156 199 227
156 199 227
156 199 227
156 199 227
156 199 227
156 199 227
156 199 227
156 199 227
156 199 227
156 199 227
156 199 227
157 199 227
157 199 227
157 199 227
157 199 227
157 199 227
157 199 227
157 199 227
157 199 227
157 199 227
157 199 227
157 199 227
157 199 227
157 199 227
157 199 227
157 199 227
157 199 227
157 199 227
157 199 227
157 199 227
157 199 227
157 199 227
157 199 227
157 199 227
157 199 227
157 199 227
157 199 227
158 200 228
158 200 228
158 200 228
158 200 228
158 200 228
158 200 228
158 200 228
158 200 228
158 200 228
158 200 228
158 200 228
158 200 228
158 200 228
158 200 228
158 200 228
158 200 228
158 200 228
158 200 228
158 200 228
158 200 228
158 200 228
158 200 228
158 200 228
158 200 228
158 200 228
158 200 228
158 200 228
158 200 228
158 200 228
158 200 228
159 200 228
159 200 228
159 200 228
159 200 228
159 200 228
159 200 228
159 200 228
159 200 228
159 200 228
159 200 228
159 200 228
159 200 228
159 200 228
159 200 228
159 200 228
159 200 228
159 200 228
159 200 228
159 200 228
159 200 228
159 200 228
159 200 228
159 200 228
159 200 228
159 200 228
159 200 228
159 200 228
159 201 228
160 201 228
160 201 228
160 201 228
160 201 228
160 201 228
160 201 228
159 201 228
159 201 228
159 201 228
159 201 228
159 201 228
159 201 228
159 201 228
159 201 228
159 201 228
159 201 228
159 201 228
159 200 228
159 200 228
159 200 228
159 200 228
159 200 228
159 200 228
159 200 228
159 200 228
159 200 228
159 200 228
159 200 228
159 200 228
159 200 228
159 200 228
159 200 228
159 200 228
159 200 228
159 200 228
159 200 228
159 200 228
159 200 228
159 200 228
159 200 228
159 200 228
159 200 228
159 200 228
158 200 228
158 200 228
158 200 228
158 200 228
158 200 228
158 200 228
158 200 228
158 200 228
158 200 228
158 200 228
158 200 228
158 200 228
158 200 228
158 200 228
158 200 228
158 200 228
158 200 228
158 200 228
158 200 228
158 200 228
158 200 228
158 200 228
158 200 228
158 200 228
158 200 228
158 200 228
158 200 228
158 200 228
158 200 228
158 200 228
157 199 227
157 199 227
157 199 227
157 199 227
157 199 227
157 199 227
157 199 227
157 199 227
157 199 227
157 199 227
157 199 227
157 199 227
157 199 227
157 199 227
157 199 227
157 199 227
157 199 227
157 199 227
157 199 227
157 199 227
157 199 227
157 199 227
157 199 227
157 199 227
157 199 227
156 199 227
156 199 227
156 199 227
156 199 227
156 199 227
156 199 227
156 199 227
156 199 227
156 199 227
156 199 227
156 199 227
156 199 227
156 199 227
156 199 227
156 199 227
156 199 227
156 199 227
156 199 227
156 199 227
156 198 227
156 198 227
156 198 227
156 198 227
156 198 227
156 198 227
155 198 227
155 198 227
155 198 227
155 198 227
155 198 227
155 198 227
155 198 227
155 198 227
155 198 227
155 198 227
155 198 227
155 198 227
155 198 227
152 194 223
62 88 105
51 73 89
54 77 93
53 76 91
49 71 86
52 75 90
55 78 94
52 75 91
55 78 93
52 75 90
51 74 90
54 78 94
54 76 90
53 75 90
51 75 91
52 75 90
51 74 90
50 72 87
52 75 90
53 77 92
50 72 87
52 75 90
47 69 84
50 73 88
50 72 86
54 78 94
49 72 87
51 74 90
51 74 90
48 70 84
50 73 88
49 72 88
53 78 94
49 70 84
49 70 85
49 73 89
46 70 85
54 76 91
54 78 93
48 70 84
49 72 86
48 72 87
47 69 84
50 74 89
51 75 90
51 75 90
53 76 91
50 72 86
49 71 86
50 73 88
50 74 89
48 70 84
52 75 91
53 77 93
53 76 92
52 76 92
51 74 89
50 73 88
53 75 90
47 70 84
50 71 86
46 69 83
52 75 90
53 77 92
45 68 83
49 72 87
52 74 89
47 70 85
49 72 87
49 72 87
51 73 88
50 74 90
48 69 84
52 76 92
50 74 89
46 69 83
50 74 90
53 77 92
52 76 91
50 72 87
51 74 89
56 79 94
56 79 94
50 74 89
53 75 89
49 72 87
51 73 87
50 75 91
53 77 93
53 76 91
50 73 88
49 73 88
52 75 91
50 72 86
51 74 89
55 77 93
49 71 85
54 77 93
47 70 85
48 71 85
53 78 94
50 74 90
48 70 85
50 73 88
48 70 84
54 78 94
52 74 89
49 71 86
52 76 92
52 76 92
53 77 92
50 74 89
48 72 87
51 76 92
52 76 92
49 72 88
48 72 87
53 77 94
49 73 89
52 75 90
50 72 87
53 76 92
47 69 84
49 72 88
49 71 86
60 86 103
154 197 226
155 198 227
155 198 227
155 198 227
155 198 227
155 198 227
155 198 227
155 198 227
155 198 227
155 198 227
155 198 227
155 198 227
155 198 227
155 198 227
155 198 227
156 198 227
156 198 227
156 198 227
156 198 227
156 198 227
156 198 227
156 199 227
156 199 227
156 199 227
156 199 227
156 199 227
156 199 227
156 199 227
156 199 227
156 199 227
156 199 227
156 199 227
156 199 227
156 199 227
156 199 227
156 199 227
156 199 227
156 199 227
156 199 227
157 199 227
157 199 227
157 199 227
157 199 227
157 199 227
157 199 227
157 199 227
157 199 227
157 199 227
157 199 227
157 199 227
157 199 227
157 199 227
157 199 227
157 199 227
157 199 227
157 199 227
157 199 227
157 199 227
157 199 227
157 199 227
157 199 227
157 199 227
157 199 227
157 199 227
158 200 228
158 200 228
158 200 228
158 200 228
158 200 228
158 200 228
158 200 228
158 200 228
158 200 228
158 200 228
158 200 228
158 200 228
158 200 228
158 200 228
158 200 228
158 200 228
158 200 228
158 200 228
158 200 228
158 200 228
158 200 228
158 200 228
158 200 228
158 200 228
158 200 228
158 200 228
158 200 228
158 200 228
158 200 228
158 200 228
159 200 228
159 200 228
159 200 228
159 200 228
159 200 228
159 200 228
159 200 228
159 200 228
159 200 228
159 200 228
159 200 228
159 200 228
159 200 228
159 200 228
159 200 228
159 200 228
159 200 228
159 200 228
159 200 228
159 200 228
159 200 228
159 200 228
159 200 228
159 200 228
159 200 228
159 200 228
159 201 228
159 201 228
159 201 228
159 201 228
159 201 228
159 201 228
159 201 228
159 201 228
159 201 228
160 201 228
160 201 228
160 201 228
160 201 228
160 201 228
160 201 228
160 201 228
160 201 228
160 201 228
160 201 228
160 201 228
160 201 228
160 201 228
160 201 228
160 201 228
160 201 228
160 201 228
160 201 228
160 201 228
160 201 228
160 201 228
160 201 228
160 201 228
160 201 228
160 201 228
160 201 228
160 201 228
160 201 228
160 201 228
160 201 228
160 201 228
159 201 228
159 201 228
159 201 228
159 201 228
159 201 228
159 201 228
159 201 228
159 201 228
159 201 228
159 201 228
159 200 228
159 200 228
159 200 228
159 200 228
159 200 228
159 200 228
159 200 228
159 200 228
159 200 228
159 200 228
159 200 228
159 200 228
159 200 228
159 200 228
159 200 228
159 200 228
159 200 228
159 200 228
159 200 228
159 200 228
159 200 228
159 200 228
159 200 228
159 200 228
159 200 228
158 200 228
159 200 228
158 200 228
158 200 228
158 200 228
158 200 228
158 200 228
158 200 228
158 200 228
158 200 228
158 200 228
158 200 228
158 200 228
158 200 228
158 200 228
158 200 228
158 200 228
158 200 228
158 200 228
158 200 228
158 200 228
158 200 228
158 200 228
158 200 228
158 200 228
158 200 228
158 200 228
158 200 228
158 200 228
157 199 227
157 199 227
157 199 227
157 199 227
157 199 227
157 199 227
157 199 227
157 199 227
157 199 227
157 199 227
157 199 227
157 199 227
157 199 227
157 199 227
157 199 227
157 199 227
157 199 227
157 199 227
157 199 227
157 199 227
157 199 227
157 199 227
157 199 227
157 199 227
157 199 227
157 199 227
156 199 227
156 199 227
156 199 227
156 199 227
156 199 227
156 199 227
156 199 227
156 199 227
156 199 227
156 199 227
156 199 227
156 199 227
156 199 227
156 199 227
156 199 227
156 199 227
156 199 227
156 199 227
156 199 227
156 198 227
156 198 227
156 198 227
156 198 227
142 182 209
47 71 87
51 74 89
52 73 87
51 75 91
47 70 84
53 76 91
49 72 87
48 71 86
48 70 85
48 71 86
50 72 86
50 72 86
53 77 93
50 73 88
51 74 90
54 77 93
49 72 88
49 71 86
51 75 90
46 69 84
51 73 88
52 75 90
52 75 90
48 71 86
52 75 91
47 70 85
51 74 90
49 71 86
52 75 90
50 73 88
47 69 84
49 71 86
51 74 89
47 69 84
53 76 91
48 72 87
48 71 87
51 73 87
50 72 87
52 74 88
51 75 91
47 69 84
56 79 95
52 75 89
54 77 92
49 71 86
51 74 89
54 77 93
52 75 90
51 74 89
47 69 84
51 73 87
48 71 86
54 77 92
48 71 86
52 74 89
51 75 91
51 73 88
53 76 92
48 71 86
47 69 83
51 74 90
52 75 90
53 78 94
52 76 92
49 72 87
46 68 84
50 74 90
54 78 94
51 74 90
54 76 91
48 69 83
51 74 89
48 71 86
52 74 88
47 70 85
47 68 82
51 74 89
46 67 81
50 72 87
51 74 89
50 73 88
52 75 91
50 72 87
48 71 86
53 77 92
53 75 91
51 75 91
48 69 83
50 72 87
51 75 90
46 69 85
51 73 88
48 70 84
51 75 91
52 75 90
48 71 87
50 73 89
49 72 87
51 74 89
50 72 87
53 76 92
50 72 87
54 78 94
53 75 90
46 69 84
49 73 88
48 71 86
53 77 93
48 70 84
47 70 86
52 74 89
51 73 88
53 76 91
52 76 92
51 75 91
49 72 87
50 72 86
50 74 91
51 75 91
51 75 91
51 74 90
54 77 93
50 72 87
53 76 92
53 77 92
143 183 210
156 198 227
156 198 227
156 198 227
156 198 227
156 199 227
156 199 227
156 199 227
156 199 227
156 199 227
156 199 227
156 199 227
156 199 227
156 199 227
156 199 227
156 199 227
156 199 227
156 199 227
156 199 227
156 199 227
156 199 227
156 199 227
156 199 227
156 199 227
156 199 227
157 199 227
157 199 227
157 199 227
157 199 227
157 199 227
157 199 227
157 199 227
157 199 227
157 199 227
157 199 227
157 199 227
157 199 227
157 199 227
157 199 227
157 199 227
157 199 227
157 199 227
157 199 227
157 199 227
157 199 227
157 199 227
157 199 227
157 199 227
157 199 227
157 199 227
158 200 228
158 200 228
158 200 228
158 200 228
158 200 228
158 200 228
158 200 228
158 200 228
158 200 228
158 200 228
158 200 228
158 200 228
158 200 228
158 200 228
158 200 228
158 200 228
158 200 228
158 200 228
158 200 228
158 200 228
158 200 228
158 200 228
158 200 228
158 200 228
158 200 228
158 200 228
158 200 228
158 200 228
158 200 228
159 200 228
159 200 228
159 200 228
159 200 228
159 200 228
159 200 228
159 200 228
159 200 228
159 200 228
159 200 228
159 200 228
159 200 228
159 200 228
159 200 228
159 200 228
159 200 228
159 200 228
159 200 228
159 200 228
159 200 228
159 200 228
159 200 228
159 200 228
159 200 228
159 200 228
159 201 228
159 201 228
159 201 228
159 201 228
159 201 228
159 201 228
159 201 228
159 201 228
159 201 228
159 201 228
160 201 228
160 201 228
160 201 228
160 201 228
160 201 228
160 201 228
160 201 228
160 201 228
160 201 228
160 201 228
160 201 228
160 201 228
160 201 228
160 201 228
160 201 228
160 201 228
160 201 228
160 201 228
160 201 228
160 201 228
160 201 228
160 201 228
160 201 228
160 201 228
160 201 228
160 201 228
160 201 228
160 201 228
160 201 228
160 201 228
160 201 228
160 201 228
160 201 228
160 201 228
160 201 228
160 201 228
160 201 228
160 201 228
160 201 228
160 201 228
160 201 228
160 201 228
160 201 228
160 201 228
160 201 228
160 201 228
160 201 228
160 201 228
160 201 228
160 201 228
160 201 228
160 201 228
160 201 228
160 201 228
160 201 228
160 201 228
160 201 228
160 201 228
160 201 228
160 201 228
160 201 228
160 201 228
160 201 228
159 201 228
159 201 228
159 201 228
159 201 228
159 201 228
159 201 228
159 201 228
159 201 228
159 201 228
159 200 228
159 200 228
159 200 228
159 200 228
159 200 228
159 200 228
159 200 228
159 200 228
159 200 228
159 200 228
159 200 228
159 200 228
159 200 228
159 200 228
159 200 228
159 200 228
159 200 228
159 200 228
159 200 228
159 200 228
159 200 228
159 200 228
159 200 228
159 200 228
158 200 228
158 200 228
158 200 228
158 200 228
158 200 228
158 200 228
158 200 228
158 200 228
158 200 228
158 200 228
158 200 228
158 200 228
158 200 228
158 200 228
158 200 228
158 200 228
158 200 228
158 200 228
158 200 228
158 200 228
158 200 228
158 200 228
158 200 228
158 200 228
158 200 228
158 200 228
158 200 228
158 200 228
158 200 228
157 199 227
157 199 227
157 199 227
157 199 227
157 199 227
157 199 227
157 199 227
157 199 227
157 199 227
157 199 227
157 199 227
157 199 227
157 199 227
157 199 227
157 199 227
157 199 227
157 199 227
157 199 227
157 199 227
157 199 227
157 199 227
157 199 227
157 199 227
157 199 227
157 199 227
157 199 227
157 199 227
156 199 227
156 199 227
156 199 227
156 199 227
156 199 227
156 199 227
156 199 227
116 151 175
50 74 90
54 77 93
48 70 85
53 76 91
52 75 91
49 73 89
51 74 89
54 77 93
52 75 91
47 68 83
52 74 89
52 73 87
47 69 83
51 75 90
50 73 88
47 70 85
51 75 90
52 75 90
54 77 92
51 73 88
53 75 91
50 74 91
55 78 94
51 73 88
50 71 85
50 72 86
53 75 90
51 75 91
46 68 82
49 71 85
49 71 85
51 73 88
46 68 84
46 68 83
48 70 85
51 73 88
48 71 86
49 72 87
51 73 89
49 71 86
51 73 89
49 72 88
51 75 90
51 73 89
57 80 95
53 74 89
50 74 90
54 78 94
49 71 86
50 73 89
54 77 92
48 71 87
47 70 86
53 76 91
53 76 92
55 78 93
54 77 92
49 72 86
47 69 83
52 75 90
52 75 91
48 72 88
52 73 88
50 73 88
50 71 85
50 73 88
48 70 85
53 75 90
46 67 81
46 69 85
50 73 88
48 70 85
53 75 91
49 73 88
51 75 91
52 75 91
52 75 90
48 71 87
50 72 86
51 72 86
50 73 89
48 69 84
54 79 96
50 74 90
54 78 94
50 72 86
49 72 87
52 74 89
51 74 89
55 77 92
55 78 94
53 76 91
47 70 85
53 75 90
52 74 89
53 76 91
51 73 88
51 74 90
48 73 90
46 69 84
50 72 87
52 76 91
52 76 92
49 72 87
54 76 91
45 67 82
53 75 90
50 72 87
50 72 87
52 74 89
50 73 88
48 71 86
50 73 88
54 76 91
53 78 94
49 72 88
45 69 84
50 72 87
49 72 88
52 76 92
52 75 91
51 73 88
50 73 89
53 76 91
50 74 90
49 73 89
106 140 162
156 199 227
156 199 227
156 199 227
156 199 227
156 199 227
156 199 227
157 199 227
157 199 227
157 199 227
157 199 227
157 199 227
157 199 227
157 199 227
157 199 227
157 199 227
157 199 227
157 199 227
157 199 227
157 199 227
157 199 227
157 199 227
157 199 227
157 199 227
157 199 227
157 199 227
157 199 227
157 199 227
157 199 227
157 199 227
157 199 227
157 199 227
157 199 227
157 199 227
158 200 228
158 200 228
158 200 228
158 200 228
158 200 228
158 200 228
158 200 228
158 200 228
158 200 228
158 200 228
158 200 228
158 200 228
158 200 228
158 200 228
158 200 228
158 200 228
158 200 228
158 200 228
158 200 228
158 200 228
158 200 228
158 200 228
158 200 228
158 200 228
158 200 228
158 200 228
158 200 228
158 200 228
159 200 228
159 200 228
159 200 228
159 200 228
159 200 228
159 200 228
159 200 228
159 200 228
159 200 228
159 200 228
159 200 228
159 200 228
159 200 228
159 200 228
159 200 228
159 200 228
159 200 228
159 200 228
159 200 228
159 200 228
159 200 228
159 200 228
159 200 228
159 200 228
159 200 228
159 200 228
159 201 228
159 201 228
159 201 228
159 201 228
159 201 228
159 201 228
159 201 228
159 201 228
159 201 228
160 201 228
160 201 228
160 201 228
160 201 228
160 201 228
160 201 228
160 201 228
160 201 228
160 201 228
160 201 228
160 201 228
160 201 228
160 201 228
160 201 228
160 201 228
160 201 228
160 201 228
160 201 228
160 201 228
160 201 228
160 201 228
160 201 228
160 201 228
160 201 228
160 201 228
160 201 228
160 201 228
160 201 228
160 201 228
160 201 228
160 201 228
160 201 228
160 201 228
160 201 228
160 201 228
160 201 228
160 201 228
160 201 228
160 201 228
160 201 228
161 201 228
161 201 228
161 201 228
161 201 228
161 201 228
161 201 228
161 201 228
161 201 228
161 201 228
161 201 228
161 201 228
161 201 228
161 201 228
161 201 228
161 201 228
161 201 228
160 201 228
160 201 228
160 201 228
160 201 228
160 201 228
160 201 228
160 201 228
160 201 228
160 201 228
160 201 228
160 201 228
160 201 228
160 201 228
160 201 228
160 201 228
160 201 228
160 201 228
160 201 228
160 201 228
160 201 228
160 201 228
160 201 228
160 201 228
160 201 228
160 201 228
160 201 228
160 201 228
160 201 228
160 201 228
160 201 228
160 201 228
160 201 228
160 201 228
160 201 228
160 201 228
160 201 228
160 201 228
160 201 228
160 201 228
160 201 228
160 201 228
159 201 228
159 201 228
159 201 228
159 201 228
159 201 228
159 201 228
159 201 228
159 201 228
159 201 228
159 201 228
159 200 228
159 200 228
159 200 228
159 200 228
159 200 228
159 200 228
159 200 228
159 200 228
159 200 228
159 200 228
159 200 228
159 200 228
159 200 228
159 200 228
159 200 228
159 200 228
159 200 228
159 200 228
159 200 228
159 200 228
159 200 228
159 200 228
159 200 228
158 200 228
158 200 228
158 200 228
158 200 228
158 200 228
158 200 228
158 200 228
158 200 228
158 200 228
158 200 228
158 200 228
158 200 228
158 200 228
158 200 228
158 200 228
158 200 228
158 200 228
158 200 228
158 200 228
158 200 228
158 200 228
158 200 228
158 200 228
158 200 228
158 200 228
158 200 228
158 200 228
158 200 228
158 200 228
158 200 228
157 199 227
157 199 227
157 199 227
157 199 227
157 199 227
157 199 227
157 199 227
157 199 227
157 199 227
157 199 227
157 199 227
157 199 227
157 199 227
157 199 227
157 199 227
157 199 227
92 122 142
50 73 89
47 69 84
48 71 85
51 74 90
53 75 90
54 76 91
54 77 93
53 76 92
51 73 88
48 70 85
51 74 90
52 75 90
54 77 92
48 70 84
47 70 85
47 70 85
54 78 94
53 76 91
48 69 84
51 75 91
52 75 90
48 69 84
48 71 86
53 76 91
54 77 92
54 77 93
50 73 88
48 71 86
52 75 90
50 74 89
48 71 86
48 71 86
49 70 85
53 77 93
47 70 85
54 77 92
58 82 97
48 70 85
51 73 88
48 70 85
52 76 91
48 70 84
52 74 89
50 74 89
49 71 85
53 76 91
52 75 91
52 74 89
51 74 89
52 74 89
51 74 89
53 76 91
51 74 89
49 70 85
46 69 83
46 68 82
49 71 86
49 72 87
47 70 85
45 66 80
54 77 92
50 73 89
50 72 86
48 71 86
52 73 87
50 73 88
52 75 90
49 71 86
52 74 89
48 69 83
52 74 89
53 76 91
45 68 84
49 72 87
46 67 82
51 74 90
51 74 89
52 74 89
53 76 91
51 75 92
47 71 86
49 72 87
47 68 82
51 75 91
50 72 87
53 78 94
53 76 91
49 71 86
46 70 86
48 71 87
52 74 88
52 74 89
54 77 92
48 70 86
46 68 83
49 71 86
49 72 88
49 72 87
53 76 91
53 76 91
52 73 88
50 73 88
49 71 86
51 74 89
55 77 92
49 72 87
48 70 85
49 71 86
45 67 82
54 77 93
54 76 91
51 75 91
53 76 91
52 75 91
52 75 90
52 73 88
50 73 89
49 72 87
53 76 91
50 74 90
53 76 92
52 76 91
47 69 83
44 67 81
47 69 83
51 74 89
98 130 151
157 199 227
157 199 227
157 199 227
157 199 227
157 199 227
157 199 227
157 199 227
157 199 227
157 199 227
157 199 227
157 199 227
157 199 227
157 199 227
157 199 227
157 199 227
157 199 227
158 200 228
158 200 228
158 200 228
158 200 228
158 200 228
158 200 228
158 200 228
158 200 228
158 200 228
158 200 228
158 200 228
158 200 228
158 200 228
158 200 228
158 200 228
158 200 228
158 200 228
158 200 228
158 200 228
158 200 228
158 200 228
158 200 228
158 200 228
158 200 228
158 200 228
158 200 228
158 200 228
158 200 228
158 200 228
159 200 228
159 200 228
159 200 228
159 200 228
159 200 228
159 200 228
159 200 228
159 200 228
159 200 228
159 200 228
159 200 228
159 200 228
159 200 228
159 200 228
159 200 228
159 200 228
159 200 228
159 200 228
159 200 228
159 200 228
159 200 228
159 200 228
159 200 228
159 200 228
159 201 228
159 201 228
159 201 228
159 201 228
159 201 228
159 201 228
159 201 228
159 201 228
159 201 228
159 201 228
160 201 228
160 201 228
160 201 228
160 201 228
160 201 228
160 201 228
160 201 228
160 201 228
160 201 228
160 201 228
160 201 228
160 201 228
160 201 228
160 201 228
160 201 228
160 201 228
160 201 228
160 201 228
160 201 228
160 201 228
160 201 228
160 201 228
160 201 228
160 201 228
160 201 228
160 201 228
160 201 228
160 201 228
160 201 228
160 201 228
160 201 228
160 201 228
160 201 228
160 201 228
160 201 228
160 201 228
160 201 228
160 201 228
160 201 228
160 201 228
161 201 228
161 201 228
161 201 228
161 201 228
161 201 228
161 201 228
161 201 228
161 201 228
161 201 228
161 201 228
161 201 228
161 201 228
161 201 228
161 201 228
161 201 228
161 201 228
161 201 228
161 202 229
161 202 229
161 202 229
161 202 229
161 202 229
161 202 229
161 202 229
161 202 229
161 202 229
161 202 229
161 202 229
161 202 229
161 201 228
161 201 228
161 201 228
161 201 228
161 201 228
161 201 228
161 201 228
161 201 228
161 201 228
161 201 228
161 201 228
161 201 228
161 201 228
161 201 228
161 201 228
161 201 228
161 201 228
161 201 228
161 201 228
161 201 228
161 201 228
161 201 228
161 201 228
161 201 228
161 201 228
160 201 228
160 201 228
160 201 228
160 201 228
160 201 228
160 201 228
160 201 228
160 201 228
160 201 228
160 201 228
160 201 228
160 201 228
160 201 228
160 201 228
160 201 228
160 201 228
160 201 228
160 201 228
160 201 228
160 201 228
160 201 228
160 201 228
160 201 228
160 201 228
160 201 228
160 201 228
160 201 228
160 201 228
160 201 228
160 201 228
160 201 228
160 201 228
160 201 228
160 201 228
160 201 228
160 201 228
160 201 228
160 201 228
160 201 228
159 201 228
159 201 228
159 201 228
159 201 228
159 201 228
159 201 228
159 201 228
159 201 228
159 200 228
159 200 228
159 200 228
159 200 228
159 200 228
159 200 228
159 200 228
159 200 228
159 200 228
159 200 228
159 200 228
159 200 228
159 200 228
159 200 228
159 200 228
159 200 228
159 200 228
159 200 228
159 200 228
159 200 228
159 200 228
159 200 228
159 200 228
159 200 228
158 200 228
158 200 228
158 200 228
158 200 228
158 200 228
158 200 228
158 200 228
158 200 228
158 200 228
158 200 228
158 200 228
158 200 228
158 200 228
158 200 228
158 200 228
158 200 228
158 200 228
158 200 228
158 200 228
158 200 228
158 200 228
158 200 228
158 200 228
158 200 228
158 200 228
158 200 228
158 200 228
158 200 228
75 103 121
49 72 87
51 73 88
53 75 90
52 73 88
53 77 92
54 77 92
51 75 91
52 75 90
52 76 91
54 77 93
49 73 88
49 72 86
50 72 87
47 68 82
48 69 84
49 70 84
49 72 87
49 71 86
55 77 92
51 76 92
46 68 82
49 71 87
52 73 88
50 72 87
50 73 89
54 78 94
49 72 87
44 66 81
50 72 86
52 74 89
50 73 88
56 78 93
52 75 90
53 75 90
46 68 83
48 70 85
53 75 90
46 68 82
48 70 84
55 77 93
48 71 85
49 71 86
49 71 86
50 73 88
48 71 87
53 76 91
50 73 88
49 72 87
52 74 90
51 73 87
54 76 90
48 70 85
55 78 93
49 72 87
46 68 82
46 68 83
51 74 88
54 77 93
49 72 88
50 74 89
47 68 82
50 74 90
49 72 87
48 71 86
53 76 92
49 72 88
52 74 89
54 77 92
48 69 83
49 72 87
50 72 87
50 73 87
51 72 86
51 73 88
52 74 90
48 70 85
47 70 85
49 72 87
52 75 90
49 69 83
50 72 87
50 74 90
51 75 90
51 75 90
49 72 87
49 71 85
54 76 91
49 71 85
48 70 84
53 76 91
48 71 86
50 73 88
50 72 87
46 68 83
49 72 87
51 75 90
47 70 85
46 68 83
50 74 90
49 72 88
51 73 88
49 71 86
51 75 90
51 75 91
47 70 85
53 75 90
52 74 89
48 70 84
52 75 90
50 74 90
50 72 86
47 69 83
50 73 88
50 73 89
51 74 89
48 70 85
50 72 88
50 73 89
48 70 85
47 71 87
51 74 89
54 77 92
51 73 88
51 74 89
52 75 91
53 76 92
66 92 109
158 200 228
158 200 228
158 200 228
158 200 228
158 200 228
158 200 228
158 200 228
158 200 228
158 200 228
158 200 228
158 200 228
158 200 228
158 200 228
158 200 228
158 200 228
158 200 228
158 200 228
158 200 228
158 200 228
158 200 228
158 200 228
158 200 228
158 200 228
158 200 228
158 200 228
158 200 228
158 200 228
159 200 228
159 200 228
159 200 228
159 200 228
159 200 228
159 200 228
159 200 228
159 200 228
159 200 228
159 200 228
159 200 228
159 200 228
159 200 228
159 200 228
159 200 228
159 200 228
159 200 228
159 200 228
159 200 228
159 200 228
159 200 228
159 200 228
159 200 228
159 200 228
159 201 228
159 201 228
159 201 228
159 201 228
159 201 228
159 201 228
159 201 228
159 201 228
159 201 228
160 201 228
159 201 228
160 201 228
160 201 228
160 201 228
160 201 228
160 201 228
160 201 228
160 201 228
160 201 228
160 201 228
160 201 228
160 201 228
160 201 228
160 201 228
160 201 228
160 201 228
160 201 228
160 201 228
160 201 228
160 201 228
160 201 228
160 201 228
160 201 228
160 201 228
160 201 228
160 201 228
160 201 228
160 201 228
160 201 228
160 201 228
160 201 228
160 201 228
160 201 228
160 201 228
160 201 228
160 201 228
160 201 228
160 201 228
160 201 228
161 201 228
161 201 228
161 201 228
161 201 228
161 201 228
161 201 228
161 201 228
161 201 228
161 201 228
161 201 228
161 201 228
161 201 228
161 201 228
161 201 228
161 201 228
161 201 228
161 201 228
161 201 228
161 201 228
161 201 228
161 201 228
161 201 228
161 201 228
161 201 228
161 202 229
161 202 229
161 202 229
161 202 229
161 202 229
161 202 229
161 202 229
161 202 229
161 202 229
161 202 229
161 202 229
161 202 229
162 202 229
162 202 229
162 202 229
162 202 229
162 202 229
162 202 229
162 202 229
161 202 229
161 202 229
161 202 229
161 202 229
161 202 229
161 202 229
161 202 229
161 202 229
161 202 229
161 202 229
161 202 229
161 202 229
161 202 229
161 202 229
161 202 229
161 202 229
161 202 229
161 202 229
161 202 229
161 202 229
161 202 229
161 202 229
161 202 229
161 202 229
161 202 229
161 202 229
161 202 229
161 201 228
161 201 228
161 201 228
161 201 228
161 201 228
161 201 228
161 201 228
161 201 228
161 201 228
161 201 228
161 201 228
161 201 228
161 201 228
161 201 228
161 201 228
161 201 228
161 201 228
161 201 228
161 201 228
161 201 228
161 201 228
161 201 228
161 201 228
161 201 228
160 201 228
160 201 228
160 201 228
160 201 228
160 201 228
160 201 228
160 201 228
160 201 228
160 201 228
160 201 228
160 201 228
160 201 228
160 201 228
160 201 228
160 201 228
160 201 228
160 201 228
160 201 228
160 201 228
160 201 228
160 201 228
160 201 228
160 201 228
160 201 228
160 201 228
160 201 228
160 201 228
160 201 228
160 201 228
160 201 228
160 201 228
160 201 228
160 201 228
160 201 228
160 201 228
160 201 228
160 201 228
160 201 228
159 201 228
159 201 228
159 201 228
159 201 228
159 201 228
159 201 228
159 201 228
159 201 228
159 200 228
159 200 228
159 200 228
159 200 228
159 200 228
159 200 228
159 200 228
159 200 228
159 200 228
159 200 228
159 200 228
159 200 228
159 200 228
159 200 228
159 200 228
159 200 228
159 200 228
159 200 228
159 200 228
159 200 228
159 200 228
159 200 228
159 200 228
159 200 228
159 200 228
158 200 228
159 200 228
158 200 228
158 200 228
158 200 228
158 200 228
153 194 221
51 76 93
50 72 87
51 75 91
54 78 93
51 74 89
51 74 89
57 81 97
48 70 85
54 76 91
52 75 90
51 72 86
49 72 88
49 72 87
49 72 87
54 77 93
48 71 87
45 66 80
50 72 87
51 74 90
48 70 84
50 73 89
51 74 89
48 71 86
48 70 85
55 78 93
52 75 91
47 68 83
47 69 83
50 71 86
50 74 90
51 75 90
53 77 93
49 71 85
55 77 92
46 67 82
48 70 85
47 70 85
47 69 84
45 67 82
50 73 88
52 76 91
50 72 87
48 71 86
51 75 90
52 74 89
48 71 85
48 69 83
53 74 88
52 76 91
54 77 92
44 66 80
49 71 86
52 73 87
54 75 90
49 72 88
49 72 88
51 75 91
51 74 89
48 71 86
50 72 87
54 77 92
48 72 88
50 72 87
50 73 87
49 71 85
54 77 92
49 71 86
51 74 89
48 71 86
48 71 86
48 72 87
52 75 91
49 71 86
52 74 89
49 71 86
50 71 86
49 72 86
49 72 87
48 70 85
48 71 85
53 77 93
50 73 88
52 74 89
50 72 87
48 71 86
49 71 86
53 76 91
46 68 83
47 70 85
48 70 85
47 70 85
49 72 88
51 74 89
47 70 85
51 75 91
51 73 87
48 71 86
48 71 87
53 75 90
46 69 84
51 73 88
50 73 89
52 75 91
49 71 86
48 70 86
52 74 89
50 73 89
48 70 85
51 74 89
51 73 87
52 75 90
50 73 88
49 71 86
52 75 90
50 73 88
51 74 88
48 72 87
51 73 88
51 73 89
48 68 82
49 72 88
49 71 86
49 72 87
51 74 90
54 78 94
50 74 90
53 75 90
48 71 86
157 199 227
158 200 228
158 200 228
158 200 228
158 200 228
158 200 228
159 200 228
159 200 228
159 200 228
159 200 228
159 200 228
159 200 228
159 200 228
159 200 228
159 200 228
159 200 228
159 200 228
159 200 228
159 200 228
159 200 228
159 200 228
159 200 228
159 200 228
159 200 228
159 200 228
159 200 228
159 200 228
159 200 228
159 200 228
159 200 228
159 200 228
159 200 228
159 201 228
159 201 228
159 201 228
159 201 228
159 201 228
159 201 228
159 201 228
159 201 228
159 201 228
160 201 228
160 201 228
160 201 228
160 201 228
160 201 228
160 201 228
160 201 228
160 201 228
160 201 228
160 201 228
160 201 228
160 201 228
160 201 228
160 201 228
160 201 228
160 201 228
160 201 228
160 201 228
160 201 228
160 201 228
160 201 228
160 201 228
160 201 228
160 201 228
160 201 228
160 201 228
160 201 228
160 201 228
160 201 228
160 201 228
160 201 228
160 201 228
160 201 228
160 201 228
160 201 228
160 201 228
160 201 228
160 201 228
160 201 228
161 201 228
161 201 228
161 201 228
161 201 228
161 201 228
161 201 228
161 201 228
161 201 228
161 201 228
161 201 228
161 201 228
161 201 228
161 201 228
161 201 228
161 201 228
161 201 228
161 201 228
161 201 228
161 201 228
161 201 228
161 201 228
161 202 229
161 202 229
161 202 229
161 202 229
161 202 229
161 202 229
161 202 229
161 202 229
161 202 229
161 202 229
161 202 229
161 202 229
161 202 229
161 202 229
161 202 229
161 202 229
161 202 229
161 202 229
161 202 229
161 202 229
161 202 229
161 202 229
161 202 229
161 202 229
161 202 229
161 202 229
161 202 229
161 202 229
161 202 229
162 202 229
162 202 229
162 202 229
162 202 229
162 202 229
162 202 229
162 202 229
162 202 229
162 202 229
162 202 229
162 202 229
162 202 229
162 202 229
162 202 229
162 202 229
162 202 229
162 202 229
162 202 229
162 202 229
162 202 229
162 202 229
162 202 229
162 202 229
162 202 229
162 202 229
162 202 229
162 202 229
162 202 229
162 202 229
162 202 229
162 202 229
162 202 229
162 202 229
162 202 229
162 202 229
162 202 229
162 202 229
161 202 229
161 202 229
161 202 229
161 202 229
161 202 229
161 202 229
161 202 229
161 202 229
161 202 229
161 202 229
161 202 229
161 202 229
161 202 229
161 202 229
161 202 229
161 202 229
161 202 229
161 202 229
161 202 229
161 202 229
161 202 229
161 202 229
161 202 229
161 202 229
161 202 229
161 202 229
161 201 228
161 201 228
161 201 228
161 201 228
161 201 228
161 201 228
161 201 228
161 201 228
161 201 228
161 201 228
161 201 228
161 201 228
161 201 228
161 201 228
161 201 228
161 201 228
161 201 228
161 201 228
161 201 228
161 201 228
161 201 228
160 201 228
160 201 228
160 201 228
160 201 228
160 201 228
160 201 228
160 201 228
160 201 228
160 201 228
160 201 228
160 201 228
160 201 228
160 201 228
160 201 228
160 201 228
160 201 228
160 201 228
160 201 228
160 201 228
160 201 228
160 201 228
160 201 228
160 201 228
160 201 228
160 201 228
160 201 228
160 201 228
160 201 228
160 201 228
160 201 228
160 201 228
160 201 228
160 201 228
160 201 228
160 201 228
160 201 228
160 201 228
160 201 228
160 201 228
159 201 228
159 201 228
159 201 228
159 201 228
159 201 228
159 201 228
159 201 228
159 201 228
159 201 228
159 200 228
159 200 228
159 200 228
159 200 228
159 200 228
159 200 228
159 200 228
159 200 228
159 200 228
130 167 192
53 78 94
51 74 90
51 73 88
50 73 88
50 72 86
50 73 88
48 70 84
51 75 90
47 70 86
52 74 89
48 70 84
49 74 90
52 75 90
51 73 88
50 72 87
51 75 91
51 75 90
50 72 87
53 76 91
51 75 90
52 75 90
48 71 87
55 78 93
48 70 85
51 74 90
50 73 89
50 72 87
45 68 83
51 74 90
48 71 86
47 69 83
51 72 86
50 72 87
47 70 84
48 70 85
50 71 85
57 79 94
50 73 88
50 72 86
46 67 82
50 73 88
49 72 87
54 78 94
49 71 86
50 72 87
45 67 82
51 73 87
48 71 86
50 72 86
49 72 87
51 73 88
52 73 88
46 68 83
48 70 85
51 74 89
51 74 89
47 68 82
51 73 88
49 71 85
49 73 88
47 70 85
47 69 84
51 73 87
49 71 86
47 69 84
52 75 91
52 75 90
50 72 87
47 70 85
49 72 87
48 70 85
49 72 87
50 73 89
51 74 89
52 75 91
52 75 90
50 72 86
48 70 84
48 70 84
50 72 86
56 78 92
46 68 82
48 71 86
48 71 86
51 74 88
47 69 84
48 71 86
49 72 87
51 76 92
51 73 89
49 73 89
54 77 91
49 71 86
47 69 84
51 74 90
50 72 86
49 71 85
53 77 93
49 73 88
46 67 81
51 72 86
54 76 90
52 76 91
47 71 87
49 72 87
50 74 90
54 78 94
54 77 92
50 73 89
50 73 88
48 70 84
53 77 92
47 69 83
50 72 87
48 71 87
53 75 91
50 73 88
48 70 84
50 74 90
48 72 87
49 70 85
47 70 85
49 71 86
48 70 84
49 70 84
49 70 84
53 76 92
48 70 85
141 180 205
159 200 228
159 200 228
159 200 228
159 200 228
159 200 228
159 200 228
159 200 228
159 200 228
159 200 228
159 201 228
159 201 228
159 201 228
159 201 228
159 201 228
159 201 228
159 201 228
159 201 228
159 201 228
160 201 228
160 201 228
160 201 228
160 201 228
160 201 228
160 201 228
160 201 228
160 201 228
160 201 228
160 201 228
160 201 228
160 201 228
160 201 228
160 201 228
160 201 228
160 201 228
160 201 228
160 201 228
160 201 228
160 201 228
160 201 228
160 201 228
160 201 228
160 201 228
160 201 228
160 201 228
160 201 228
160 201 228
160 201 228
160 201 228
160 201 228
160 201 228
160 201 228
160 201 228
160 201 228
160 201 228
160 201 228
160 201 228
161 201 228
161 201 228
161 201 228
161 201 228
161 201 228
161 201 228
161 201 228
161 201 228
161 201 228
161 201 228
161 201 228
161 201 228
161 201 228
161 201 228
161 201 228
161 201 228
161 201 228
161 201 228
161 201 228
161 201 228
161 201 228
161 201 228
161 201 228
161 202 229
161 202 229
161 202 229
161 202 229
161 202 229
161 202 229
161 202 229
161 202 229
161 202 229
161 202 229
161 202 229
161 202 229
161 202 229
161 202 229
161 202 229
161 202 229
161 202 229
161 202 229
161 202 229
161 202 229
161 202 229
161 202 229
161 202 229
161 202 229
161 202 229
161 202 229
162 202 229
162 202 229
162 202 229
162 202 229
162 202 229
162 202 229
162 202 229
162 202 229
162 202 229
162 202 229
162 202 229
162 202 229
162 202 229
162 202 229
162 202 229
162 202 229
162 202 229
162 202 229
162 202 229
162 202 229
162 202 229
162 202 229
162 202 229
162 202 229
162 202 229
162 202 229
162 202 229
162 202 229
162 202 229
162 202 229
162 202 229
162 202 229
162 202 229
162 202 229
162 202 229
162 202 229
162 202 229
162 202 229
162 202 229
162 202 229
162 202 229
162 202 229
162 202 229
162 202 229
162 202 229
162 202 229
162 202 229
162 202 229
162 202 229
162 202 229
162 202 229
162 202 229
162 202 229
162 202 229
162 202 229
162 202 229
162 202 229
162 202 229
162 202 229
162 202 229
162 202 229
162 202 229
162 202 229
162 202 229
162 202 229
162 202 229
162 202 229
162 202 229
162 202 229
162 202 229
162 202 229
162 202 229
162 202 229
162 202 229
162 202 229
162 202 229
162 202 229
162 202 229
162 202 229
162 202 229
162 202 229
162 202 229
162 202 229
162 202 229
162 202 229
161 202 229
161 202 229
161 202 229
161 202 229
161 202 229
161 202 229
161 202 229
161 202 229
161 202 229
161 202 229
161 202 229
161 202 229
161 202 229
161 202 229
161 202 229
161 202 229
161 202 229
161 202 229
161 202 229
161 202 229
161 202 229
161 202 229
161 202 229
161 202 229
161 201 228
161 202 229
161 201 228
161 201 228
161 201 228
161 201 228
161 201 228
161 201 228
161 201 228
161 201 228
161 201 228
161 201 228
161 201 228
161 201 228
161 201 228
161 201 228
161 201 228
161 201 228
161 201 228
161 201 228
161 201 228
161 201 228
161 201 228
161 201 228
160 201 228
160 201 228
160 201 228
160 201 228
160 201 228
160 201 228
160 201 228
160 201 228
160 201 228
160 201 228
160 201 228
160 201 228
160 201 228
160 201 228
160 201 228
160 201 228
160 201 228
160 201 228
160 201 228
160 201 228
160 201 228
160 201 228
160 201 228
160 201 228
160 201 228
160 201 228
160 201 228
160 201 228
160 201 228
160 201 228
160 201 228
160 201 228
127 162 185
49 71 86
51 74 89
49 71 85
52 74 89
43 65 80
53 75 89
49 71 86
49 71 85
50 72 86
52 75 90
47 70 84
52 74 88
49 71 87
46 68 83
48 70 85
48 70 85
49 71 86
47 69 84
51 74 90
53 76 91
49 72 87
46 69 85
50 72 88
49 72 87
51 72 87
50 72 87
52 74 89
47 69 83
50 73 88
49 71 85
52 75 91
50 71 85
45 67 81
47 70 85
46 69 84
48 70 84
46 67 81
47 69 84
48 70 85
55 78 93
47 68 83
48 71 85
52 76 91
50 73 88
51 73 89
47 68 82
48 69 83
51 74 90
47 69 83
48 71 86
48 71 86
51 73 87
48 72 87
48 69 83
48 69 83
50 72 87
49 72 87
46 68 83
49 72 88
50 73 89
47 69 84
51 74 90
46 69 84
55 78 93
48 69 84
49 71 86
47 69 84
47 69 83
46 67 80
51 74 89
48 70 85
50 73 88
52 75 90
50 71 86
50 72 87
49 70 84
48 70 85
49 70 85
49 71 86
51 73 87
52 75 89
50 73 88
50 73 89
49 71 86
51 75 90
51 73 87
51 74 90
55 79 94
52 75 91
47 69 83
55 77 92
48 70 85
51 74 88
52 74 90
49 71 87
51 73 88
52 74 89
47 69 84
50 73 88
47 69 83
51 73 88
47 69 84
52 76 91
45 66 80
50 73 88
50 73 88
53 75 90
49 71 86
49 71 85
49 72 87
49 71 86
48 69 83
50 72 86
51 73 88
46 66 80
49 71 85
46 68 83
50 72 86
48 71 86
51 73 88
48 70 84
49 71 86
52 74 90
50 72 87
48 69 84
45 67 81
55 77 93
48 70 85
115 149 171
160 201 228
160 201 228
160 201 228
160 201 228
160 201 228
160 201 228
160 201 228
160 201 228
160 201 228
160 201 228
160 201 228
160 201 228
160 201 228
160 201 228
160 201 228
160 201 228
160 201 228
160 201 228
160 201 228
160 201 228
160 201 228
160 201 228
160 201 228
160 201 228
160 201 228
160 201 228
160 201 228
160 201 228
160 201 228
160 201 228
160 201 228
161 201 228
161 201 228
160 201 228
161 201 228
161 201 228
161 201 228
161 201 228
161 201 228
161 201 228
161 201 228
161 201 228
161 201 228
161 201 228
161 201 228
161 201 228
161 201 228
161 201 228
161 201 228
161 201 228
161 201 228
161 201 228
161 201 228
161 201 228
161 202 229
161 202 229
161 202 229
161 202 229
161 202 229
161 202 229
161 202 229
161 202 229
161 202 229
161 202 229
161 202 229
161 202 229
161 202 229
161 202 229
161 202 229
161 202 229
161 202 229
161 202 229
161 202 229
161 202 229
161 202 229
161 202 229
161 202 229
161 202 229
161 202 229
161 202 229
162 202 229
162 202 229
162 202 229
162 202 229
162 202 229
162 202 229
162 202 229
162 202 229
162 202 229
162 202 229
162 202 229
162 202 229
162 202 229
162 202 229
162 202 229
162 202 229
162 202 229
162 202 229
162 202 229
162 202 229
162 202 229
162 202 229
162 202 229
162 202 229
162 202 229
162 202 229
162 202 229
162 202 229
162 202 229
162 202 229
162 202 229
162 202 229
162 202 229
162 202 229
162 202 229
162 202 229
162 202 229
162 202 229
162 202 229
162 202 229
162 202 229
162 202 229
162 202 229
162 202 229
162 202 229
162 202 229
162 202 229
162 202 229
162 202 229
162 202 229
162 202 229
162 202 229
162 202 229
162 202 229
162 202 229
163 203 229
163 203 229
163 202 229
163 202 229
163 202 229
163 202 229
163 202 229
163 202 229
163 202 229
163 202 229
163 202 229
163 202 229
163 202 229
163 202 229
163 202 229
163 202 229
163 202 229
163 202 229
163 202 229
163 202 229
163 202 229
163 202 229
163 202 229
162 202 229
162 202 229
162 202 229
162 202 229
162 202 229
162 202 229
162 202 229
162 202 229
162 202 229
162 202 229
162 202 229
162 202 229
162 202 229
162 202 229
162 202 229
162 202 229
162 202 229
162 202 229
162 202 229
162 202 229
162 202 229
162 202 229
162 202 229
162 202 229
162 202 229
162 202 229
162 202 229
162 202 229
162 202 229
162 202 229
162 202 229
162 202 229
162 202 229
162 202 229
162 202 229
162 202 229
162 202 229
162 202 229
162 202 229
162 202 229
162 202 229
162 202 229
162 202 229
162 202 229
162 202 229
162 202 229
162 202 229
162 202 229
162 202 229
162 202 229
162 202 229
162 202 229
162 202 229
162 202 229
162 202 229
162 202 229
162 202 229
162 202 229
162 202 229
161 202 229
161 202 229
161 202 229
161 202 229
161 202 229
161 202 229
161 202 229
161 202 229
161 202 229
161 202 229
161 202 229
161 202 229
161 202 229
161 202 229
161 202 229
161 202 229
161 202 229
161 202 229
161 202 229
161 202 229
161 202 229
161 202 229
161 202 229
161 201 228
161 201 228
161 201 228
161 201 228
161 201 228
161 201 228
161 201 228
161 201 228
161 201 228
161 201 228
161 201 228
161 201 228
161 201 228
161 201 228
161 201 228
161 201 228
161 201 228
161 201 228
161 201 228
161 201 228
161 201 228
161 201 228
161 201 228
161 201 228
161 201 228
160 201 228
160 201 228
160 201 228
160 201 228
160 201 228
111 144 165
52 74 89
51 73 88
49 73 89
47 69 84
49 71 85
53 76 91
50 71 86
51 73 88
52 74 88
52 74 89
52 75 90
50 74 89
50 73 88
51 73 89
43 64 78
51 72 87
49 71 85
44 67 82
47 70 85
50 73 88
50 72 87
50 71 85
49 71 86
48 71 87
48 69 83
48 71 87
49 70 84
53 75 90
54 76 91
45 66 81
51 74 89
55 78 93
45 66 80
48 70 84
52 75 90
52 73 87
54 77 92
49 71 86
50 73 89
49 72 88
49 71 86
49 71 86
46 67 82
49 73 89
50 73 88
48 69 83
48 71 86
47 68 83
46 68 82
51 74 90
49 70 84
47 69 84
47 69 83
50 73 89
53 77 93
49 72 87
53 74 89
52 75 90
50 73 88
49 72 88
48 70 84
47 69 84
46 69 84
46 67 81
47 69 83
50 73 88
48 69 83
48 69 83
49 71 85
55 79 95
46 69 84
54 76 91
50 71 85
45 66 81
52 74 89
50 71 86
53 75 90
51 75 90
47 69 84
49 72 87
49 70 84
49 72 88
46 67 82
55 79 95
49 71 85
48 71 86
55 78 93
44 66 80
54 78 93
49 71 86
51 74 89
49 70 84
47 69 84
50 72 87
47 68 82
48 70 84
49 71 86
48 70 85
50 72 86
46 69 83
50 72 87
51 74 88
50 72 86
48 70 85
51 75 90
52 76 91
50 72 87
54 77 92
50 72 87
51 73 88
46 70 86
52 76 91
50 73 89
50 73 89
51 73 88
51 74 89
51 73 88
50 72 87
53 75 90
55 78 94
48 70 84
53 76 91
46 68 83
48 70 84
50 72 87
51 73 87
52 74 89
49 72 87
113 146 168
160 201 228
160 201 228
160 201 228
160 201 228
160 201 228
161 201 228
161 201 228
161 201 228
161 201 228
161 201 228
161 201 228
161 201 228
161 201 228
161 201 228
161 201 228
161 201 228
161 201 228
161 201 228
161 201 228
161 201 228
161 201 228
161 201 228
161 201 228
161 201 228
161 201 228
161 201 228
161 201 228
161 201 228
161 202 229
161 202 229
161 202 229
161 202 229
161 202 229
161 202 229
161 202 229
161 202 229
161 202 229
161 202 229
161 202 229
161 202 229
161 202 229
161 202 229
161 202 229
161 202 229
161 202 229
161 202 229
161 202 229
161 202 229
161 202 229
161 202 229
161 202 229
161 202 229
161 202 229
162 202 229
162 202 229
162 202 229
162 202 229
162 202 229
162 202 229
162 202 229
162 202 229
162 202 229
162 202 229
162 202 229
162 202 229
162 202 229
162 202 229
162 202 229
162 202 229
162 202 229
162 202 229
162 202 229
162 202 229
162 202 229
162 202 229
162 202 229
162 202 229
162 202 229
162 202 229
162 202 229
162 202 229
162 202 229
162 202 229
162 202 229
162 202 229
162 202 229
162 202 229
162 202 229
162 202 229
162 202 229
162 202 229
162 202 229
162 202 229
162 202 229
162 202 229
162 202 229
162 202 229
162 202 229
162 202 229
162 202 229
162 202 229
162 202 229
162 202 229
162 202 229
162 202 229
162 202 229
162 202 229
162 202 229
162 202 229
162 202 229
162 202 229
162 202 229
162 202 229
163 202 229
163 202 229
163 202 229
163 202 229
163 202 229
163 202 229
163 202 229
163 202 229
163 202 229
163 202 229
163 202 229
163 202 229
163 202 229
163 202 229
163 202 229
163 202 229
163 202 229
163 202 229
163 202 229
163 203 229
163 203 229
163 203 229
163 203 229
163 203 229
163 203 229
163 203 229
163 203 229
163 203 229
163 203 229
163 203 229
163 203 229
163 203 229
163 203 229
163 203 229
163 203 229
163 203 229
163 203 229
163 203 229
163 203 229
163 203 229
163 203 229
163 203 229
163 203 229
163 203 229
163 203 229
163 203 229
163 203 229
163 203 229
163 203 229
163 203 229
163 203 229
163 203 229
163 203 229
163 203 229
163 203 229
163 203 229
163 203 229
163 202 229
163 202 229
163 202 229
163 202 229
163 202 229
163 202 229
163 202 229
163 202 229
163 202 229
163 202 229
163 202 229
163 202 229
163 202 229
163 202 229
163 202 229
163 202 229
163 202 229
163 202 229
163 202 229
162 202 229
162 202 229
162 202 229
162 202 229
162 202 229
162 202 229
162 202 229
162 202 229
162 202 229
162 202 229
162 202 229
162 202 229
162 202 229
162 202 229
162 202 229
162 202 229
162 202 229
162 202 229
162 202 229
162 202 229
162 202 229
162 202 229
162 202 229
162 202 229
162 202 229
162 202 229
162 202 229
162 202 229
162 202 229
162 202 229
162 202 229
162 202 229
162 202 229
162 202 229
162 202 229
162 202 229
162 202 229
162 202 229
162 202 229
162 202 229
162 202 229
162 202 229
162 202 229
162 202 229
162 202 229
162 202 229
162 202 229
162 202 229
162 202 229
162 202 229
162 202 229
162 202 229
162 202 229
162 202 229
162 202 229
162 202 229
162 202 229
162 202 229
162 202 229
161 202 229
161 202 229
161 202 229
161 202 229
161 202 229
161 202 229
161 202 229
161 202 229
161 202 229
161 202 229
161 202 229
161 202 229
161 202 229
161 202 229
161 202 229
161 202 229
161 202 229
161 202 229
161 202 229
161 202 229
161 202 229
161 202 229
88 116 135
50 73 88
51 74 89
51 73 88
50 74 89
54 77 92
47 69 83
47 68 83
48 71 85
52 75 90
50 72 86
52 75 90
47 69 83
50 72 87
49 73 88
49 71 85
47 70 85
45 68 82
46 67 81
49 69 83
49 72 87
46 69 84
51 73 88
48 70 85
50 71 86
45 67 82
51 73 87
48 69 84
51 73 88
50 73 88
49 71 85
46 69 83
49 70 84
50 73 88
48 69 84
51 74 89
49 71 85
55 77 92
50 72 86
51 73 88
50 72 86
49 71 85
49 71 86
48 70 85
47 69 83
47 71 86
44 66 80
49 71 86
54 76 91
51 74 89
51 73 87
48 69 83
52 74 89
50 73 88
51 74 89
49 72 87
49 71 85
51 73 88
46 68 82
51 75 90
48 68 82
49 71 86
46 67 81
53 75 89
50 72 86
50 72 87
50 72 87
47 69 84
50 71 86
48 70 85
50 72 87
48 70 84
48 71 86
49 72 87
47 69 84
52 73 88
45 66 81
49 71 86
44 66 80
53 76 91
50 72 87
48 72 87
51 72 87
49 71 85
51 72 86
51 73 88
47 68 83
49 70 84
47 69 84
50 73 88
52 74 89
54 78 94
50 73 88
50 73 88
47 69 84
49 71 85
52 76 91
51 73 87
50 72 86
46 68 83
50 72 86
49 71 86
48 70 85
49 71 85
49 71 85
49 70 85
48 70 85
49 70 84
46 67 81
54 78 93
49 71 85
49 71 86
50 71 85
49 71 86
50 72 86
49 71 85
51 73 87
50 71 86
47 69 84
52 75 90
49 72 87
52 75 90
51 73 88
53 75 90
49 71 86
49 72 86
48 70 85
50 72 86
52 75 91
99 131 151
161 202 229
161 202 229
161 202 229
161 202 229
161 202 229
161 202 229
161 202 229
161 202 229
161 202 229
161 202 229
161 202 229
161 202 229
161 202 229
161 202 229
161 202 229
161 202 229
161 202 229
161 202 229
161 202 229
161 202 229
161 202 229
161 202 229
162 202 229
162 202 229
162 202 229
162 202 229
162 202 229
162 202 229
162 202 229
162 202 229
162 202 229
162 202 229
162 202 229
162 202 229
162 202 229
162 202 229
162 202 229
162 202 229
162 202 229
162 202 229
162 202 229
162 202 229
162 202 229
162 202 229
162 202 229
162 202 229
162 202 229
162 202 229
162 202 229
162 202 229
162 202 229
162 202 229
162 202 229
162 202 229
162 202 229
162 202 229
162 202 229
162 202 229
162 202 229
162 202 229
162 202 229
162 202 229
162 202 229
162 202 229
162 202 229
162 202 229
162 202 229
162 202 229
162 202 229
162 202 229
162 202 229
162 202 229
162 202 229
162 202 229
162 202 229
162 202 229
162 202 229
162 202 229
162 202 229
162 202 229
162 202 229
162 202 229
163 202 229
163 202 229
163 202 229
163 202 229
163 202 229
163 202 229
163 202 229
163 202 229
163 202 229
163 202 229
163 202 229
163 202 229
163 202 229
163 202 229
163 202 229
163 202 229
163 202 229
163 203 229
163 203 229
163 203 229
163 203 229
163 203 229
163 203 229
163 203 229
163 203 229
163 203 229
163 203 229
163 203 229
163 203 229
163 203 229
163 203 229
163 203 229
163 203 229
163 203 229
163 203 229
163 203 229
163 203 229
163 203 229
163 203 229
163 203 229
163 203 229
163 203 229
163 203 229
163 203 229
163 203 229
163 203 229
163 203 229
163 203 229
163 203 229
163 203 229
163 203 229
163 203 229
163 203 229
164 203 229
164 203 229
164 203 229
164 203 229
164 203 229
164 203 229
164 203 229
163 203 229
163 203 229
163 203 229
163 203 229
163 203 229
163 203 229
163 203 229
163 203 229
163 203 229
163 203 229
163 203 229
163 203 229
163 203 229
163 203 229
163 203 229
163 203 229
163 203 229
163 203 229
163 203 229
163 203 229
163 203 229
163 203 229
163 203 229
163 203 229
163 203 229
163 203 229
163 203 229
163 203 229
163 203 229
163 203 229
163 203 229
163 203 229
163 203 229
163 203 229
163 203 229
163 203 229
163 203 229
163 203 229
163 203 229
163 203 229
163 203 229
163 203 229
163 203 229
163 203 229
163 203 229
163 203 229
163 203 229
163 203 229
163 203 229
163 203 229
163 203 229
163 203 229
163 203 229
163 203 229
163 203 229
163 203 229
163 203 229
163 203 229
163 203 229
163 203 229
163 203 229
163 203 229
163 203 229
163 203 229
163 203 229
163 203 229
163 202 229
163 202 229
163 202 229
163 202 229
163 202 229
163 202 229
163 202 229
163 202 229
163 202 229
163 202 229
163 202 229
163 202 229
163 202 229
163 202 229
163 202 229
163 202 229
163 202 229
162 202 229
162 202 229
162 202 229
162 202 229
162 202 229
162 202 229
162 202 229
162 202 229
162 202 229
162 202 229
162 202 229
162 202 229
162 202 229
162 202 229
162 202 229
162 202 229
162 202 229
162 202 229
162 202 229
162 202 229
162 202 229
162 202 229
162 202 229
162 202 229
162 202 229
162 202 229
162 202 229
162 202 229
162 202 229
162 202 229
162 202 229
162 202 229
162 202 229
162 202 229
162 202 229
162 202 229
162 202 229
162 202 229
162 202 229
162 202 229
162 202 229
162 202 229
162 202 229
162 202 229
162 202 229
92 122 142
46 67 81
51 74 89
49 70 85
45 67 82
52 75 89
48 69 83
48 70 84
45 67 82
49 71 85
48 71 87
50 73 88
49 71 86
54 76 91
49 71 86
45 66 81
49 71 86
48 70 85
48 70 85
49 72 88
47 69 83
53 75 90
52 73 88
46 68 82
52 73 87
50 73 88
53 74 88
48 69 83
50 72 87
51 73 88
44 65 79
49 70 85
49 72 87
52 73 88
45 65 79
49 71 85
48 71 86
48 70 84
49 70 84
46 68 82
47 70 85
46 67 81
49 70 84
47 68 83
52 74 89
48 70 85
49 71 85
54 76 92
46 65 79
50 72 87
47 69 84
48 70 85
53 75 91
49 71 85
45 67 82
51 73 88
53 75 91
47 70 85
49 71 86
51 74 90
49 70 85
53 76 91
48 68 81
51 73 88
47 69 84
49 71 85
50 72 86
44 65 78
48 70 85
51 72 87
51 74 89
50 73 88
45 66 80
51 73 88
52 75 90
50 71 86
49 71 85
50 72 87
47 69 84
53 75 89
49 71 85
51 73 87
49 70 84
48 70 85
49 71 86
52 74 88
47 69 84
41 62 76
51 73 88
51 73 87
49 71 86
48 71 86
53 73 87
51 73 88
45 67 81
46 68 82
50 72 86
46 69 84
49 72 87
50 72 87
48 70 85
46 67 82
53 75 89
51 73 88
49 71 86
49 71 85
50 72 87
48 71 87
53 77 93
48 69 83
49 71 86
53 75 89
45 67 81
45 67 82
50 72 86
51 73 88
48 70 85
53 76 91
50 71 86
48 69 82
50 73 89
50 72 87
49 72 87
50 71 86
54 76 91
50 72 88
47 68 83
53 75 90
49 72 88
83 110 129
162 202 229
162 202 229
162 202 229
162 202 229
162 202 229
162 202 229
162 202 229
162 202 229
162 202 229
162 202 229
162 202 229
162 202 229
162 202 229
162 202 229
162 202 229
162 202 229
162 202 229
162 202 229
162 202 229
162 202 229
162 202 229
162 202 229
162 202 229
162 202 229
162 202 229
162 202 229
162 202 229
162 202 229
162 202 229
162 202 229
162 202 229
162 202 229
162 202 229
162 202 229
162 202 229
162 202 229
162 202 229
162 202 229
162 202 229
162 202 229
162 202 229
162 202 229
162 202 229
162 202 229
162 202 229
162 202 229
163 202 229
163 202 229
163 202 229
163 202 229
163 202 229
163 202 229
163 202 229
163 202 229
163 202 229
163 202 229
163 202 229
163 202 229
163 202 229
163 202 229
163 202 229
163 202 229
163 202 229
163 202 229
163 203 229
163 203 229
163 203 229
163 203 229
163 203 229
163 203 229
163 203 229
163 203 229
163 203 229
163 203 229
163 203 229
163 203 229
163 203 229
163 203 229
163 203 229
163 203 229
163 203 229
163 203 229
163 203 229
163 203 229
163 203 229
163 203 229
163 203 229
163 203 229
163 203 229
163 203 229
163 203 229
163 203 229
163 203 229
163 203 229
163 203 229
163 203 229
163 203 229
163 203 229
163 203 229
163 203 229
163 203 229
163 203 229
163 203 229
163 203 229
163 203 229
163 203 229
163 203 229
163 203 229
163 203 229
163 203 229
163 203 229
163 203 229
163 203 229
163 203 229
163 203 229
163 203 229
163 203 229
163 203 229
163 203 229
163 203 229
163 203 229
163 203 229
163 203 229
163 203 229
163 203 229
163 203 229
163 203 229
164 203 229
164 203 229
164 203 229
164 203 229
164 203 229
164 203 229
164 203 229
164 203 229
164 203 229
164 203 229
164 203 229
164 203 229
164 203 229
164 203 229
164 203 229
164 203 229
164 203 229
164 203 229
164 203 229
164 203 229
164 203 229
164 203 229
164 203 229
164 203 229
164 203 229
164 203 229
164 203 229
164 203 229
164 203 229
164 203 229
164 203 229
164 203 229
164 203 229
164 203 229
164 203 229
164 203 229
164 203 229
164 203 229
164 203 229
164 203 229
164 203 229
164 203 229
164 203 229
164 203 229
164 203 229
164 203 229
164 203 229
164 203 229
164 203 229
164 203 229
164 203 229
164 203 229
164 203 229
164 203 229
164 203 229
164 203 229
164 203 229
164 203 229
164 203 229
163 203 229
163 203 229
163 203 229
163 203 229
163 203 229
163 203 229
163 203 229
163 203 229
163 203 229
163 203 229
163 203 229
163 203 229
163 203 229
163 203 229
163 203 229
163 203 229
163 203 229
163 203 229
163 203 229
163 203 229
163 203 229
163 203 229
163 203 229
163 203 229
163 203 229
163 203 229
163 203 229
163 203 229
163 203 229
163 203 229
163 203 229
163 203 229
163 203 229
163 203 229
163 203 229
163 203 229
163 203 229
163 203 229
163 203 229
163 203 229
163 203 229
163 203 229
163 203 229
163 203 229
163 203 229
163 203 229
163 203 229
163 203 229
163 203 229
163 203 229
163 203 229
163 203 229
163 203 229
163 203 229
163 203 229
163 203 229
163 203 229
163 203 229
163 203 229
163 203 229
163 203 229
163 202 229
163 203 229
163 202 229
163 202 229
163 202 229
163 202 229
163 202 229
163 202 229
163 202 229
163 202 229
163 202 229
163 202 229
163 202 229
163 202 229
163 202 229
163 202 229
163 202 229
163 202 229
162 202 229
163 202 229
162 202 229
162 202 229
162 202 229
77 104 121
53 75 90
46 66 80
52 73 87
51 73 88
52 75 90
49 72 87
52 75 90
50 72 87
46 68 83
49 71 85
53 75 90
45 66 80
49 71 85
49 72 87
50 74 89
50 74 89
44 65 79
51 74 89
50 72 87
48 70 85
46 68 82
48 71 87
47 70 85
46 68 83
49 70 85
49 70 85
47 68 83
50 72 87
50 72 87
51 73 87
51 73 88
51 73 88
50 72 87
50 73 89
50 72 87
52 75 91
47 68 82
49 70 84
51 74 89
49 72 87
46 67 81
49 72 87
49 71 85
50 72 87
50 72 86
49 71 86
54 76 90
46 67 82
50 71 86
47 68 82
51 74 89
50 72 86
46 68 82
50 73 88
52 74 89
52 74 89
52 73 87
52 75 90
49 72 87
47 70 84
46 67 82
50 72 86
50 73 88
52 74 88
50 71 85
48 69 83
46 67 81
52 74 90
47 69 84
50 72 86
49 70 84
49 71 85
48 70 84
43 63 77
50 72 87
52 74 89
47 69 84
46 66 80
46 67 81
50 72 86
50 71 86
50 72 87
45 67 81
48 71 86
51 73 88
50 73 88
50 72 87
49 71 86
46 68 83
49 71 86
50 72 87
53 75 89
48 70 85
51 74 89
44 67 82
50 73 88
48 71 87
49 70 85
52 74 89
51 74 88
48 70 85
50 71 85
53 76 92
47 70 86
47 68 82
50 72 86
44 67 82
50 72 87
50 72 87
46 68 82
50 73 88
48 70 85
48 68 82
50 71 85
47 69 84
49 70 84
49 69 83
50 72 86
51 73 88
51 73 88
52 74 88
50 72 87
54 77 92
49 71 86
46 69 84
50 73 89
50 72 86
48 71 87
75 102 119
162 202 229
162 202 229
162 202 229
163 202 229
163 202 229
163 202 229
163 202 229
163 202 229
163 202 229
163 202 229
163 202 229
163 202 229
163 202 229
163 202 229
163 202 229
163 202 229
163 202 229
163 202 229
163 202 229
163 202 229
163 202 229
163 202 229
163 202 229
163 203 229
163 203 229
163 203 229
163 203 229
163 203 229
163 203 229
163 203 229
163 203 229
163 203 229
163 203 229
163 203 229
163 203 229
163 203 229
163 203 229
163 203 229
163 203 229
163 203 229
163 203 229
163 203 229
163 203 229
163 203 229
163 203 229
163 203 229
163 203 229
163 203 229
163 203 229
163 203 229
163 203 229
163 203 229
163 203 229
163 203 229
163 203 229
163 203 229
163 203 229
163 203 229
163 203 229
163 203 229
163 203 229
163 203 229
163 203 229
163 203 229
163 203 229
163 203 229
163 203 229
163 203 229
163 203 229
163 203 229
163 203 229
163 203 229
163 203 229
163 203 229
163 203 229
163 203 229
163 203 229
163 203 229
163 203 229
163 203 229
163 203 229
163 203 229
163 203 229
164 203 229
163 203 229
164 203 229
164 203 229
164 203 229
164 203 229
164 203 229
164 203 229
164 203 229
164 203 229
164 203 229
164 203 229
164 203 229
164 203 229
164 203 229
164 203 229
164 203 229
164 203 229
164 203 229
164 203 229
164 203 229
164 203 229
164 203 229
164 203 229
164 203 229
164 203 229
164 203 229
164 203 229
164 203 229
164 203 229
164 203 229
164 203 229
164 203 229
164 203 229
164 203 229
164 203 229
164 203 229
164 203 229
164 203 229
164 203 229
164 203 229
164 203 229
164 203 229
164 203 229
164 203 229
164 203 229
164 203 229
164 203 229
164 203 229
164 203 229
164 203 229
164 203 229
164 203 229
164 203 229
164 203 229
164 203 229
164 203 229
164 203 229
164 203 229
164 203 229
164 203 229
164 203 229
164 203 229
164 203 229
164 203 229
164 203 229
164 203 229
164 203 229
164 203 229
164 203 229
164 203 229
164 203 229
164 203 229
164 203 229
164 203 229
164 203 229
164 203 229
164 203 229
164 203 229
164 203 229
164 203 229
164 203 229
164 203 229
164 203 229
164 203 229
164 203 229
164 203 229
164 203 229
164 203 229
164 203 229
164 203 229
164 203 229
164 203 229
164 203 229
164 203 229
164 203 229
164 203 229
164 203 229
164 203 229
164 203 229
164 203 229
164 203 229
164 203 229
164 203 229
164 203 229
164 203 229
164 203 229
164 203 229
164 203 229
164 203 229
164 203 229
164 203 229
164 203 229
164 203 229
164 203 229
164 203 229
164 203 229
164 203 229
164 203 229
164 203 229
164 203 229
164 203 229
164 203 229
164 203 229
164 203 229
164 203 229
164 203 229
164 203 229
164 203 229
164 203 229
164 203 229
164 203 229
164 203 229
164 203 229
164 203 229
164 203 229
164 203 229
164 203 229
164 203 229
164 203 229
164 203 229
164 203 229
164 203 229
164 203 229
164 203 229
164 203 229
164 203 229
164 203 229
164 203 229
164 203 229
164 203 229
164 203 229
163 203 229
164 203 229
163 203 229
164 203 229
163 203 229
163 203 229
163 203 229
163 203 229
163 203 229
163 203 229
163 203 229
163 203 229
163 203 229
163 203 229
163 203 229
163 203 229
163 203 229
163 203 229
163 203 229
163 203 229
163 203 229
163 203 229
163 203 229
163 203 229
163 203 229
163 203 229
163 203 229
163 203 229
163 203 229
163 203 229
163 203 229
163 203 229
163 203 229
163 203 229
163 203 229
63 87 102
48 69 83
49 72 87
46 67 81
54 76 91
47 68 82
45 66 79
56 78 93
48 70 84
53 74 88
47 69 83
48 69 83
53 75 91
51 73 88
52 74 88
48 69 83
46 67 81
50 71 86
49 70 85
48 70 84
45 67 82
51 72 86
45 65 79
50 73 87
49 70 84
53 75 89
50 71 85
50 71 85
47 67 80
51 73 88
48 70 84
47 69 83
50 71 85
45 66 80
48 70 85
48 71 86
48 70 85
49 72 86
47 69 84
52 73 87
48 70 84
49 71 86
49 71 86
52 76 91
49 71 85
48 69 84
50 72 87
49 70 84
52 75 91
51 73 88
46 69 84
49 71 86
48 69 83
52 75 90
48 71 86
45 66 80
50 72 87
53 76 91
49 71 85
51 75 90
46 68 83
51 73 88
50 73 88
48 69 83
47 68 83
50 71 84
51 72 85
46 67 82
48 70 85
48 70 84
49 71 86
46 68 83
50 73 89
51 73 87
42 63 77
53 75 90
50 73 87
50 71 86
50 72 87
49 71 85
46 68 82
47 67 80
50 71 85
50 74 89
52 73 88
51 74 89
51 72 86
49 70 83
48 70 84
45 66 80
52 74 90
47 69 84
53 75 89
48 72 87
47 69 83
52 73 88
49 72 87
48 70 84
46 68 82
49 72 86
49 71 86
48 70 85
49 71 86
50 72 87
42 63 77
46 68 82
50 72 86
52 72 86
50 71 86
51 73 88
49 70 84
48 69 83
48 70 84
51 73 88
46 67 81
53 76 91
49 71 85
52 74 89
49 71 86
46 68 83
44 66 81
47 69 84
46 67 81
49 71 86
51 73 87
52 75 91
50 72 87
46 68 82
49 71 86
70 95 111
163 203 229
163 203 229
163 203 229
163 203 229
163 203 229
163 203 229
163 203 229
163 203 229
163 203 229
163 203 229
163 203 229
163 203 229
163 203 229
163 203 229
163 203 229
163 203 229
163 203 229
163 203 229
163 203 229
163 203 229
163 203 229
163 203 229
163 203 229
163 203 229
163 203 229
163 203 229
163 203 229
163 203 229
163 203 229
163 203 229
163 203 229
163 203 229
163 203 229
164 203 229
163 203 229
164 203 229
164 203 229
164 203 229
164 203 229
164 203 229
164 203 229
164 203 229
164 203 229
164 203 229
164 203 229
164 203 229
164 203 229
164 203 229
164 203 229
164 203 229
164 203 229
164 203 229
164 203 229
164 203 229
164 203 229
164 203 229
164 203 229
164 203 229
164 203 229
164 203 229
164 203 229
164 203 229
164 203 229
164 203 229
164 203 229
164 203 229
164 203 229
164 203 229
164 203 229
164 203 229
164 203 229
164 203 229
164 203 229
164 203 229
164 203 229
164 203 229
164 203 229
164 203 229
164 203 229
164 203 229
164 203 229
164 203 229
164 203 229
164 203 229
164 203 229
164 203 229
164 203 229
164 203 229
164 203 229
164 203 229
164 203 229
164 203 229
164 203 229
164 203 229
164 203 229
164 203 229
164 203 229
164 203 229
164 203 229
164 203 229
164 203 229
164 203 229
164 203 229
164 203 229
164 203 229
164 203 229
164 203 229
164 203 229
164 203 229
164 203 229
164 203 229
164 203 229
164 203 229
164 203 229
164 203 229
164 203 229
164 203 229
164 203 229
164 203 229
164 203 229
164 203 229
164 203 229
164 203 229
164 203 229
164 203 229
164 203 229
164 203 229
164 203 229
164 203 229
164 203 229
164 203 229
164 203 229
164 203 229
164 203 229
164 203 229
165 204 230
165 204 230
165 204 230
165 204 230
165 204 230
165 204 230
165 204 230
165 204 230
165 204 230
165 204 230
165 204 230
165 204 230
165 204 230
165 204 230
165 204 230
165 204 230
165 204 230
165 204 230
165 204 230
165 204 230
165 204 230
165 204 230
165 204 230
165 204 230
165 204 230
165 204 230
165 204 230
165 204 230
165 204 230
165 204 230
165 204 230
165 204 230
165 204 230
165 204 230
165 204 230
165 204 230
165 204 230
165 204 230
165 204 230
165 204 230
165 204 230
165 204 230
165 204 230
164 203 229
165 204 230
164 203 229
165 204 230
164 203 229
164 203 229
164 203 229
164 203 229
164 203 229
164 203 229
164 203 229
164 203 229
164 203 229
164 203 229
164 203 229
164 203 229
164 203 229
164 203 229
164 203 229
164 203 229
164 203 229
164 203 229
164 203 229
164 203 229
164 203 229
164 203 229
164 203 229
164 203 229
164 203 229
164 203 229
164 203 229
164 203 229
164 203 229
164 203 229
164 203 229
164 203 229
164 203 229
164 203 229
164 203 229
164 203 229
164 203 229
164 203 229
164 203 229
164 203 229
164 203 229
164 203 229
164 203 229
164 203 229
164 203 229
164 203 229
164 203 229
164 203 229
164 203 229
164 203 229
164 203 229
164 203 229
164 203 229
164 203 229
164 203 229
164 203 229
164 203 229
164 203 229
164 203 229
164 203 229
164 203 229
164 203 229
164 203 229
164 203 229
164 203 229
164 203 229
164 203 229
164 203 229
164 203 229
164 203 229
164 203 229
164 203 229
164 203 229
164 203 229
164 203 229
164 203 229
164 203 229
164 203 229
164 203 229
164 203 229
164 203 229
164 203 229
164 203 229
164 203 229
164 203 229
164 203 229
164 203 229
164 203 229
62 86 101
49 73 88
49 71 85
50 72 87
49 72 88
48 70 85
48 67 81
45 65 79
50 72 88
46 67 82
47 68 82
49 70 84
46 67 80
48 70 84
48 68 82
52 74 89
48 71 86
51 72 86
42 63 76
50 71 85
50 71 85
52 74 89
49 71 87
49 71 87
49 70 84
46 67 81
51 73 88
49 72 87
47 68 81
51 75 90
48 70 85
47 68 82
48 70 85
45 68 83
50 73 88
46 67 81
48 70 85
51 73 87
47 68 83
48 70 84
52 74 88
46 69 84
51 74 89
50 72 87
54 76 91
47 68 82
50 74 89
50 72 86
49 70 84
47 69 84
47 69 83
51 73 88
47 69 84
47 69 84
48 70 84
48 70 85
50 72 86
50 73 89
51 72 86
47 69 84
53 75 90
50 72 87
49 70 84
49 71 85
50 71 85
51 73 88
51 74 89
50 72 87
52 74 89
50 72 86
46 69 84
49 70 85
49 73 88
52 74 89
48 70 85
52 75 89
50 71 86
45 67 81
54 76 91
48 68 82
49 69 82
47 70 85
52 74 88
51 72 86
47 69 83
44 66 81
48 70 84
47 68 82
51 73 88
51 73 88
50 72 86
50 72 86
46 67 82
45 67 82
48 69 83
50 71 85
50 72 87
51 72 86
48 69 84
50 73 87
46 68 82
49 70 84
53 76 91
49 72 87
45 66 80
51 74 89
52 74 89
53 76 91
45 66 80
50 71 86
52 75 90
47 68 82
51 73 87
53 75 90
52 76 91
45 66 80
47 69 84
46 68 82
49 72 87
48 70 85
49 73 88
52 74 89
48 69 83
50 73 88
47 70 85
51 74 89
50 70 84
52 74 89
50 71 86
61 86 102
164 203 229
164 203 229
164 203 229
164 203 229
164 203 229
164 203 229
164 203 229
164 203 229
164 203 229
164 203 229
164 203 229
164 203 229
164 203 229
164 203 229
164 203 229
164 203 229
164 203 229
164 203 229
164 203 229
164 203 229
164 203 229
164 203 229
164 203 229
164 203 229
164 203 229
164 203 229
164 203 229
164 203 229
164 203 229
164 203 229
164 203 229
164 203 229
164 203 229
164 203 229
164 203 229
164 203 229
164 203 229
164 203 229
164 203 229
164 203 229
164 203 229
164 203 229
164 203 229
164 203 229
164 203 229
164 203 229
164 203 229
164 203 229
164 203 229
164 203 229
164 203 229
164 203 229
164 203 229
164 203 229
164 203 229
164 203 229
164 203 229
164 203 229
164 203 229
164 203 229
164 203 229
164 203 229
164 203 229
164 203 229
164 203 229
164 203 229
164 203 229
164 203 229
164 203 229
164 203 229
164 203 229
164 203 229
164 203 229
164 203 229
164 203 229
164 203 229
164 203 229
164 203 229
164 203 229
164 203 229
164 203 229
164 203 229
164 203 229
164 203 229
164 203 229
164 203 229
164 203 229
164 203 229
164 203 229
164 203 229
165 204 230
164 203 229
165 204 230
165 204 230
165 204 230
165 204 230
165 204 230
165 204 230
165 204 230
165 204 230
165 204 230
165 204 230
165 204 230
165 204 230
165 204 230
165 204 230
165 204 230
165 204 230
165 204 230
165 204 230
165 204 230
165 204 230
165 204 230
165 204 230
165 204 230
165 204 230
165 204 230
165 204 230
165 204 230
165 204 230
165 204 230
165 204 230
165 204 230
165 204 230
165 204 230
165 204 230
165 204 230
165 204 230
165 204 230
165 204 230
165 204 230
165 204 230
165 204 230
165 204 230
165 204 230
165 204 230
165 204 230
165 204 230
165 204 230
165 204 230
165 204 230
165 204 230
165 204 230
165 204 230
165 204 230
165 204 230
165 204 230
165 204 230
165 204 230
165 204 230
165 204 230
165 204 230
165 204 230
165 204 230
165 204 230
165 204 230
165 204 230
165 204 230
165 204 230
165 204 230
165 204 230
165 204 230
165 204 230
165 204 230
165 204 230
165 204 230
165 204 230
165 204 230
165 204 230
165 204 230
165 204 230
165 204 230
165 204 230
165 204 230
165 204 230
165 204 230
165 204 230
165 204 230
165 204 230
165 204 230
165 204 230
165 204 230
165 204 230
165 204 230
165 204 230
165 204 230
165 204 230
165 204 230
165 204 230
165 204 230
165 204 230
165 204 230
165 204 230
165 204 230
165 204 230
165 204 230
165 204 230
165 204 230
165 204 230
165 204 230
165 204 230
165 204 230
165 204 230
165 204 230
165 204 230
165 204 230
165 204 230
165 204 230
165 204 230
165 204 230
165 204 230
165 204 230
165 204 230
165 204 230
165 204 230
165 204 230
165 204 230
165 204 230
165 204 230
165 204 230
165 204 230
165 204 230
165 204 230
165 204 230
165 204 230
165 204 230
165 204 230
165 204 230
165 204 230
165 204 230
165 204 230
165 204 230
165 204 230
165 204 230
165 204 230
165 204 230
165 204 230
165 204 230
165 204 230
165 204 230
165 204 230
165 204 230
165 204 230
165 204 230
165 204 230
165 204 230
165 204 230
165 204 230
165 204 230
165 204 230
165 204 230
165 204 230
165 204 230
165 204 230
165 204 230
165 204 230
165 204 230
165 204 230
165 204 230
165 204 230
165 204 230
165 204 230
165 204 230
165 204 230
165 204 230
165 204 230
165 204 230
165 204 230
165 204 230
164 203 229
58 80 94
49 70 84
52 73 87
49 71 86
48 70 84
45 66 80
44 64 77
47 68 82
51 73 87
51 73 88
49 71 85
51 73 88
49 71 86
53 77 93
46 67 81
51 72 87
50 72 87
48 69 83
50 71 85
50 71 85
49 70 83
45 66 80
50 71 86
52 75 90
50 72 86
48 69 84
50 71 85
49 71 85
51 74 88
46 69 84
50 72 87
49 72 87
51 73 87
51 73 88
47 69 83
49 71 86
49 70 85
49 70 85
50 71 85
47 69 84
45 66 80
47 69 83
50 72 86
51 73 88
44 65 78
51 74 89
48 69 83
52 74 89
49 71 85
49 71 85
51 72 86
52 74 89
48 71 86
47 69 84
47 68 82
49 70 83
45 67 81
43 64 78
50 72 87
46 67 81
49 70 85
50 72 86
48 70 85
49 71 86
54 76 91
53 75 90
47 69 84
48 70 84
46 69 83
54 76 91
48 69 83
53 76 91
53 75 89
47 68 81
49 70 84
49 71 85
52 74 88
49 71 87
51 74 89
45 67 82
47 69 84
46 66 79
50 71 85
43 64 78
48 69 83
49 71 86
48 69 83
50 73 88
49 70 85
48 69 84
48 70 84
51 73 88
54 75 90
49 71 86
47 69 83
47 68 83
46 68 83
49 71 86
51 74 89
46 67 81
50 72 87
45 66 80
52 75 90
48 70 85
41 62 75
52 74 89
49 72 88
52 74 89
50 71 85
46 68 83
49 71 86
46 67 82
49 70 84
50 72 87
48 70 85
52 74 88
47 69 83
45 66 81
47 69 84
48 70 84
47 67 81
50 72 87
51 73 87
50 73 88
47 69 84
47 70 85
45 67 82
49 72 87
50 73 88
61 83 98
165 204 230
165 204 230
165 204 230
165 204 230
165 204 230
165 204 230
165 204 230
165 204 230
165 204 230
165 204 230
165 204 230
165 204 230
165 204 230
165 204 230
165 204 230
165 204 230
165 204 230
165 204 230
165 204 230
165 204 230
165 204 230
165 204 230
165 204 230
165 204 230
165 204 230
165 204 230
165 204 230
165 204 230
165 204 230
165 204 230
165 204 230
165 204 230
165 204 230
165 204 230
165 204 230
165 204 230
165 204 230
165 204 230
165 204 230
165 204 230
165 204 230
165 204 230
165 204 230
165 204 230
165 204 230
165 204 230
165 204 230
165 204 230
165 204 230
165 204 230
165 204 230
165 204 230
165 204 230
165 204 230
165 204 230
165 204 230
165 204 230
165 204 230
165 204 230
165 204 230
165 204 230
165 204 230
165 204 230
165 204 230
165 204 230
165 204 230
165 204 230
165 204 230
165 204 230
165 204 230
165 204 230
165 204 230
165 204 230
165 204 230
165 204 230
165 204 230
165 204 230
165 204 230
165 204 230
165 204 230
165 204 230
165 204 230
165 204 230
165 204 230
165 204 230
165 204 230
165 204 230
165 204 230
165 204 230
165 204 230
165 204 230
165 204 230
165 204 230
165 204 230
165 204 230
165 204 230
165 204 230
165 204 230
165 204 230
165 204 230
165 204 230
165 204 230
165 204 230
165 204 230
165 204 230
165 204 230
165 204 230
165 204 230
165 204 230
165 204 230
165 204 230
165 204 230
165 204 230
165 204 230
165 204 230
165 204 230
165 204 230
165 204 230
165 204 230
165 204 230
165 204 230
165 204 230
165 204 230
165 204 230
165 204 230
165 204 230
165 204 230
165 204 230
165 204 230
165 204 230
165 204 230
165 204 230
165 204 230
165 204 230
165 204 230
166 204 230
165 204 230
166 204 230
165 204 230
165 204 230
166 204 230
165 204 230
166 204 230
166 204 230
165 204 230
166 204 230
165 204 230
166 204 230
165 204 230
165 204 230
165 204 230
165 204 230
165 204 230
165 204 230
165 204 230
165 204 230
165 204 230
165 204 230
165 204 230
165 204 230
165 204 230
165 204 230
165 204 230
165 204 230
165 204 230
165 204 230
165 204 230
165 204 230
165 204 230
165 204 230
165 204 230
165 204 230
165 204 230
165 204 230
165 204 230
165 204 230
165 204 230
165 204 230
165 204 230
165 204 230
165 204 230
165 204 230
165 204 230
165 204 230
165 204 230
165 204 230
165 204 230
165 204 230
165 204 230
165 204 230
165 204 230
165 204 230
165 204 230
165 204 230
165 204 230
165 204 230
165 204 230
165 204 230
165 204 230
165 204 230
165 204 230
165 204 230
165 204 230
165 204 230
165 204 230
165 204 230
165 204 230
165 204 230
165 204 230
165 204 230
165 204 230
165 204 230
165 204 230
165 204 230
165 204 230
165 204 230
165 204 230
165 204 230
165 204 230
165 204 230
165 204 230
165 204 230
165 204 230
165 204 230
165 204 230
165 204 230
165 204 230
165 204 230
165 204 230
165 204 230
165 204 230
165 204 230
165 204 230
165 204 230
165 204 230
165 204 230
165 204 230
165 204 230
165 204 230
165 204 230
165 204 230
165 204 230
165 204 230
165 204 230
165 204 230
165 204 230
165 204 230
165 204 230
165 204 230
165 204 230
165 204 230
165 204 230
165 204 230
165 204 230
165 204 230
165 204 230
165 204 230
165 204 230
165 204 230
165 204 230
165 204 230
165 204 230
165 204 230
165 204 230
165 204 230
165 204 230
165 204 230
165 204 230
165 204 230
165 204 230
55 78 94
54 76 91
49 71 86
48 70 84
48 70 84
48 70 84
53 76 91
51 73 87
46 67 81
52 75 91
45 67 81
48 69 83
49 71 86
52 73 87
50 72 86
48 69 82
47 68 83
45 67 82
47 68 83
50 73 88
48 68 82
47 70 85
47 68 82
46 67 81
49 70 84
48 70 84
46 68 82
49 70 85
45 66 79
52 74 88
47 68 83
49 70 83
48 69 84
49 70 85
48 70 84
51 74 90
46 68 83
48 70 84
50 71 85
46 67 82
49 71 86
48 70 85
52 73 87
50 72 87
47 68 83
50 73 88
48 69 83
45 66 80
49 71 85
49 72 87
49 70 84
49 72 87
48 69 84
48 69 83
49 71 86
52 75 90
45 67 81
50 72 86
51 74 89
51 73 88
47 68 82
48 69 82
45 65 79
50 73 88
48 69 83
47 68 83
56 79 94
48 71 87
50 72 87
47 69 84
51 73 87
49 69 83
48 68 82
49 71 85
49 71 86
48 70 84
46 68 82
48 71 86
54 77 92
50 72 86
46 66 80
49 70 85
51 72 87
48 70 84
46 69 84
53 76 92
49 71 85
49 70 85
49 72 87
46 67 81
50 71 85
49 71 85
48 69 83
43 64 78
44 65 78
49 72 87
48 69 83
49 70 84
48 69 83
51 74 89
50 72 86
50 71 85
49 70 85
51 73 87
50 71 85
47 69 84
46 68 82
48 70 84
50 72 87
56 77 91
50 72 86
51 73 87
43 63 77
50 72 86
52 74 88
52 74 88
46 68 83
45 66 80
51 73 87
52 75 90
46 67 82
48 70 85
51 73 87
44 65 79
49 69 83
49 70 84
46 68 82
53 75 90
53 75 90
56 79 95
165 204 230
165 204 230
165 204 230
165 204 230
165 204 230
165 204 230
165 204 230
165 204 230
165 204 230
165 204 230
165 204 230
165 204 230
165 204 230
165 204 230
165 204 230
165 204 230
165 204 230
165 204 230
165 204 230
165 204 230
165 204 230
165 204 230
165 204 230
165 204 230
165 204 230
165 204 230
165 204 230
165 204 230
165 204 230
165 204 230
165 204 230
165 204 230
165 204 230
165 204 230
165 204 230
165 204 230
165 204 230
165 204 230
165 204 230
165 204 230
165 204 230
165 204 230
165 204 230
165 204 230
165 204 230
165 204 230
165 204 230
165 204 230
165 204 230
165 204 230
165 204 230
165 204 230
165 204 230
165 204 230
165 204 230
165 204 230
165 204 230
165 204 230
165 204 230
165 204 230
165 204 230
165 204 230
165 204 230
165 204 230
165 204 230
165 204 230
165 204 230
165 204 230
165 204 230
165 204 230
165 204 230
165 204 230
165 204 230
165 204 230
165 204 230
165 204 230
165 204 230
165 204 230
165 204 230
165 204 230
165 204 230
165 204 230
165 204 230
165 204 230
165 204 230
165 204 230
165 204 230
165 204 230
165 204 230
165 204 230
165 204 230
165 204 230
165 204 230
165 204 230
165 204 230
165 204 230
165 204 230
165 204 230
165 204 230
165 204 230
165 204 230
165 204 230
165 204 230
165 204 230
165 204 230
165 204 230
165 204 230
165 204 230
165 204 230
165 204 230
165 204 230
165 204 230
165 204 230
165 204 230
165 204 230
165 204 230
165 204 230
165 204 230
166 204 230
165 204 230
165 204 230
165 204 230
165 204 230
165 204 230
166 204 230
165 204 230
165 204 230
166 204 230
166 204 230
166 204 230
166 204 230
166 204 230
166 204 230
166 204 230
166 204 230
166 204 230
166 204 230
166 204 230
166 204 230
166 204 230
166 204 230
166 204 230
166 204 230
166 204 230
166 204 230
166 204 230
166 204 230
166 204 230
166 204 230
166 204 230
166 204 230
166 204 230
166 204 230
166 204 230
166 204 230
166 204 230
166 204 230
166 204 230
166 204 230
166 204 230
166 204 230
166 204 230
166 204 230
166 204 230
166 204 230
166 204 230
166 204 230
166 204 230
166 204 230
166 204 230
166 204 230
166 204 230
166 204 230
166 204 230
166 204 230
166 204 230
166 204 230
166 204 230
166 204 230
166 204 230
166 204 230
166 204 230
166 204 230
166 204 230
166 204 230
166 204 230
166 204 230
166 204 230
166 204 230
166 204 230
166 204 230
166 204 230
166 204 230
166 204 230
166 204 230
166 204 230
166 204 230
166 204 230
166 204 230
166 204 230
166 204 230
166 204 230
166 204 230
166 204 230
166 204 230
166 204 230
166 204 230
166 204 230
166 204 230
166 204 230
166 204 230
166 204 230
166 204 230
166 204 230
166 204 230
166 204 230
166 204 230
166 204 230
166 204 230
166 204 230
166 204 230
166 204 230
166 204 230
166 204 230
166 204 230
166 204 230
166 204 230
166 204 230
166 204 230
166 204 230
166 204 230
166 204 230
166 204 230
166 204 230
166 204 230
166 204 230
166 204 230
166 204 230
166 204 230
166 204 230
166 204 230
166 204 230
166 204 230
166 204 230
166 204 230
166 204 230
166 204 230
166 204 230
166 204 230
166 204 230
166 204 230
166 204 230
166 204 230
166 204 230
166 204 230
166 204 230
166 204 230
166 204 230
166 204 230
166 204 230
166 204 230
166 204 230
166 204 230
166 204 230
166 204 230
166 204 230
166 204 230
166 204 230
166 204 230
166 204 230
53 75 90
49 70 84
51 74 89
44 65 79
48 69 84
48 70 85
48 69 83
51 73 88
48 71 86
54 76 91
52 74 89
49 70 85
53 75 89
47 68 82
47 67 81
45 66 79
49 70 84
48 69 83
45 67 81
51 73 88
43 63 77
49 70 84
48 70 85
44 65 80
47 68 82
49 70 85
49 72 87
45 67 81
45 65 79
51 73 88
49 71 86
47 68 82
50 72 87
49 70 85
46 68 82
48 69 84
49 70 84
44 64 78
52 74 89
45 67 81
47 68 82
47 68 82
51 74 89
49 70 85
47 69 83
43 65 79
45 66 80
47 69 83
46 67 81
47 69 83
51 73 88
51 73 88
46 68 82
48 70 85
45 65 79
53 74 89
50 73 88
50 72 87
50 72 86
49 71 86
50 71 86
49 72 86
49 71 86
51 74 89
45 65 79
48 69 84
47 69 84
49 72 87
47 68 82
48 69 84
49 73 89
52 74 88
50 71 85
49 71 86
48 70 84
51 73 88
50 71 85
48 70 84
49 70 85
49 71 86
50 71 86
49 72 87
46 68 83
48 69 84
47 69 83
43 65 79
46 67 80
50 71 85
50 71 85
51 73 88
50 71 85
47 67 81
47 70 85
47 68 82
51 72 86
43 64 78
50 70 84
47 69 84
48 68 82
50 71 85
55 77 92
47 70 85
50 72 87
56 78 92
53 76 90
45 65 78
49 71 86
47 69 85
53 74 88
50 72 86
48 69 84
47 69 83
47 69 84
45 66 80
48 69 83
50 71 85
49 71 86
49 69 83
48 70 84
46 68 82
50 71 86
50 73 89
47 69 83
48 69 83
53 76 91
50 72 87
52 73 87
51 74 89
47 69 83
54 76 91
166 204 230
166 204 230
166 204 230
166 204 230
166 204 230
166 204 230
166 204 230
166 204 230
166 204 230
166 204 230
166 204 230
166 204 230
166 204 230
166 204 230
166 204 230
166 204 230
166 204 230
166 204 230
166 204 230
166 204 230
166 204 230
166 204 230
166 204 230
166 204 230
166 204 230
166 204 230
166 204 230
166 204 230
166 204 230
166 204 230
166 204 230
166 204 230
166 204 230
166 204 230
166 204 230
166 204 230
166 204 230
166 204 230
166 204 230
166 204 230
166 204 230
166 204 230
166 204 230
166 204 230
166 204 230
166 204 230
166 204 230
166 204 230
166 204 230
166 204 230
166 204 230
166 204 230
166 204 230
166 204 230
166 204 230
166 204 230
166 204 230
166 204 230
166 204 230
166 204 230
166 204 230
166 204 230
166 204 230
166 204 230
166 204 230
166 204 230
166 204 230
166 204 230
166 204 230
166 204 230
166 204 230
166 204 230
166 204 230
166 204 230
166 204 230
166 204 230
166 204 230
166 204 230
166 204 230
166 204 230
166 204 230
166 204 230
166 204 230
166 204 230
166 204 230
166 204 230
166 204 230
166 204 230
166 204 230
166 204 230
166 204 230
166 204 230
166 204 230
166 204 230
166 204 230
166 204 230
166 204 230
166 204 230
166 204 230
166 204 230
166 204 230
166 204 230
166 204 230
166 204 230
166 204 230
166 204 230
166 204 230
166 204 230
166 204 230
166 204 230
166 204 230
166 204 230
166 204 230
166 204 230
166 204 230
166 204 230
166 204 230
166 204 230
166 204 230
166 204 230
166 204 230
166 204 230
166 204 230
166 204 230
166 204 230
166 204 230
166 204 230
166 204 230
166 204 230
166 204 230
166 204 230
166 204 230
166 204 230
166 204 230
166 204 230
166 205 230
166 205 230
166 205 230
166 205 230
166 205 230
166 205 230
166 205 230
166 205 230
166 205 230
166 205 230
166 205 230
166 205 230
166 205 230
166 205 230
166 205 230
166 205 230
166 205 230
166 205 230
166 205 230
166 205 230
166 205 230
166 205 230
166 205 230
166 205 230
166 205 230
166 205 230
166 205 230
166 205 230
166 205 230
166 205 230
166 205 230
166 205 230
166 205 230
166 205 230
166 205 230
166 205 230
166 205 230
166 205 230
166 205 230
166 205 230
166 205 230
166 205 230
166 205 230
166 205 230
166 205 230
166 205 230
166 205 230
166 205 230
166 205 230
166 205 230
166 205 230
166 205 230
166 205 230
166 205 230
166 205 230
166 205 230
166 205 230
166 205 230
166 205 230
166 205 230
166 205 230
166 205 230
166 205 230
166 205 230
166 205 230
166 205 230
166 205 230
166 205 230
166 205 230
166 205 230
166 205 230
166 205 230
166 205 230
166 205 230
166 205 230
166 205 230
166 205 230
166 205 230
166 205 230
166 205 230
166 205 230
166 205 230
166 205 230
166 205 230
166 205 230
166 205 230
166 205 230
166 205 230
166 205 230
166 205 230
167 205 230
166 205 230
166 205 230
166 205 230
166 205 230
166 205 230
167 205 230
166 205 230
166 205 230
166 205 230
166 205 230
167 205 230
166 205 230
167 205 230
166 205 230
167 205 230
167 205 230
167 205 230
167 205 230
167 205 230
166 205 230
167 205 230
167 205 230
167 205 230
167 205 230
167 205 230
167 205 230
167 205 230
167 205 230
167 205 230
167 205 230
167 205 230
167 205 230
167 205 230
167 205 230
167 205 230
167 205 230
167 205 230
167 205 230
167 205 230
167 205 230
167 205 230
167 205 230
167 205 230
167 205 230
65 88 104
48 69 84
51 72 87
50 71 84
47 68 82
45 67 82
45 65 78
49 70 84
49 70 84
46 67 80
47 68 82
50 70 84
50 72 86
48 70 85
51 73 88
49 71 85
50 72 87
48 68 82
51 74 89
50 71 86
46 68 82
47 69 84
51 73 87
49 71 85
46 66 79
46 66 80
48 68 82
45 66 79
49 71 85
51 74 89
48 69 83
46 68 82
52 74 88
47 67 81
43 64 78
45 64 77
47 69 83
47 68 82
47 68 82
50 71 85
45 66 80
49 72 87
47 67 80
50 72 87
49 70 83
49 71 86
49 70 84
48 70 84
49 71 85
50 72 86
46 68 83
51 72 86
49 69 83
44 65 78
47 68 83
46 67 81
46 68 82
44 65 79
50 72 87
51 73 88
51 72 86
44 64 78
45 66 81
50 71 86
47 69 84
46 66 80
45 66 80
47 68 83
47 68 83
47 69 83
48 69 83
50 73 88
49 71 85
45 65 79
48 68 82
45 66 80
47 69 83
49 71 86
46 68 82
47 68 83
47 67 81
46 68 82
45 65 78
51 72 87
52 75 90
49 70 84
51 73 88
47 68 82
47 69 83
46 67 82
50 71 86
48 70 85
45 66 80
49 70 83
48 70 84
51 73 87
50 71 85
46 67 82
50 72 87
46 67 81
50 71 85
47 69 83
46 66 80
50 73 88
48 70 84
48 69 83
49 71 85
49 70 85
48 69 83
48 70 84
49 71 85
50 71 84
45 67 81
47 68 82
49 71 85
48 69 83
49 70 85
48 69 84
52 74 89
49 71 85
48 68 82
48 68 82
48 70 84
46 67 82
49 71 85
52 73 88
50 72 86
48 70 84
49 69 83
55 79 94
167 205 230
167 205 230
167 205 230
167 205 230
167 205 230
167 205 230
167 205 230
167 205 230
167 205 230
167 205 230
167 205 230
167 205 230
167 205 230
167 205 230
167 205 230
167 205 230
167 205 230
167 205 230
167 205 230
167 205 230
167 205 230
167 205 230
166 205 230
167 205 230
167 205 230
167 205 230
167 205 230
167 205 230
166 205 230
167 205 230
167 205 230
167 205 230
166 205 230
166 205 230
167 205 230
166 205 230
166 205 230
167 205 230
167 205 230
166 205 230
166 205 230
166 205 230
166 205 230
166 205 230
166 205 230
166 205 230
166 205 230
166 205 230
166 205 230
166 205 230
166 205 230
166 205 230
166 205 230
166 205 230
166 205 230
166 205 230
166 205 230
166 205 230
166 205 230
166 205 230
166 205 230
166 205 230
166 205 230
166 205 230
166 205 230
166 205 230
166 205 230
166 205 230
166 205 230
166 205 230
166 205 230
166 205 230
166 205 230
166 205 230
166 205 230
166 205 230
166 205 230
166 205 230
166 205 230
166 205 230
166 205 230
166 205 230
166 205 230
166 205 230
166 205 230
166 205 230
166 205 230
166 205 230
166 205 230
166 205 230
166 205 230
166 205 230
166 205 230
166 205 230
166 205 230
166 205 230
166 205 230
166 205 230
166 205 230
166 205 230
166 205 230
166 205 230
166 205 230
166 205 230
166 205 230
166 205 230
166 205 230
166 205 230
166 205 230
166 205 230
166 205 230
166 205 230
166 205 230
166 205 230
166 205 230
166 205 230
166 205 230
166 205 230
166 205 230
166 205 230
166 205 230
166 205 230
166 205 230
166 205 230
166 205 230
166 205 230
166 205 230
166 205 230
166 205 230
166 205 230
166 205 230
166 205 230
166 205 230
166 205 230
166 205 230
167 205 230
167 205 230
167 205 230
167 205 230
167 205 230
167 205 230
167 205 230
167 205 230
167 205 230
167 205 230
167 205 230
167 205 230
167 205 230
167 205 230
167 205 230
167 205 230
167 205 230
167 205 230
167 205 230
167 205 230
167 205 230
167 205 230
167 205 230
167 205 230
167 205 230
167 205 230
167 205 230
167 205 230
167 205 230
167 205 230
167 205 230
167 205 230
167 205 230
167 205 230
167 205 230
167 205 230
167 205 230
167 205 230
167 205 230
167 205 230
167 205 230
167 205 230
167 205 230
167 205 230
167 205 230
167 205 230
167 205 230
167 205 230
167 205 230
167 205 230
167 205 230
167 205 230
167 205 230
167 205 230
167 205 230
167 205 230
167 205 230
167 205 230
167 205 230
167 205 230
167 205 230
167 205 230
167 205 230
167 205 230
167 205 230
167 205 230
167 205 230
167 205 230
167 205 230
167 205 230
167 205 230
167 205 230
167 205 230
167 205 230
167 205 230
167 205 230
167 205 230
167 205 230
167 205 230
167 205 230
167 205 230
167 205 230
167 205 230
167 205 230
167 205 230
167 205 230
167 205 230
167 205 230
167 205 230
167 205 230
167 205 230
167 205 230
167 205 230
167 205 230
167 205 230
167 205 230
167 205 230
167 205 230
167 205 230
167 205 230
167 205 230
167 205 230
167 205 230
167 205 230
167 205 230
167 205 230
167 205 230
167 205 230
167 205 230
167 205 230
167 205 230
167 205 230
167 205 230
167 205 230
167 205 230
167 205 230
167 205 230
167 205 230
167 205 230
167 205 230
167 205 230
167 205 230
167 205 230
167 205 230
167 205 230
167 205 230
167 205 230
167 205 230
167 205 230
167 205 230
167 205 230
167 205 230
167 205 230
167 205 230
167 205 230
59 81 95
51 73 88
45 65 79
50 72 86
49 71 86
49 71 86
54 76 91
46 68 82
47 69 83
51 72 86
46 68 82
46 67 81
50 70 83
51 73 88
44 65 79
48 69 83
45 67 81
49 70 84
49 70 84
50 73 88
45 65 79
47 68 82
47 69 83
50 71 86
53 75 90
48 70 84
53 76 90
49 71 85
46 67 81
50 71 84
50 71 85
45 65 79
47 68 83
52 75 90
49 70 84
48 69 83
45 67 81
48 70 84
51 73 88
46 67 81
49 70 85
45 66 80
45 66 79
47 67 81
46 68 83
51 73 88
47 69 83
48 69 83
45 67 81
46 68 82
48 70 84
46 68 82
50 72 86
50 72 87
41 60 73
48 69 82
46 65 78
50 72 86
48 68 82
44 65 79
47 68 83
46 67 81
51 72 87
48 69 84
48 70 85
50 72 86
46 66 79
52 74 89
49 71 85
49 72 87
46 66 79
50 70 84
49 72 87
50 71 85
50 72 87
47 69 83
44 65 79
46 68 82
51 72 86
47 69 84
47 68 83
47 68 82
51 73 88
47 67 80
46 67 81
50 70 83
48 69 84
45 66 81
48 69 83
48 71 86
50 71 86
47 68 81
50 72 86
52 75 90
52 74 89
50 73 88
48 69 83
46 68 83
45 67 81
47 70 86
50 73 89
47 69 84
50 70 84
48 71 86
49 71 85
53 75 91
46 68 82
51 71 85
46 68 82
50 71 85
48 69 83
48 70 84
52 75 90
49 71 85
48 69 83
45 66 80
53 75 89
44 64 78
51 72 86
44 65 78
53 74 89
42 62 76
46 66 79
46 69 83
48 70 85
53 76 91
47 68 82
48 70 84
53 74 89
57 79 93
167 205 230
167 205 230
167 205 230
167 205 230
167 205 230
167 205 230
167 205 230
167 205 230
167 205 230
167 205 230
167 205 230
167 205 230
167 205 230
167 205 230
167 205 230
167 205 230
167 205 230
167 205 230
167 205 230
167 205 230
167 205 230
167 205 230
167 205 230
167 205 230
167 205 230
167 205 230
167 205 230
167 205 230
167 205 230
167 205 230
167 205 230
167 205 230
167 205 230
167 205 230
167 205 230
167 205 230
167 205 230
167 205 230
167 205 230
167 205 230
167 205 230
167 205 230
167 205 230
167 205 230
167 205 230
167 205 230
167 205 230
167 205 230
167 205 230
167 205 230
167 205 230
167 205 230
167 205 230
167 205 230
167 205 230
167 205 230
167 205 230
167 205 230
167 205 230
167 205 230
167 205 230
167 205 230
167 205 230
167 205 230
167 205 230
167 205 230
167 205 230
167 205 230
167 205 230
167 205 230
167 205 230
167 205 230
167 205 230
167 205 230
167 205 230
167 205 230
167 205 230
167 205 230
167 205 230
167 205 230
167 205 230
167 205 230
167 205 230
167 205 230
167 205 230
167 205 230
167 205 230
167 205 230
167 205 230
167 205 230
167 205 230
167 205 230
167 205 230
167 205 230
167 205 230
167 205 230
167 205 230
167 205 230
167 205 230
167 205 230
167 205 230
167 205 230
167 205 230
167 205 230
167 205 230
167 205 230
167 205 230
167 205 230
167 205 230
167 205 230
167 205 230
167 205 230
167 205 230
167 205 230
167 205 230
167 205 230
167 205 230
167 205 230
167 205 230
167 205 230
167 205 230
167 205 230
167 205 230
167 205 230
167 205 230
167 205 230
167 205 230
167 205 230
167 205 230
167 205 230
167 205 230
167 205 230
167 205 230
167 205 230
167 205 230
167 205 230
167 205 230
167 205 230
167 205 230
167 205 230
167 205 230
167 205 230
167 205 230
167 205 230
167 205 230
167 205 230
167 205 230
167 205 230
167 205 230
167 205 230
167 205 230
167 205 230
167 205 230
167 205 230
167 205 230
167 205 230
167 205 230
167 205 230
167 205 230
167 205 230
167 205 230
167 205 230
167 205 230
167 205 230
167 205 230
167 205 230
167 205 230
167 205 230
167 205 230
167 205 230
167 205 230
167 205 230
167 205 230
167 205 230
167 205 230
167 205 230
167 205 230
167 205 230
167 205 230
167 205 230
167 205 230
167 205 230
167 205 230
167 205 230
167 205 230
167 205 230
167 205 230
167 205 230
167 205 230
167 205 230
167 205 230
167 205 230
167 205 230
167 205 230
167 205 230
167 205 230
167 205 230
167 205 230
167 205 230
167 205 230
167 205 230
167 205 230
167 205 230
167 205 230
167 205 230
167 205 230
167 205 230
167 205 230
167 205 230
167 205 230
167 205 230
167 205 230
168 205 230
168 205 230
168 205 230
168 205 230
168 205 230
168 205 230
168 205 230
168 205 230
168 205 230
168 205 230
168 205 230
168 205 230
168 205 230
168 205 230
168 205 230
168 205 230
168 205 230
168 205 230
168 205 230
168 205 230
168 205 230
168 205 230
168 205 230
168 205 230
168 205 230
168 205 230
168 205 230
168 205 230
168 205 230
168 205 230
168 205 230
168 205 230
168 205 230
168 205 230
168 205 230
168 205 230
168 205 230
168 205 230
168 205 230
168 205 230
168 205 230
168 205 230
168 205 230
168 205 230
168 205 230
168 205 230
168 205 230
168 205 230
168 205 230
168 205 230
168 205 230
168 205 230
168 205 230
168 205 230
168 205 230
168 205 230
168 205 230
168 205 230
66 90 105
47 67 81
49 70 84
45 67 81
50 72 87
50 71 85
52 73 86
46 67 80
52 74 88
50 73 88
45 67 82
46 67 80
49 71 86
49 70 85
44 67 81
48 69 83
47 68 82
48 69 82
45 66 80
50 72 86
52 74 89
47 68 81
48 68 81
48 71 86
48 71 86
49 69 83
46 66 80
46 67 81
43 64 78
49 71 85
46 68 82
45 67 81
48 70 84
48 70 84
49 70 84
47 69 84
46 68 83
47 68 82
49 70 84
51 73 88
47 69 83
45 66 80
48 70 84
45 66 80
47 68 82
53 75 90
50 71 85
49 70 84
47 67 81
47 69 84
45 65 79
47 68 82
45 66 81
48 69 83
47 68 82
48 67 80
50 71 85
48 70 85
47 69 83
50 72 87
47 68 83
49 71 86
49 71 86
47 68 83
41 60 73
50 70 84
47 68 83
48 71 86
48 69 83
49 71 85
50 71 85
48 70 84
44 64 78
46 68 82
49 70 84
47 68 82
49 71 85
50 72 87
47 68 81
48 69 83
50 73 88
47 69 84
46 67 81
46 68 83
51 73 88
49 71 86
47 68 82
47 68 82
49 71 85
51 72 87
48 70 84
48 69 83
45 67 82
43 64 78
48 68 81
50 72 87
51 72 87
47 67 81
45 66 80
49 70 84
47 68 82
52 74 89
48 68 82
48 68 82
43 64 77
50 70 83
50 71 85
46 67 80
47 69 83
46 67 82
46 67 81
48 71 86
48 70 85
45 66 79
44 65 79
48 70 84
50 72 86
47 68 82
45 66 81
46 68 83
48 69 83
48 70 84
46 68 83
46 68 82
44 64 78
48 68 82
51 73 87
53 74 88
45 65 78
62 86 102
168 205 230
168 205 230
168 205 230
168 205 230
168 205 230
168 205 230
168 205 230
168 205 230
168 205 230
168 205 230
168 205 230
168 205 230
168 205 230
168 205 230
168 205 230
168 205 230
168 205 230
168 205 230
168 205 230
168 205 230
168 205 230
168 205 230
168 205 230
168 205 230
168 205 230
168 205 230
168 205 230
168 205 230
168 205 230
168 205 230
168 205 230
168 205 230
168 205 230
168 205 230
168 205 230
168 205 230
168 205 230
168 205 230
168 205 230
168 205 230
168 205 230
168 205 230
168 205 230
168 205 230
168 205 230
168 205 230
168 205 230
168 205 230
168 205 230
168 205 230
168 205 230
168 205 230
168 205 230
168 205 230
168 205 230
168 205 230
168 205 230
168 205 230
168 205 230
167 205 230
167 205 230
167 205 230
167 205 230
167 205 230
167 205 230
167 205 230
167 205 230
167 205 230
167 205 230
167 205 230
167 205 230
167 205 230
167 205 230
167 205 230
167 205 230
167 205 230
167 205 230
167 205 230
167 205 230
167 205 230
167 205 230
167 205 230
167 205 230
167 205 230
167 205 230
167 205 230
167 205 230
167 205 230
167 205 230
167 205 230
167 205 230
167 205 230
167 205 230
167 205 230
167 205 230
167 205 230
167 205 230
167 205 230
167 205 230
167 205 230
167 205 230
167 205 230
167 205 230
167 205 230
167 205 230
167 205 230
167 205 230
167 205 230
167 205 230
167 205 230
167 205 230
167 205 230
167 205 230
167 205 230
167 205 230
167 205 230
167 205 230
167 205 230
167 205 230
167 205 230
167 205 230
167 205 230
167 205 230
167 205 230
167 205 230
167 205 230
167 205 230
167 205 230
167 205 230
167 205 230
167 205 230
167 205 230
167 205 230
167 205 230
167 205 230
167 205 230
167 205 230
167 205 230
167 205 230
168 205 230
167 205 230
167 205 230
167 205 230
168 205 230
168 205 230
168 205 230
168 205 230
168 205 230
168 205 230
168 205 230
168 205 230
168 205 230
168 205 230
168 205 230
168 205 230
168 205 230
168 205 230
168 205 230
168 205 230
168 205 230
168 205 230
168 205 230
168 205 230
168 205 230
168 205 230
168 205 230
168 205 230
168 205 230
168 205 230
168 205 230
168 205 230
168 205 230
168 205 230
168 205 230
168 205 230
168 205 230
168 205 230
168 205 230
168 205 230
168 205 230
168 205 230
168 205 230
168 205 230
168 205 230
168 205 230
168 205 230
168 205 230
168 205 230
168 205 230
168 205 230
168 205 230
168 205 230
168 205 230
168 205 230
168 205 230
168 205 230
168 205 230
168 205 230
168 205 230
168 205 230
168 205 230
168 205 230
168 205 230
168 205 230
168 205 230
168 205 230
168 206 231
168 205 230
168 206 231
168 206 231
168 206 231
168 206 231
168 206 231
168 206 231
168 206 231
168 206 231
168 206 231
168 206 231
168 206 231
168 206 231
168 206 231
168 206 231
168 206 231
168 206 231
168 206 231
168 206 231
168 206 231
168 206 231
168 206 231
168 206 231
168 206 231
168 206 231
168 206 231
168 206 231
168 206 231
168 206 231
168 206 231
168 206 231
168 206 231
168 206 231
168 206 231
168 206 231
168 206 231
168 206 231
168 206 231
168 206 231
168 206 231
168 206 231
168 206 231
168 206 231
168 206 231
168 206 231
168 206 231
168 206 231
168 206 231
168 206 231
169 206 231
169 206 231
169 206 231
169 206 231
169 206 231
169 206 231
169 206 231
169 206 231
169 206 231
169 206 231
169 206 231
169 206 231
169 206 231
169 206 231
68 91 107
48 69 83
48 69 83
49 71 86
50 71 85
44 65 79
49 71 85
48 68 82
49 70 83
46 67 81
47 68 82
49 70 84
52 74 88
48 69 83
48 70 85
50 70 84
51 71 85
45 67 82
48 69 82
48 70 84
48 69 84
49 70 85
51 72 87
47 68 83
47 69 83
45 66 80
46 68 82
47 67 80
51 73 88
47 67 81
47 68 82
50 71 85
48 71 86
50 71 84
47 69 83
53 75 90
45 66 80
53 76 91
46 65 78
46 66 80
49 69 83
45 65 79
47 69 83
50 71 86
50 71 84
48 69 83
50 73 88
43 63 77
42 61 74
47 68 82
43 64 78
47 69 83
48 69 83
50 70 84
48 70 84
49 71 85
44 66 80
46 68 83
47 67 81
46 67 82
46 67 81
50 72 87
52 74 88
47 69 84
48 69 83
46 67 81
50 72 86
47 69 83
49 72 87
48 69 83
47 68 82
48 71 86
46 67 81
45 65 78
46 67 80
47 68 82
52 73 87
49 69 83
46 68 82
44 65 79
50 72 86
44 66 81
46 68 82
49 69 83
49 70 85
47 68 81
48 69 84
50 72 87
50 71 86
56 79 94
49 69 83
46 68 82
52 74 88
47 68 82
42 62 76
47 69 83
51 73 87
48 69 83
43 64 79
50 73 88
51 73 88
45 65 79
49 69 83
48 68 82
45 66 80
46 67 81
50 72 87
49 70 84
47 68 82
48 69 84
45 65 79
46 66 79
50 72 87
43 63 77
47 67 81
46 67 82
49 70 84
45 66 79
50 70 84
48 69 83
46 66 80
44 64 77
47 68 82
45 66 80
53 74 88
42 63 76
44 64 78
46 67 82
48 69 83
73 99 116
169 206 231
169 206 231
169 206 231
169 206 231
169 206 231
169 206 231
169 206 231
169 206 231
169 206 231
169 206 231
169 206 231
169 206 231
169 206 231
169 206 231
169 206 231
168 206 231
168 206 231
168 206 231
169 206 231
168 206 231
168 206 231
168 206 231
168 206 231
168 206 231
168 206 231
168 206 231
168 206 231
168 206 231
168 206 231
168 206 231
168 206 231
168 206 231
168 206 231
168 206 231
168 206 231
168 206 231
168 206 231
168 206 231
168 206 231
168 206 231
168 206 231
168 206 231
168 206 231
168 206 231
168 206 231
168 206 231
168 206 231
168 206 231
168 206 231
168 206 231
168 206 231
168 206 231
168 206 231
168 206 231
168 206 231
168 206 231
168 206 231
168 206 231
168 206 231
168 206 231
168 206 231
168 206 231
168 205 230
168 205 230
168 206 231
168 206 231
168 205 230
168 205 230
168 205 230
168 205 230
168 205 230
168 205 230
168 205 230
168 205 230
168 205 230
168 205 230
168 205 230
168 205 230
168 205 230
168 205 230
168 205 230
168 205 230
168 205 230
168 205 230
168 205 230
168 205 230
168 205 230
168 205 230
168 205 230
168 205 230
168 205 230
168 205 230
168 205 230
168 205 230
168 205 230
168 205 230
168 205 230
168 205 230
168 205 230
168 205 230
168 205 230
168 205 230
168 205 230
168 205 230
168 205 230
168 205 230
168 205 230
168 205 230
168 205 230
168 205 230
168 205 230
168 205 230
168 205 230
168 205 230
168 205 230
168 205 230
168 205 230
168 205 230
168 205 230
168 205 230
168 205 230
168 205 230
168 205 230
168 205 230
168 205 230
168 205 230
168 205 230
168 205 230
167 205 230
167 205 230
167 205 230
168 205 230
167 205 230
167 205 230
167 205 230
168 205 230
168 205 230
168 205 230
168 205 230
168 205 230
168 205 230
168 205 230
168 205 230
168 205 230
168 205 230
168 205 230
168 205 230
168 205 230
168 205 230
168 205 230
168 205 230
168 205 230
168 205 230
168 206 231
168 206 231
168 206 231
168 206 231
168 206 231
168 206 231
168 206 231
168 206 231
168 206 231
168 206 231
168 206 231
168 206 231
168 206 231
168 206 231
168 206 231
168 206 231
168 206 231
168 206 231
168 206 231
168 206 231
168 206 231
168 206 231
168 206 231
168 206 231
168 206 231
168 206 231
168 206 231
168 206 231
168 206 231
168 206 231
168 206 231
168 206 231
168 206 231
168 206 231
168 206 231
168 206 231
168 206 231
168 206 231
168 206 231
168 206 231
168 206 231
168 206 231
168 206 231
168 206 231
168 206 231
168 206 231
168 206 231
168 206 231
168 206 231
168 206 231
168 206 231
168 206 231
169 206 231
169 206 231
169 206 231
169 206 231
169 206 231
169 206 231
169 206 231
169 206 231
169 206 231
169 206 231
169 206 231
169 206 231
169 206 231
169 206 231
169 206 231
169 206 231
169 206 231
169 206 231
169 206 231
169 206 231
169 206 231
169 206 231
169 206 231
169 206 231
169 206 231
169 206 231
169 206 231
169 206 231
169 206 231
169 206 231
169 206 231
169 206 231
169 206 231
169 206 231
169 206 231
169 206 231
169 206 231
169 206 231
169 206 231
169 206 231
169 206 231
169 206 231
169 206 231
169 206 231
169 206 231
169 206 231
169 206 231
169 206 231
169 206 231
169 206 231
169 206 231
169 206 231
169 206 231
169 206 231
169 206 231
169 206 231
169 206 231
169 206 231
169 206 231
169 206 231
169 206 231
169 206 231
169 206 231
169 206 231
169 206 231
77 103 119
46 67 82
52 71 85
47 68 81
43 63 76
45 66 80
46 67 81
48 69 83
44 64 78
50 72 87
52 73 87
45 66 79
46 67 81
46 67 81
45 65 78
46 66 80
49 70 84
50 71 85
47 68 82
51 73 87
48 69 84
48 69 84
47 67 81
46 67 81
45 65 79
49 70 85
48 69 83
49 71 86
46 67 81
47 68 82
50 72 87
45 66 79
48 69 83
51 73 88
48 69 84
44 65 79
48 69 83
48 70 85
47 69 84
48 68 82
49 69 83
45 65 78
50 73 87
51 73 88
46 67 81
48 70 84
46 67 81
51 73 88
47 68 82
48 69 83
45 65 79
45 66 80
43 63 77
50 71 86
44 65 79
46 68 82
46 66 80
46 66 79
47 68 81
50 71 86
48 70 84
50 71 85
46 67 82
45 65 79
49 71 85
50 73 88
49 71 85
47 69 84
48 69 83
45 66 80
46 68 83
48 70 85
46 67 80
48 69 83
47 67 81
52 73 87
50 71 85
48 69 83
48 68 82
50 72 87
44 65 78
48 70 84
49 70 84
48 70 85
49 71 86
46 67 81
45 66 80
48 68 82
48 68 81
45 65 79
48 70 85
48 69 84
49 71 85
45 66 80
46 66 80
46 67 81
45 66 80
49 70 85
47 68 82
53 76 91
47 68 82
49 70 84
48 68 82
50 70 84
45 65 79
51 71 84
52 73 86
43 63 76
46 67 81
45 65 79
48 71 86
45 64 77
50 72 87
48 68 82
46 67 81
52 73 86
46 67 81
46 69 83
49 71 85
48 69 84
48 69 83
45 67 81
46 67 81
49 70 84
46 67 81
46 66 79
48 68 82
50 73 88
43 65 79
79 104 121
169 206 231
169 206 231
169 206 231
169 206 231
169 206 231
169 206 231
169 206 231
169 206 231
169 206 231
169 206 231
169 206 231
169 206 231
169 206 231
169 206 231
169 206 231
169 206 231
169 206 231
169 206 231
169 206 231
169 206 231
169 206 231
169 206 231
169 206 231
169 206 231
169 206 231
169 206 231
169 206 231
169 206 231
169 206 231
169 206 231
169 206 231
169 206 231
169 206 231
169 206 231
169 206 231
169 206 231
169 206 231
169 206 231
169 206 231
169 206 231
169 206 231
169 206 231
169 206 231
169 206 231
169 206 231
169 206 231
169 206 231
169 206 231
169 206 231
169 206 231
169 206 231
169 206 231
169 206 231
169 206 231
169 206 231
169 206 231
169 206 231
169 206 231
169 206 231
169 206 231
169 206 231
169 206 231
169 206 231
169 206 231
169 206 231
168 206 231
168 206 231
169 206 231
168 206 231
168 206 231
168 206 231
168 206 231
168 206 231
168 206 231
168 206 231
168 206 231
168 206 231
168 206 231
168 206 231
168 206 231
168 206 231
168 206 231
168 206 231
168 206 231
168 206 231
168 206 231
168 206 231
168 206 231
168 206 231
168 206 231
168 206 231
168 206 231
168 206 231
168 206 231
168 206 231
168 206 231
168 206 231
168 206 231
168 206 231
168 206 231
168 206 231
168 206 231
168 206 231
168 206 231
168 206 231
168 206 231
168 206 231
168 206 231
168 206 231
168 206 231
168 206 231
168 206 231
168 206 231
168 206 231
168 205 230
168 206 231
168 206 231
168 205 230
168 205 230
168 205 230
168 205 230
168 205 230
168 205 230
168 205 230
168 205 230
168 205 230
168 205 230
168 205 230
168 205 230
168 205 230
168 205 230
168 205 230
168 205 230
168 205 230
168 205 230
168 206 231
168 206 231
168 206 231
168 206 231
168 206 231
168 206 231
168 206 231
168 206 231
168 206 231
168 206 231
168 206 231
168 206 231
168 206 231
168 206 231
168 206 231
168 206 231
168 206 231
168 206 231
168 206 231
168 206 231
168 206 231
168 206 231
168 206 231
168 206 231
168 206 231
169 206 231
168 206 231
169 206 231
169 206 231
169 206 231
169 206 231
169 206 231
169 206 231
169 206 231
169 206 231
169 206 231
169 206 231
169 206 231
169 206 231
169 206 231
169 206 231
169 206 231
169 206 231
169 206 231
169 206 231
169 206 231
169 206 231
169 206 231
169 206 231
169 206 231
169 206 231
169 206 231
169 206 231
169 206 231
169 206 231
169 206 231
169 206 231
169 206 231
169 206 231
169 206 231
169 206 231
169 206 231
169 206 231
169 206 231
169 206 231
169 206 231
169 206 231
169 206 231
169 206 231
169 206 231
169 206 231
169 206 231
169 206 231
169 206 231
169 206 231
169 206 231
169 206 231
169 206 231
169 206 231
169 206 231
169 206 231
169 206 231
169 206 231
169 206 231
169 206 231
169 206 231
169 206 231
169 206 231
169 206 231
169 206 231
169 206 231
169 206 231
169 206 231
169 206 231
169 206 231
169 206 231
169 206 231
169 206 231
169 206 231
169 206 231
169 206 231
169 206 231
170 206 231
170 206 231
170 206 231
170 206 231
170 206 231
170 206 231
170 206 231
170 206 231
170 206 231
170 206 231
170 206 231
170 206 231
170 206 231
170 206 231
170 207 231
170 207 231
170 206 231
170 207 231
170 207 231
170 207 231
170 207 231
170 207 231
170 207 231
170 207 231
170 207 231
170 207 231
170 207 231
170 207 231
170 207 231
170 207 231
170 207 231
170 207 231
170 207 231
95 123 141
44 65 78
46 66 80
48 68 81
47 68 82
46 66 80
46 67 80
48 69 83
47 68 82
44 64 78
49 70 84
44 66 81
45 67 81
44 65 78
47 68 83
51 72 86
49 70 83
44 65 78
50 72 88
52 74 88
49 69 83
46 67 81
49 70 84
46 66 80
49 71 86
51 72 85
52 73 87
53 76 91
53 76 91
48 69 83
46 66 80
49 71 85
47 68 83
47 68 82
50 71 86
44 64 78
50 72 87
47 68 82
48 69 83
47 67 81
43 63 77
47 70 85
49 72 87
47 68 83
48 71 85
49 70 85
47 67 81
48 68 81
43 63 77
50 71 85
48 69 83
44 65 79
52 74 88
45 65 78
48 69 84
48 70 84
49 68 81
47 68 82
46 66 80
47 69 84
46 67 80
49 71 86
47 69 83
43 64 78
52 73 87
47 68 82
47 68 81
47 68 82
46 67 80
51 72 86
49 72 87
51 73 87
49 70 85
43 64 78
43 63 76
47 68 83
44 65 79
47 68 82
47 68 82
46 68 82
47 69 83
45 66 81
49 70 84
43 63 77
47 69 83
48 70 84
49 69 82
53 74 89
48 70 84
45 66 81
45 67 81
47 68 82
49 70 84
44 65 79
44 63 76
45 66 79
49 70 85
49 70 84
49 71 86
46 66 80
47 68 82
47 68 82
51 73 87
48 69 82
51 72 87
49 72 87
48 70 85
46 67 81
44 64 77
43 64 77
50 72 87
47 68 82
48 68 81
46 67 81
45 65 79
46 68 83
47 69 83
48 68 82
47 69 83
48 69 83
45 67 81
48 68 82
53 74 88
45 65 78
45 67 81
51 71 85
47 68 82
46 67 81
52 73 87
99 127 145
170 207 231
170 207 231
170 207 231
170 207 231
170 207 231
170 207 231
170 207 231
170 207 231
170 207 231
170 207 231
170 207 231
170 207 231
170 207 231
170 207 231
170 207 231
170 207 231
170 207 231
170 207 231
170 206 231
170 206 231
170 206 231
170 206 231
170 206 231
170 206 231
170 206 231
170 206 231
170 206 231
170 206 231
170 206 231
170 206 231
170 206 231
170 206 231
170 206 231
170 206 231
169 206 231
169 206 231
169 206 231
169 206 231
169 206 231
169 206 231
169 206 231
169 206 231
169 206 231
169 206 231
169 206 231
169 206 231
169 206 231
169 206 231
169 206 231
169 206 231
169 206 231
169 206 231
169 206 231
169 206 231
169 206 231
169 206 231
169 206 231
169 206 231
169 206 231
169 206 231
169 206 231
169 206 231
169 206 231
169 206 231
169 206 231
169 206 231
169 206 231
169 206 231
169 206 231
169 206 231
169 206 231
169 206 231
169 206 231
169 206 231
169 206 231
169 206 231
169 206 231
169 206 231
169 206 231
169 206 231
169 206 231
169 206 231
169 206 231
169 206 231
169 206 231
169 206 231
169 206 231
169 206 231
169 206 231
169 206 231
169 206 231
169 206 231
169 206 231
169 206 231
169 206 231
169 206 231
169 206 231
169 206 231
169 206 231
169 206 231
169 206 231
169 206 231
169 206 231
169 206 231
169 206 231
169 206 231
169 206 231
169 206 231
169 206 231
168 206 231
168 206 231
168 206 231
168 206 231
168 206 231
168 206 231
168 206 231
168 206 231
168 206 231
168 206 231
168 206 231
168 206 231
168 206 231
168 206 231
168 206 231
168 206 231
168 206 231
168 206 231
168 206 231
168 206 231
168 206 231
168 206 231
168 206 231
168 206 231
168 206 231
168 206 231
169 206 231
169 206 231
169 206 231
169 206 231
169 206 231
169 206 231
169 206 231
169 206 231
169 206 231
169 206 231
169 206 231
169 206 231
169 206 231
169 206 231
169 206 231
169 206 231
169 206 231
169 206 231
169 206 231
169 206 231
169 206 231
169 206 231
169 206 231
169 206 231
169 206 231
169 206 231
169 206 231
169 206 231
169 206 231
169 206 231
169 206 231
169 206 231
169 206 231
169 206 231
169 206 231
169 206 231
169 206 231
169 206 231
169 206 231
169 206 231
169 206 231
169 206 231
169 206 231
169 206 231
169 206 231
169 206 231
169 206 231
169 206 231
169 206 231
169 206 231
169 206 231
169 206 231
169 206 231
169 206 231
169 206 231
169 206 231
169 206 231
169 206 231
169 206 231
169 206 231
169 206 231
169 206 231
169 206 231
169 206 231
169 206 231
169 206 231
169 206 231
169 206 231
170 206 231
170 206 231
170 206 231
170 206 231
170 206 231
170 206 231
170 206 231
170 206 231
170 206 231
170 206 231
170 206 231
170 206 231
170 206 231
170 206 231
170 206 231
170 207 231
170 207 231
170 207 231
170 207 231
170 207 231
170 207 231
170 207 231
170 207 231
170 207 231
170 207 231
170 207 231
170 207 231
170 207 231
170 207 231
170 207 231
170 207 231
170 207 231
170 207 231
170 207 231
170 207 231
170 207 231
170 207 231
170 207 231
170 207 231
170 207 231
170 207 231
170 207 231
170 207 231
170 207 231
170 207 231
170 207 231
170 207 231
170 207 231
170 207 231
170 207 231
170 207 231
170 207 231
170 207 231
170 207 231
170 207 231
171 207 231
171 207 231
171 207 231
171 207 231
171 207 231
171 207 231
171 207 231
171 207 231
171 207 231
171 207 231
171 207 231
171 207 231
107 134 152
43 65 79
49 72 87
47 68 83
44 65 79
43 64 77
48 69 83
47 67 81
44 66 80
43 62 75
48 70 84
51 73 88
51 72 86
47 67 80
49 71 85
41 60 73
49 70 85
50 71 84
48 69 83
43 64 78
48 69 83
48 69 83
46 67 81
49 71 86
45 67 81
48 68 82
46 66 80
48 69 83
45 66 80
49 71 85
48 68 82
46 67 81
50 70 83
45 66 81
48 67 80
46 66 80
49 70 85
51 73 88
49 70 84
48 68 82
46 66 80
48 68 82
51 72 86
48 70 85
49 72 87
47 68 81
43 63 77
50 71 86
44 63 76
45 67 81
47 68 81
49 71 85
48 69 83
47 68 82
44 65 78
49 70 84
50 72 86
50 72 86
49 70 85
46 68 83
48 69 83
47 69 83
47 67 80
48 69 84
47 68 81
50 71 85
47 68 83
47 68 82
47 67 81
49 70 84
46 67 81
47 67 81
46 67 80
44 64 77
54 76 90
47 67 81
46 68 83
46 66 80
47 68 82
47 68 82
43 63 77
47 68 82
46 68 83
46 66 80
46 67 82
51 73 87
47 68 83
44 65 80
47 68 83
47 68 83
49 70 83
45 65 79
53 74 89
43 64 77
48 69 83
46 67 82
46 67 81
45 65 79
47 67 80
46 67 80
51 72 85
46 66 80
48 68 82
48 68 81
47 68 82
49 70 83
47 69 83
44 64 77
45 66 80
47 69 84
47 69 83
46 68 82
48 68 82
46 68 82
45 66 80
45 67 82
43 63 77
47 68 82
48 70 84
47 66 79
47 68 82
43 64 77
49 70 85
51 72 85
47 67 81
52 73 87
50 72 86
48 69 83
50 71 86
115 145 165
171 207 231
171 207 231
171 207 231
171 207 231
171 207 231
171 207 231
171 207 231
171 207 231
171 207 231
171 207 231
171 207 231
170 207 231
170 207 231
170 207 231
170 207 231
170 207 231
170 207 231
170 207 231
170 207 231
170 207 231
170 207 231
170 207 231
170 207 231
170 207 231
170 207 231
170 207 231
170 207 231
170 207 231
170 207 231
170 207 231
170 207 231
170 207 231
170 207 231
170 207 231
170 207 231
170 207 231
170 207 231
170 207 231
170 207 231
170 207 231
170 207 231
170 207 231
170 207 231
170 207 231
170 207 231
170 207 231
170 207 231
170 207 231
170 207 231
170 207 231
170 207 231
170 207 231
170 206 231
170 206 231
170 206 231
170 206 231
170 206 231
170 206 231
170 206 231
170 206 231
170 206 231
170 206 231
170 206 231
170 206 231
170 206 231
170 206 231
169 206 231
170 206 231
169 206 231
169 206 231
169 206 231
169 206 231
169 206 231
169 206 231
169 206 231
169 206 231
169 206 231
169 206 231
169 206 231
169 206 231
169 206 231
169 206 231
169 206 231
169 206 231
169 206 231
169 206 231
169 206 231
169 206 231
169 206 231
169 206 231
169 206 231
169 206 231
169 206 231
169 206 231
169 206 231
169 206 231
169 206 231
169 206 231
169 206 231
169 206 231
169 206 231
169 206 231
169 206 231
169 206 231
169 206 231
169 206 231
169 206 231
169 206 231
169 206 231
169 206 231
169 206 231
169 206 231
169 206 231
169 206 231
169 206 231
169 206 231
169 206 231
169 206 231
169 206 231
169 206 231
169 206 231
169 206 231
169 206 231
169 206 231
169 206 231
169 206 231
169 206 231
169 206 231
169 206 231
169 206 231
169 206 231
169 206 231
169 206 231
169 206 231
169 206 231
169 206 231
169 206 231
169 206 231
169 206 231
169 206 231
169 206 231
169 206 231
169 206 231
169 206 231
169 206 231
169 206 231
169 206 231
169 206 231
169 206 231
169 206 231
169 206 231
169 206 231
169 206 231
169 206 231
169 206 231
169 206 231
169 206 231
169 206 231
169 206 231
169 206 231
169 206 231
169 206 231
169 206 231
169 206 231
169 206 231
169 206 231
169 206 231
169 206 231
169 206 231
169 206 231
169 206 231
170 206 231
170 206 231
170 206 231
170 206 231
170 206 231
170 206 231
170 206 231
170 206 231
170 206 231
170 206 231
170 206 231
170 206 231
170 206 231
170 206 231
170 206 231
170 207 231
170 207 231
170 207 231
170 207 231
170 207 231
170 207 231
170 207 231
170 207 231
170 207 231
170 207 231
170 207 231
170 207 231
170 207 231
170 207 231
170 207 231
170 207 231
170 207 231
170 207 231
170 207 231
170 207 231
170 207 231
170 207 231
170 207 231
170 207 231
170 207 231
170 207 231
170 207 231
170 207 231
170 207 231
170 207 231
170 207 231
170 207 231
170 207 231
170 207 231
170 207 231
170 207 231
170 207 231
170 207 231
170 207 231
170 207 231
170 207 231
170 207 231
171 207 231
171 207 231
171 207 231
171 207 231
171 207 231
171 207 231
171 207 231
171 207 231
171 207 231
171 207 231
171 207 231
171 207 231
171 207 231
171 207 231
171 207 231
171 207 231
171 207 231
171 207 231
171 207 231
171 207 231
171 207 231
171 207 231
171 207 231
171 207 231
171 207 231
171 207 231
171 207 231
171 207 231
171 207 231
171 207 231
171 207 231
171 207 231
171 207 231
171 207 231
171 207 231
171 207 231
171 207 231
171 207 231
171 207 231
171 207 231
171 207 231
171 207 231
121 152 173
47 68 81
43 62 74
44 65 79
47 69 84
46 66 79
48 70 85
42 63 77
50 71 86
46 67 81
48 69 83
50 71 85
41 60 73
43 64 78
44 66 80
47 69 83
48 69 84
47 68 82
45 64 77
47 67 81
47 69 84
50 71 85
50 72 86
47 67 81
47 67 81
48 68 82
45 66 80
49 71 86
45 65 79
50 72 86
49 69 83
43 64 79
49 71 85
49 70 84
46 66 79
45 65 79
45 67 82
52 73 88
47 67 81
46 66 80
42 62 74
47 68 83
45 65 79
47 67 81
49 71 86
46 68 82
50 73 88
52 74 88
45 66 79
47 67 81
49 71 86
47 67 80
44 65 79
52 73 88
48 70 84
46 68 82
46 68 83
48 69 84
45 67 81
49 71 86
49 69 83
45 64 77
47 68 81
44 63 76
48 69 83
50 71 86
51 73 87
47 68 82
46 68 82
46 67 80
46 67 82
47 68 82
49 71 85
46 65 79
49 70 84
45 65 78
47 67 80
48 69 83
49 70 84
46 67 81
49 70 84
48 70 85
45 65 79
45 65 79
44 64 78
44 65 78
48 70 85
46 68 82
49 70 84
48 71 86
45 66 81
45 66 79
48 68 81
45 66 80
50 72 86
43 63 77
50 70 84
49 70 84
46 66 80
51 73 87
46 67 81
43 63 77
51 72 86
47 68 82
47 67 81
49 71 85
44 64 78
44 65 80
46 66 80
43 63 76
41 62 76
47 67 81
47 69 83
45 66 81
48 70 84
44 65 78
49 70 84
46 68 82
47 66 80
48 69 83
50 72 87
50 71 84
46 67 80
53 74 88
49 70 84
45 66 79
46 66 80
46 68 82
49 71 85
104 132 151
171 207 231
171 207 231
171 207 231
171 207 231
171 207 231
171 207 231
171 207 231
171 207 231
171 207 231
171 207 231
171 207 231
171 207 231
171 207 231
171 207 231
171 207 231
171 207 231
171 207 231
171 207 231
171 207 231
171 207 231
171 207 231
171 207 231
171 207 231
171 207 231
171 207 231
171 207 231
171 207 231
171 207 231
171 207 231
171 207 231
171 207 231
171 207 231
171 207 231
171 207 231
171 207 231
171 207 231
171 207 231
171 207 231
171 207 231
171 207 231
171 207 231
171 207 231
170 207 231
170 207 231
170 207 231
170 207 231
170 207 231
170 207 231
170 207 231
170 207 231
170 207 231
170 207 231
170 207 231
170 207 231
170 207 231
170 207 231
170 207 231
170 207 231
170 207 231
170 207 231
170 207 231
170 207 231
170 207 231
170 207 231
170 207 231
170 207 231
170 207 231
170 207 231
170 207 231
170 207 231
170 207 231
170 207 231
170 207 231
170 207 231
170 207 231
170 207 231
170 207 231
170 207 231
170 207 231
170 207 231
170 207 231
170 207 231
170 206 231
170 206 231
170 206 231
170 206 231
170 206 231
170 206 231
170 206 231
170 206 231
170 206 231
170 206 231
170 206 231
170 206 231
170 206 231
170 206 231
170 206 231
170 206 231
170 206 231
169 206 231
169 206 231
169 206 231
169 206 231
169 206 231
169 206 231
169 206 231
169 206 231
169 206 231
169 206 231
169 206 231
169 206 231
169 206 231
169 206 231
169 206 231
169 206 231
169 206 231
169 206 231
169 206 231
169 206 231
169 206 231
169 206 231
169 206 231
169 206 231
169 206 231
169 206 231
169 206 231
169 206 231
169 206 231
169 206 231
169 206 231
169 206 231
169 206 231
169 206 231
169 206 231
169 206 231
169 206 231
169 206 231
169 206 231
169 206 231
169 206 231
169 206 231
170 206 231
170 206 231
170 206 231
170 206 231
170 206 231
170 206 231
170 206 231
170 206 231
170 206 231
170 206 231
170 206 231
170 206 231
170 206 231
170 206 231
170 206 231
170 206 231
170 206 231
170 207 231
170 207 231
170 207 231
170 207 231
170 207 231
170 207 231
170 207 231
170 207 231
170 207 231
170 207 231
170 207 231
170 207 231
170 207 231
170 207 231
170 207 231
170 207 231
170 207 231
170 207 231
170 207 231
170 207 231
170 207 231
170 207 231
170 207 231
170 207 231
170 207 231
170 207 231
170 207 231
170 207 231
170 207 231
170 207 231
170 207 231
170 207 231
170 207 231
170 207 231
170 207 231
170 207 231
170 207 231
170 207 231
170 207 231
170 207 231
170 207 231
170 207 231
170 207 231
171 207 231
171 207 231
171 207 231
171 207 231
171 207 231
171 207 231
171 207 231
171 207 231
171 207 231
171 207 231
171 207 231
171 207 231
171 207 231
171 207 231
171 207 231
171 207 231
171 207 231
171 207 231
171 207 231
171 207 231
171 207 231
171 207 231
171 207 231
171 207 231
171 207 231
171 207 231
171 207 231
171 207 231
171 207 231
171 207 231
171 207 231
171 207 231
171 207 231
171 207 231
171 207 231
171 207 231
171 207 231
171 207 231
171 207 231
171 207 231
171 207 231
171 207 231
171 207 231
171 207 231
172 208 232
172 208 232
172 208 232
172 208 232
172 208 232
172 208 232
172 208 232
172 208 232
172 208 232
172 208 232
172 208 232
172 208 232
172 208 232
172 208 232
172 208 232
172 208 232
172 208 232
172 208 232
172 208 232
172 208 232
172 208 232
172 208 232
172 208 232
172 208 232
172 208 232
140 172 193
44 63 75
48 68 82
44 65 79
44 66 80
45 65 78
46 67 80
47 68 82
47 68 82
47 69 83
46 66 79
49 70 84
47 67 81
47 67 80
49 70 84
47 67 81
47 68 82
47 68 82
49 70 83
44 65 79
43 64 78
48 68 81
42 63 77
46 67 81
43 64 77
46 65 78
46 67 80
44 64 77
48 68 82
51 72 86
48 68 82
49 70 84
45 65 78
44 65 79
50 72 86
48 69 83
48 69 83
47 67 81
50 71 85
43 62 75
50 70 84
47 68 81
46 66 80
50 72 87
47 68 82
47 67 81
48 70 85
48 68 82
43 64 78
45 67 81
43 64 78
45 66 80
44 65 79
43 64 77
50 70 84
49 71 85
45 65 78
45 66 80
44 65 79
49 70 85
49 70 83
41 60 73
47 69 84
49 71 85
45 65 78
47 68 82
48 69 83
46 65 79
47 68 81
47 68 82
51 72 86
54 75 89
49 71 85
47 68 81
49 71 86
47 67 81
45 66 79
49 70 84
48 69 83
46 65 79
49 71 85
46 67 81
41 61 74
46 66 80
50 71 85
47 69 83
44 65 78
50 72 86
45 66 80
41 62 75
49 69 83
42 61 74
46 67 80
48 69 83
48 69 83
47 69 83
46 65 78
48 69 83
47 68 82
51 72 87
49 71 86
47 70 85
50 70 84
51 71 85
53 74 88
48 68 82
47 68 82
45 65 79
47 69 84
41 61 74
46 67 81
49 70 84
48 69 83
40 60 74
47 66 79
47 69 83
43 63 77
49 70 84
48 68 81
46 68 82
45 66 80
45 65 78
48 68 82
47 67 81
43 63 76
48 68 81
49 70 84
46 66 79
43 62 76
130 161 182
172 208 232
172 208 232
172 208 232
172 208 232
172 208 232
172 208 232
172 208 232
172 208 232
172 208 232
172 208 232
172 208 232
172 208 232
172 208 232
172 208 232
172 208 232
172 208 232
172 208 232
172 208 232
172 208 232
172 208 232
172 208 232
172 208 232
172 208 232
172 208 232
172 208 232
171 207 231
171 207 231
171 207 231
171 207 231
171 207 231
171 207 231
171 207 231
171 207 231
171 207 231
171 207 231
171 207 231
171 207 231
171 207 231
171 207 231
171 207 231
171 207 231
171 207 231
171 207 231
171 207 231
171 207 231
171 207 231
171 207 231
171 207 231
171 207 231
171 207 231
171 207 231
171 207 231
171 207 231
171 207 231
171 207 231
171 207 231
171 207 231
171 207 231
171 207 231
171 207 231
171 207 231
171 207 231
171 207 231
171 207 231
171 207 231
171 207 231
171 207 231
171 207 231
171 207 231
170 207 231
170 207 231
170 207 231
170 207 231
170 207 231
170 207 231
170 207 231
170 207 231
170 207 231
170 207 231
170 207 231
170 207 231
170 207 231
170 207 231
170 207 231
170 207 231
170 207 231
170 207 231
170 207 231
170 207 231
170 207 231
170 207 231
170 207 231
170 207 231
170 207 231
170 207 231
170 207 231
170 207 231
170 207 231
170 207 231
170 207 231
170 207 231
170 207 231
170 207 231
170 207 231
170 207 231
170 207 231
170 207 231
170 207 231
170 207 231
170 207 231
170 207 231
170 206 231
170 206 231
170 206 231
170 206 231
170 206 231
170 206 231
170 206 231
170 206 231
170 206 231
170 206 231
170 206 231
170 206 231
170 206 231
170 206 231
170 206 231
170 206 231
170 206 231
170 206 231
169 206 231
169 206 231
169 206 231
169 206 231
169 206 231
169 206 231
170 207 231
170 207 231
170 207 231
170 207 231
170 207 231
170 207 231
170 207 231
170 207 231
170 207 231
170 207 231
170 207 231
170 207 231
170 207 231
170 207 231
170 207 231
170 207 231
170 207 231
170 207 231
170 207 231
170 207 231
170 207 231
170 207 231
170 207 231
170 207 231
170 207 231
170 207 231
170 207 231
170 207 231
170 207 231
170 207 231
170 207 231
170 207 231
170 207 231
170 207 231
170 207 231
170 207 231
170 207 231
170 207 231
170 207 231
170 207 231
170 207 231
170 207 231
171 207 231
171 207 231
171 207 231
171 207 231
171 207 231
171 207 231
171 207 231
171 207 231
171 207 231
171 207 231
171 207 231
171 207 231
171 207 231
171 207 231
171 207 231
171 207 231
171 207 231
171 207 231
171 207 231
171 207 231
171 207 231
171 207 231
171 207 231
171 207 231
171 207 231
171 207 231
171 207 231
171 207 231
171 207 231
171 207 231
171 207 231
171 207 231
171 207 231
171 207 231
171 207 231
171 207 231
171 207 231
171 207 231
171 207 231
171 207 231
171 207 231
171 207 231
171 207 231
171 207 231
172 208 232
172 208 232
172 208 232
172 208 232
172 208 232
172 208 232
172 208 232
172 208 232
172 208 232
172 208 232
172 208 232
172 208 232
172 208 232
172 208 232
172 208 232
172 208 232
172 208 232
172 208 232
172 208 232
172 208 232
172 208 232
172 208 232
172 208 232
172 208 232
172 208 232
172 208 232
172 208 232
172 208 232
172 208 232
172 208 232
172 208 232
172 208 232
172 208 232
172 208 232
172 208 232
172 208 232
172 208 232
172 208 232
172 208 232
172 208 232
173 208 232
173 208 232
173 208 232
173 208 232
173 208 232
173 208 232
173 208 232
173 208 232
173 208 232
156 190 212
50 72 87
43 63 76
45 65 78
47 68 82
44 63 76
47 68 82
49 70 84
48 70 84
45 65 78
49 71 85
47 69 83
49 70 85
45 66 80
49 70 85
49 71 86
46 66 79
47 67 81
47 67 80
48 68 82
51 72 86
50 71 85
44 63 76
45 66 79
42 62 76
47 68 81
50 71 85
43 63 77
43 64 78
48 68 81
46 67 81
49 70 83
48 70 84
46 68 82
45 66 80
48 67 81
51 72 86
47 66 80
47 69 83
48 68 81
47 68 83
45 65 79
50 71 85
48 69 83
50 72 87
47 67 81
50 71 85
45 63 76
50 71 86
45 65 79
47 67 80
44 64 77
45 65 79
46 67 81
45 65 79
48 68 81
46 66 80
49 71 85
47 69 83
47 67 80
45 65 79
46 65 79
45 65 78
47 68 83
51 73 88
48 69 83
47 68 82
50 71 86
48 70 84
48 70 84
50 71 85
45 64 77
45 65 78
48 69 82
47 68 82
45 66 81
48 69 83
47 68 82
44 64 78
50 71 85
52 74 90
46 67 82
46 67 81
44 64 77
48 69 82
46 66 79
44 65 79
46 67 81
41 60 73
48 69 83
45 67 81
44 64 77
49 70 84
47 68 82
48 68 81
47 67 81
46 67 81
46 67 81
48 68 81
47 68 82
48 69 83
45 67 81
51 72 86
44 64 78
46 67 82
42 63 78
44 65 78
50 72 86
46 67 81
47 68 82
48 70 84
47 66 80
51 72 86
44 65 78
41 62 75
50 71 85
43 64 78
45 66 81
44 65 78
50 71 85
45 65 79
47 68 82
47 67 80
46 67 81
45 66 79
46 67 81
45 66 79
44 64 77
43 64 78
149 181 203
173 208 232
173 208 232
173 208 232
173 208 232
173 208 232
173 208 232
173 208 232
173 208 232
173 208 232
173 208 232
172 208 232
172 208 232
172 208 232
172 208 232
172 208 232
172 208 232
172 208 232
172 208 232
172 208 232
172 208 232
172 208 232
172 208 232
172 208 232
172 208 232
172 208 232
172 208 232
172 208 232
172 208 232
172 208 232
172 208 232
172 208 232
172 208 232
172 208 232
172 208 232
172 208 232
172 208 232
172 208 232
172 208 232
172 208 232
172 208 232
172 208 232
172 208 232
172 208 232
172 208 232
172 208 232
172 208 232
172 208 232
172 208 232
171 207 231
171 207 231
171 207 231
171 207 231
171 207 231
171 207 231
171 207 231
171 207 231
171 207 231
171 207 231
171 207 231
171 207 231
171 207 231
171 207 231
171 207 231
171 207 231
171 207 231
171 207 231
171 207 231
171 207 231
171 207 231
171 207 231
171 207 231
171 207 231
171 207 231
171 207 231
171 207 231
171 207 231
171 207 231
171 207 231
171 207 231
171 207 231
171 207 231
171 207 231
171 207 231
171 207 231
171 207 231
171 207 231
171 207 231
171 207 231
171 207 231
171 207 231
171 207 231
171 207 231
171 207 231
171 207 231
170 207 231
170 207 231
170 207 231
170 207 231
170 207 231
170 207 231
170 207 231
170 207 231
170 207 231
170 207 231
170 207 231
170 207 231
170 207 231
170 207 231
170 207 231
170 207 231
170 207 231
170 207 231
170 207 231
170 207 231
170 207 231
170 207 231
170 207 231
170 207 231
170 207 231
170 207 231
170 207 231
170 207 231
170 207 231
170 207 231
170 207 231
170 207 231
170 207 231
170 207 231
170 207 231
170 207 231
170 207 231
170 207 231
170 207 231
170 207 231
170 207 231
170 207 231
170 207 231
170 207 231
170 207 231
170 207 231
170 207 231
170 207 231
170 207 231
170 207 231
170 207 231
170 207 231
170 207 231
170 207 231
170 207 231
170 207 231
170 207 231
170 207 231
170 207 231
171 207 231
171 207 231
171 207 231
171 207 231
171 207 231
171 207 231
171 207 231
171 207 231
171 207 231
171 207 231
171 207 231
171 207 231
171 207 231
171 207 231
171 207 231
171 207 231
171 207 231
171 207 231
171 207 231
171 207 231
171 207 231
171 207 231
171 207 231
171 207 231
171 207 231
171 207 231
171 207 231
171 207 231
171 207 231
171 207 231
171 207 231
171 207 231
171 207 231
171 207 231
171 207 231
171 207 231
171 207 231
171 207 231
171 207 231
171 207 231
171 207 231
171 207 231
171 207 231
171 207 231
171 207 231
171 207 231
171 207 231
172 208 232
172 208 232
172 208 232
172 208 232
172 208 232
172 208 232
172 208 232
172 208 232
172 208 232
172 208 232
172 208 232
172 208 232
172 208 232
172 208 232
172 208 232
172 208 232
172 208 232
172 208 232
172 208 232
172 208 232
172 208 232
172 208 232
172 208 232
172 208 232
172 208 232
172 208 232
172 208 232
172 208 232
172 208 232
172 208 232
172 208 232
172 208 232
172 208 232
172 208 232
172 208 232
172 208 232
172 208 232
172 208 232
173 208 232
173 208 232
173 208 232
173 208 232
173 208 232
173 208 232
173 208 232
173 208 232
173 208 232
173 208 232
173 208 232
173 208 232
173 208 232
173 208 232
173 208 232
173 208 232
173 208 232
173 208 232
173 208 232
173 208 232
173 208 232
173 208 232
173 208 232
173 208 232
173 208 232
173 209 232
173 209 232
173 209 232
173 209 232
173 209 232
173 209 232
173 209 232
168 203 225
47 67 80
48 68 82
42 61 73
49 68 81
46 66 80
44 64 77
46 66 80
49 70 84
44 65 78
48 69 83
48 69 83
44 65 78
51 71 85
48 68 82
45 66 80
47 68 82
47 67 80
48 68 81
45 64 77
48 69 83
45 66 80
45 66 79
46 64 77
50 72 86
42 61 74
45 65 79
48 68 82
48 68 81
49 71 85
48 68 81
48 69 83
46 68 82
47 68 81
43 63 77
46 66 79
46 66 80
49 69 83
47 68 81
47 68 82
47 67 81
50 70 84
44 65 79
46 67 80
46 68 83
51 72 86
47 69 84
43 64 79
50 71 85
45 66 80
49 70 84
42 62 75
44 64 77
47 68 82
45 66 80
48 70 84
51 72 86
47 68 81
46 66 80
45 67 81
49 69 83
47 68 82
48 70 84
51 72 86
49 70 84
51 72 87
48 69 83
49 71 85
50 71 86
45 65 78
47 67 81
45 65 79
46 66 80
47 68 82
48 70 85
47 68 81
47 66 79
46 67 81
48 69 83
49 69 82
49 70 83
48 70 84
46 66 80
46 67 80
48 69 84
47 67 81
44 65 79
50 72 86
45 65 79
44 65 78
48 68 82
44 66 80
43 62 75
45 66 80
50 72 87
49 70 84
49 69 83
44 64 77
47 69 83
48 69 82
44 65 79
44 63 76
47 67 80
47 67 81
47 68 82
45 64 78
48 68 81
41 61 75
46 67 80
44 64 77
44 63 76
46 68 82
41 62 76
44 65 80
49 71 85
45 65 79
45 65 78
45 65 79
54 75 89
52 74 89
45 65 79
48 69 84
47 68 81
47 68 81
45 65 78
48 69 83
50 71 85
46 66 80
45 66 80
173 209 232
173 209 232
173 209 232
173 209 232
173 209 232
173 209 232
173 209 232
173 209 232
173 208 232
173 208 232
173 208 232
173 208 232
173 208 232
173 208 232
173 208 232
173 208 232
173 208 232
173 208 232
173 208 232
173 208 232
173 208 232
173 208 232
173 208 232
173 208 232
173 208 232
173 208 232
173 208 232
173 208 232
173 208 232
173 208 232
173 208 232
173 208 232
173 208 232
173 208 232
172 208 232
172 208 232
172 208 232
172 208 232
172 208 232
172 208 232
172 208 232
172 208 232
172 208 232
172 208 232
172 208 232
172 208 232
172 208 232
172 208 232
172 208 232
172 208 232
172 208 232
172 208 232
172 208 232
172 208 232
172 208 232
172 208 232
172 208 232
172 208 232
172 208 232
172 208 232
172 208 232
172 208 232
172 208 232
172 208 232
172 208 232
172 208 232
172 208 232
172 208 232
172 208 232
172 208 232
172 208 232
172 208 232
171 207 231
171 207 231
171 207 231
171 207 231
171 207 231
171 207 231
171 207 231
171 207 231
171 207 231
171 207 231
171 207 231
171 207 231
171 207 231
171 207 231
171 207 231
171 207 231
171 207 231
171 207 231
171 207 231
171 207 231
171 207 231
171 207 231
171 207 231
171 207 231
171 207 231
171 207 231
171 207 231
171 207 231
171 207 231
171 207 231
171 207 231
171 207 231
171 207 231
171 207 231
171 207 231
171 207 231
171 207 231
171 207 231
171 207 231
171 207 231
171 207 231
171 207 231
171 207 231
171 207 231
171 207 231
171 207 231
170 207 231
170 207 231
170 207 231
170 207 231
170 207 231
170 207 231
170 207 231
170 207 231
170 207 231
170 207 231
170 207 231
170 207 231
170 207 231
170 207 231
170 207 231
170 207 231
170 207 231
170 207 231
171 207 231
171 207 231
171 207 231
171 207 231
171 207 231
171 207 231
171 207 231
171 207 231
171 207 231
171 207 231
171 207 231
171 207 231
171 207 231
171 207 231
171 207 231
171 207 231
171 207 231
171 207 231
171 207 231
171 207 231
171 207 231
171 207 231
171 207 231
171 207 231
171 207 231
171 207 231
171 207 231
171 207 231
171 207 231
171 207 231
171 207 231
171 207 231
171 207 231
171 207 231
171 207 231
171 207 231
171 207 231
171 207 231
171 207 231
171 207 231
171 207 231
171 207 231
171 207 231
171 207 231
172 208 232
171 207 231
172 208 232
172 208 232
172 208 232
172 208 232
172 208 232
172 208 232
172 208 232
172 208 232
172 208 232
172 208 232
172 208 232
172 208 232
172 208 232
172 208 232
172 208 232
172 208 232
172 208 232
172 208 232
172 208 232
172 208 232
172 208 232
172 208 232
172 208 232
172 208 232
172 208 232
172 208 232
172 208 232
172 208 232
172 208 232
172 208 232
172 208 232
172 208 232
172 208 232
172 208 232
172 208 232
172 208 232
172 208 232
173 208 232
173 208 232
173 208 232
173 208 232
173 208 232
173 208 232
173 208 232
173 208 232
173 208 232
173 208 232
173 208 232
173 208 232
173 208 232
173 208 232
173 208 232
173 208 232
173 208 232
173 208 232
173 208 232
173 208 232
173 208 232
173 208 232
173 208 232
173 208 232
173 209 232
173 209 232
173 209 232
173 209 232
173 209 232
173 209 232
173 209 232
173 209 232
174 209 232
174 209 232
174 209 232
174 209 232
174 209 232
174 209 232
174 209 232
174 209 232
174 209 232
173 208 231
169 204 227
162 196 220
163 198 221
154 188 211
148 182 205
134 169 192
132 166 188
132 166 189
113 147 169
119 152 175
104 138 160
50 72 87
48 68 81
47 68 82
44 63 76
45 65 77
46 67 81
44 66 80
45 65 78
46 66 79
49 69 82
47 68 82
42 63 77
49 70 83
44 64 77
47 68 82
44 63 76
45 65 79
45 65 78
46 67 80
50 70 84
41 60 73
43 63 76
43 63 77
48 66 79
46 67 80
44 64 77
46 66 80
47 69 84
48 70 84
46 67 81
48 68 81
46 66 79
48 69 82
46 66 80
48 69 83
46 68 82
44 64 77
47 67 81
49 70 84
46 65 78
45 65 78
47 68 82
46 67 82
48 67 80
47 68 82
45 67 81
42 62 75
46 67 82
46 67 81
42 62 75
47 67 81
49 69 82
47 67 81
48 69 83
47 68 82
41 61 75
53 73 87
46 66 79
49 72 87
44 65 79
51 71 85
42 62 75
48 69 83
44 64 78
44 64 77
48 68 82
42 62 75
46 67 81
48 69 83
51 71 85
45 65 79
42 62 75
46 66 80
44 65 78
45 66 81
47 69 83
47 68 82
46 68 82
43 63 76
50 70 84
46 66 80
50 71 85
46 66 79
51 73 88
47 67 81
51 72 87
47 68 82
42 62 75
48 69 82
47 67 80
48 70 84
49 69 83
48 68 82
46 67 81
44 64 78
47 68 83
49 70 83
44 64 78
51 73 87
44 65 79
44 63 76
45 66 79
46 67 81
52 73 87
43 63 76
47 67 81
46 67 81
47 68 82
51 71 85
48 68 81
47 68 82
43 62 74
45 64 77
47 69 83
46 67 81
43 61 73
49 71 85
47 68 82
45 65 78
45 66 80
44 64 77
45 66 79
49 69 83
46 67 80
45 65 79
46 67 81
48 68 81
50 73 88
105 138 160
114 148 170
120 153 176
121 155 178
132 166 188
135 169 192
140 173 196
148 182 205
149 184 207
154 189 212
168 203 226
174 209 232
174 209 232
174 209 232
174 209 232
174 209 232
174 209 232
174 209 232
174 209 232
174 209 232
174 209 232
174 209 232
173 209 232
173 209 232
173 209 232
173 209 232
173 209 232
173 209 232
173 209 232
173 208 232
173 208 232
173 208 232
173 208 232
173 208 232
173 208 232
173 208 232
173 208 232
173 208 232
173 208 232
173 208 232
173 208 232
173 208 232
173 208 232
173 208 232
173 208 232
173 208 232
173 208 232
173 208 232
173 208 232
173 208 232
173 208 232
173 208 232
173 208 232
172 208 232
172 208 232
172 208 232
172 208 232
172 208 232
172 208 232
172 208 232
172 208 232
172 208 232
172 208 232
172 208 232
172 208 232
172 208 232
172 208 232
172 208 232
172 208 232
172 208 232
172 208 232
172 208 232
172 208 232
172 208 232
172 208 232
172 208 232
172 208 232
172 208 232
172 208 232
172 208 232
172 208 232
172 208 232
172 208 232
172 208 232
172 208 232
172 208 232
172 208 232
172 208 232
172 208 232
172 208 232
172 208 232
171 207 231
171 207 231
171 207 231
171 207 231
171 207 231
171 207 231
171 207 231
171 207 231
171 207 231
171 207 231
171 207 231
171 207 231
171 207 231
171 207 231
171 207 231
171 207 231
171 207 231
171 207 231
171 207 231
171 207 231
171 207 231
171 207 231
171 207 231
171 207 231
171 207 231
171 207 231
171 207 231
171 207 231
171 207 231
171 207 231
171 207 231
171 207 231
171 207 231
171 207 231
171 207 231
171 207 231
171 207 231
171 207 231
171 207 231
171 207 231
171 207 231
171 207 231
171 207 231
171 207 231
171 207 231
171 207 231
171 207 231
171 207 231
171 207 231
171 207 231
171 207 231
171 207 231
171 207 231
171 207 231
171 207 231
171 207 231
171 207 231
171 207 231
171 207 231
171 207 231
171 207 231
171 207 231
171 207 231
171 207 231
171 207 231
171 207 231
171 207 231
171 207 231
171 207 231
171 207 231
172 208 232
172 208 232
172 208 232
172 208 232
172 208 232
172 208 232
172 208 232
172 208 232
172 208 232
172 208 232
172 208 232
172 208 232
172 208 232
172 208 232
172 208 232
172 208 232
172 208 232
172 208 232
172 208 232
172 208 232
172 208 232
172 208 232
172 208 232
172 208 232
172 208 232
172 208 232
172 208 232
172 208 232
172 208 232
172 208 232
172 208 232
172 208 232
172 208 232
172 208 232
172 208 232
172 208 232
172 208 232
172 208 232
172 208 232
172 208 232
173 208 232
173 208 232
173 208 232
173 208 232
173 208 232
173 208 232
173 208 232
173 208 232
173 208 232
173 208 232
173 208 232
173 208 232
173 208 232
173 208 232
173 208 232
173 208 232
173 208 232
173 208 232
173 208 232
173 208 232
173 208 232
173 208 232
173 208 232
173 208 232
173 209 232
173 209 232
173 209 232
173 209 232
173 209 232
173 209 232
173 209 232
173 209 232
174 209 232
174 209 232
174 209 232
174 209 232
174 209 232
174 209 232
174 209 232
174 209 232
174 209 232
174 209 232
174 209 232
170 205 228
164 199 222
143 177 200
149 183 206
127 161 184
120 153 176
117 150 173
119 153 175
97 130 152
102 135 158
99 132 154
89 122 144
76 108 130
72 104 125
70 103 125
60 92 114
56 86 107
52 84 106
53 85 106
54 85 106
51 84 106
53 85 106
50 83 105
50 83 105
53 85 106
53 85 106
51 84 106
54 86 107
50 75 92
49 70 84
48 69 84
44 63 75
43 62 74
47 68 82
43 63 76
48 68 81
46 67 81
47 67 81
46 67 81
46 67 80
48 67 81
45 65 79
43 63 76
44 65 79
43 63 76
40 60 73
43 64 78
45 65 79
44 64 77
44 64 77
49 69 83
45 64 77
45 66 80
47 67 81
46 67 80
41 61 74
49 69 83
47 67 81
42 63 76
45 65 79
48 68 82
44 65 78
47 68 82
46 66 80
49 71 85
49 69 82
48 69 83
44 64 77
46 66 79
47 68 82
47 67 81
49 71 85
45 65 79
47 67 80
49 71 85
47 66 80
48 68 81
44 64 77
50 71 85
45 67 81
50 71 85
45 64 77
50 71 84
43 63 76
50 73 88
43 64 77
50 72 86
43 64 78
47 68 83
46 68 82
46 67 82
47 67 81
46 66 79
40 60 73
48 69 83
45 65 78
49 70 83
51 73 87
46 66 80
46 67 81
45 64 77
48 69 82
46 67 82
49 71 85
47 67 80
47 68 82
47 67 80
46 66 80
49 70 83
49 71 85
45 64 77
48 69 83
43 65 79
50 70 84
49 69 83
45 66 81
45 65 79
42 62 76
44 64 77
48 68 82
47 67 81
45 65 78
43 62 75
47 69 83
43 61 74
45 66 80
45 66 80
47 66 79
47 67 80
43 64 78
48 67 80
45 66 80
47 68 82
50 71 85
49 70 84
47 69 83
48 70 84
49 70 84
45 65 79
46 67 81
43 64 79
45 66 80
46 67 81
42 62 76
45 65 78
45 66 80
50 71 84
45 65 79
46 66 79
48 69 83
44 62 75
49 70 85
43 63 76
43 62 74
47 67 80
48 71 86
51 84 106
53 85 106
53 85 106
54 85 106
52 84 106
50 83 105
52 84 106
53 85 106
52 85 106
52 84 106
54 86 107
55 88 110
65 97 118
72 104 125
76 108 130
77 109 131
98 130 151
93 127 149
101 134 156
111 145 167
118 152 174
124 158 180
138 172 195
138 172 195
150 184 207
154 189 212
157 191 214
170 205 228
174 209 232
174 209 232
174 209 232
174 209 232
174 209 232
174 209 232
174 209 232
174 209 232
174 209 232
174 209 232
174 209 232
174 209 232
173 209 232
173 209 232
173 209 232
173 209 232
173 209 232
173 209 232
173 209 232
173 208 232
173 208 232
173 208 232
173 208 232
173 208 232
173 208 232
173 208 232
173 208 232
173 208 232
173 208 232
173 208 232
173 208 232
173 208 232
173 208 232
173 208 232
173 208 232
173 208 232
173 208 232
173 208 232
173 208 232
173 208 232
173 208 232
173 208 232
173 208 232
172 208 232
172 208 232
172 208 232
172 208 232
172 208 232
172 208 232
172 208 232
172 208 232
172 208 232
172 208 232
172 208 232
172 208 232
172 208 232
172 208 232
172 208 232
172 208 232
172 208 232
172 208 232
172 208 232
172 208 232
172 208 232
172 208 232
172 208 232
172 208 232
172 208 232
172 208 232
172 208 232
172 208 232
172 208 232
172 208 232
172 208 232
172 208 232
172 208 232
172 208 232
172 208 232
172 208 232
172 208 232
172 208 232
172 208 232
172 208 232
171 207 231
171 207 231
171 207 231
171 207 231
171 207 231
171 207 231
171 207 231
171 207 231
171 207 231
171 207 231
171 207 231
171 207 231
171 207 231
171 207 231
171 207 231
171 207 231
171 207 231
171 207 231
171 207 231
171 207 231
171 207 231
171 207 231
171 207 231
171 207 231
171 207 231
171 207 231
171 207 231
171 207 231
171 207 231
171 207 231
171 207 231
171 207 231
172 208 232
172 208 232
172 208 232
172 208 232
172 208 232
172 208 232
172 208 232
172 208 232
172 208 232
172 208 232
172 208 232
172 208 232
172 208 232
172 208 232
172 208 232
172 208 232
172 208 232
172 208 232
172 208 232
172 208 232
172 208 232
172 208 232
172 208 232
172 208 232
172 208 232
172 208 232
172 208 232
172 208 232
172 208 232
172 208 232
172 208 232
172 208 232
172 208 232
172 208 232
172 208 232
172 208 232
172 208 232
172 208 232
172 208 232
172 208 232
172 208 232
173 208 232
173 208 232
173 208 232
173 208 232
173 208 232
173 208 232
173 208 232
173 208 232
173 208 232
173 208 232
173 208 232
173 208 232
173 208 232
173 208 232
173 208 232
173 208 232
173 208 232
173 208 232
173 208 232
173 208 232
173 208 232
173 208 232
173 208 232
173 208 232
173 209 232
173 209 232
173 209 232
173 209 232
173 209 232
173 209 232
173 209 232
173 209 232
174 209 232
174 209 232
174 209 232
174 209 232
174 209 232
174 209 232
174 209 232
174 209 232
174 209 232
174 209 232
174 209 232
174 209 232
174 209 232
166 201 225
160 195 218
153 188 211
160 195 218
138 172 194
129 163 186
112 145 167
104 138 160
104 138 160
91 124 146
84 116 138
78 111 133
70 103 125
59 91 112
53 85 106
52 85 106
53 85 106
51 84 106
52 84 106
53 85 106
53 85 106
53 85 106
53 85 106
51 84 106
51 84 106
52 85 106
55 86 107
51 84 106
53 85 106
52 84 106
54 85 106
52 85 106
54 85 106
52 85 106
53 85 106
53 85 106
53 85 106
53 85 106
53 85 106
52 85 106
53 85 106
53 85 106
53 85 106
48 74 92
46 67 81
47 69 83
44 65 79
45 66 79
45 65 79
43 63 76
47 68 82
50 71 85
46 65 79
45 65 79
46 66 80
52 73 87
49 70 84
46 67 81
47 66 79
47 68 81
45 65 79
45 65 79
47 69 83
46 65 78
49 70 84
46 67 81
49 70 84
44 65 79
44 64 77
45 66 80
46 68 82
46 67 81
46 67 81
50 69 82
44 62 75
49 70 85
49 70 83
48 69 82
48 68 82
48 69 83
46 66 80
49 70 84
46 67 81
45 65 78
43 64 78
48 69 83
47 67 81
47 68 82
45 66 80
43 63 77
46 66 80
41 60 73
42 62 75
47 68 81
44 64 78
49 68 81
44 62 75
44 63 76
43 64 77
44 64 77
44 65 78
46 66 79
44 64 77
48 70 85
49 70 84
47 68 82
41 61 74
46 67 80
47 67 80
44 63 77
47 69 83
48 68 81
50 71 85
49 70 84
45 66 79
50 71 85
42 62 75
44 65 78
47 68 82
47 68 82
47 68 82
48 69 84
48 68 82
41 61 75
47 68 81
47 67 80
48 69 82
47 69 83
42 63 77
42 60 72
48 69 83
49 70 84
46 67 81
46 66 79
46 67 80
44 65 79
48 68 81
50 70 83
47 67 81
48 69 84
43 63 77
47 67 81
45 66 79
45 65 78
43 63 76
44 65 78
46 67 80
44 64 77
44 65 80
50 70 84
44 65 79
45 65 78
45 66 79
45 66 80
49 69 83
45 65 79
45 66 79
50 71 84
43 63 77
43 63 77
45 65 78
44 64 77
44 63 76
44 64 77
44 63 75
44 64 77
44 64 77
46 68 82
44 62 75
43 64 78
49 77 96
53 85 106
52 84 106
52 85 106
54 85 106
51 84 106
52 84 106
51 84 106
55 86 107
52 84 106
52 84 106
54 86 107
54 86 107
54 85 106
51 83 105
50 83 105
54 85 106
52 85 106
54 85 106
54 85 106
52 84 106
52 84 106
53 85 106
54 85 106
50 83 105
52 85 106
52 85 106
54 85 106
53 85 106
57 90 111
60 92 114
72 105 127
73 105 127
88 120 142
92 125 148
96 129 152
114 147 169
105 138 161
128 161 183
129 163 185
152 186 208
162 196 220
158 192 215
171 206 229
174 209 232
174 209 232
174 209 232
174 209 232
174 209 232
174 209 232
174 209 232
174 209 232
174 209 232
174 209 232
174 209 232
174 209 232
173 209 232
173 209 232
173 209 232
173 209 232
173 209 232
173 209 232
173 209 232
173 209 232
173 209 232
173 208 232
173 208 232
173 208 232
173 208 232
173 208 232
173 208 232
173 208 232
173 208 232
173 208 232
173 208 232
173 208 232
173 208 232
173 208 232
173 208 232
173 208 232
173 208 232
173 208 232
173 208 232
173 208 232
173 208 232
173 208 232
173 208 232
173 208 232
173 208 232
172 208 232
172 208 232
172 208 232
172 208 232
172 208 232
172 208 232
172 208 232
172 208 232
172 208 232
172 208 232
172 208 232
172 208 232
172 208 232
172 208 232
172 208 232
172 208 232
172 208 232
172 208 232
172 208 232
172 208 232
172 208 232
172 208 232
172 208 232
172 208 232
172 208 232
172 208 232
172 208 232
172 208 232
172 208 232
172 208 232
172 208 232
172 208 232
172 208 232
172 208 232
172 208 232
172 208 232
172 208 232
172 208 232
172 208 232
172 208 232
172 208 232
171 207 231
171 207 231
171 207 231
171 207 231
171 207 231
171 207 231
171 207 231
172 208 232
172 208 232
172 208 232
172 208 232
172 208 232
172 208 232
172 208 232
172 208 232
172 208 232
172 208 232
172 208 232
172 208 232
172 208 232
172 208 232
172 208 232
172 208 232
172 208 232
172 208 232
172 208 232
172 208 232
172 208 232
172 208 232
172 208 232
172 208 232
172 208 232
172 208 232
172 208 232
172 208 232
172 208 232
172 208 232
173 208 232
173 208 232
173 208 232
173 208 232
173 208 232
173 208 232
173 208 232
173 208 232
173 208 232
173 208 232
173 208 232
173 208 232
173 208 232
173 208 232
173 208 232
173 208 232
173 208 232
173 208 232
173 208 232
173 208 232
173 208 232
173 208 232
173 208 232
173 208 232
173 208 232
173 208 232
173 208 232
173 209 232
173 209 232
173 209 232
173 209 232
173 209 232
173 209 232
173 209 232
174 209 232
174 209 232
174 209 232
174 209 232
174 209 232
174 209 232
174 209 232
174 209 232
174 209 232
174 209 232
174 209 232
174 209 232
174 209 232
174 209 232
174 209 232
173 208 231
159 194 217
147 181 204
143 178 201
130 163 186
120 154 177
108 142 164
108 142 164
101 133 155
87 120 142
75 107 128
76 109 130
64 96 118
58 91 112
54 85 106
53 85 106
51 84 106
53 85 106
52 84 106
50 83 105
52 85 106
53 85 106
52 84 106
53 85 106
52 85 106
53 85 106
55 86 107
53 85 106
54 86 107
52 84 106
53 85 106
51 84 106
52 84 106
53 85 106
53 85 106
54 85 106
53 85 106
53 85 106
53 85 106
53 85 106
51 84 106
52 85 106
53 85 106
52 84 106
53 85 106
54 85 106
53 85 106
53 84 106
55 86 107
53 85 106
52 84 106
53 85 106
51 84 106
53 85 106
52 84 106
53 85 106
54 85 106
51 79 99
48 68 81
46 66 80
46 66 80
45 64 77
51 71 85
45 65 79
43 63 76
46 66 79
48 68 81
45 65 78
47 68 82
49 69 82
47 68 81
40 59 72
43 63 77
51 73 88
47 67 80
44 65 78
48 68 81
44 64 77
45 65 79
51 72 85
45 65 78
48 69 82
48 69 82
43 64 77
45 65 78
46 66 79
50 71 86
46 67 81
43 62 76
48 69 84
46 66 79
43 63 77
45 64 77
43 63 76
48 69 82
43 63 76
46 66 80
45 66 80
49 69 83
50 70 84
46 65 78
48 69 82
48 69 83
48 69 83
49 70 83
49 70 84
45 65 78
42 62 76
41 60 73
46 66 80
45 65 79
48 70 84
46 67 81
44 64 77
48 69 83
43 62 75
48 69 83
47 67 81
48 67 80
46 68 82
45 65 79
47 67 80
47 67 81
48 70 85
42 62 76
46 67 81
49 69 82
47 68 82
44 64 77
44 65 79
44 65 78
46 67 81
44 64 78
44 65 79
42 62 76
45 65 79
48 68 81
46 66 79
46 66 79
47 67 80
43 63 76
46 67 80
45 66 80
45 65 79
43 63 76
47 67 81
47 68 81
45 66 80
48 69 82
52 73 88
46 67 81
49 70 85
40 59 72
44 65 79
49 70 85
42 62 75
44 64 77
48 69 83
46 65 79
44 63 76
47 68 81
44 64 78
42 62 75
44 64 77
43 63 75
50 71 85
41 60 73
49 71 85
42 62 76
45 65 78
43 63 76
44 64 77
45 64 77
49 71 85
46 67 82
44 63 77
46 66 78
47 69 83
47 68 81
46 66 79
42 62 75
45 65 79
50 69 82
45 64 77
54 85 105
52 85 106
51 84 106
53 85 106
55 86 107
52 84 106
53 85 106
53 85 106
53 85 106
54 85 106
53 85 106
52 84 106
52 85 106
54 85 106
53 85 106
53 85 106
53 85 106
52 84 106
52 84 106
51 84 106
54 85 106
54 85 106
54 85 106
54 85 106
53 85 106
55 86 107
52 84 106
55 86 107
52 84 106
55 86 107
54 85 106
52 84 106
52 85 106
51 84 106
54 86 107
55 86 106
56 86 107
51 84 106
55 86 107
54 86 107
53 85 106
55 86 107
54 85 106
54 86 107
54 87 108
67 99 120
79 111 132
78 111 133
94 128 150
98 130 152
119 152 174
113 147 169
122 156 178
122 156 178
138 172 194
152 186 209
164 198 221
169 204 227
174 209 232
174 209 232
174 209 232
174 209 232
174 209 232
174 209 232
174 209 232
174 209 232
174 209 232
174 209 232
174 209 232
174 209 232
174 209 232
174 209 232
174 209 232
173 209 232
173 209 232
173 209 232
173 209 232
173 209 232
173 209 232
173 209 232
173 209 232
173 208 232
173 208 232
173 208 232
173 208 232
173 208 232
173 208 232
173 208 232
173 208 232
173 208 232
173 208 232
173 208 232
173 208 232
173 208 232
173 208 232
173 208 232
173 208 232
173 208 232
173 208 232
173 208 232
173 208 232
173 208 232
173 208 232
173 208 232
173 208 232
173 208 232
172 208 232
172 208 232
172 208 232
172 208 232
172 208 232
172 208 232
172 208 232
172 208 232
172 208 232
172 208 232
172 208 232
172 208 232
172 208 232
172 208 232
172 208 232
172 208 232
172 208 232
172 208 232
172 208 232
172 208 232
172 208 232
172 208 232
172 208 232
172 208 232
172 208 232
172 208 232
172 208 232
172 208 232
172 208 232
172 208 232
172 208 232
172 208 232
172 208 232
172 208 232
172 208 232
172 208 232
172 208 232
172 208 232
172 208 232
172 208 232
172 208 232
172 208 232
172 208 232
172 208 232
172 208 232
172 208 232
173 208 232
173 208 232
173 208 232
173 208 232
173 208 232
173 208 232
173 208 232
173 208 232
173 208 232
173 208 232
173 208 232
173 208 232
173 208 232
173 208 232
173 208 232
173 208 232
173 208 232
173 208 232
173 208 232
173 208 232
173 208 232
173 208 232
173 208 232
173 208 232
173 208 232
173 208 232
173 209 232
173 209 232
173 209 232
173 209 232
173 209 232
173 209 232
173 209 232
173 209 232
173 209 232
174 209 232
174 209 232
174 209 232
174 209 232
174 209 232
174 209 232
174 209 232
174 209 232
174 209 232
174 209 232
174 209 232
174 209 232
174 209 232
174 209 232
174 209 232
173 208 231
168 203 226
156 190 213
142 176 199
141 175 197
133 168 190
125 158 181
104 138 160
99 132 153
90 123 145
76 108 129
73 106 128
66 99 121
60 92 114
52 84 106
57 87 107
53 85 106
53 85 106
53 85 106
51 84 106
54 86 107
54 85 106
51 84 105
54 85 106
54 85 106
53 85 106
52 85 106
51 84 106
54 86 107
53 85 106
52 85 106
53 85 106
53 85 106
53 85 106
54 85 106
52 84 106
53 85 106
54 85 106
53 85 106
52 84 106
52 85 106
51 84 106
53 85 106
53 85 106
53 85 106
53 85 106
53 85 106
51 84 106
53 85 106
51 84 105
53 85 106
54 86 107
53 85 106
52 84 106
53 85 106
53 85 106
55 86 107
52 84 106
52 84 106
53 85 106
54 86 107
53 85 106
52 84 106
54 85 106
53 85 106
53 85 106
51 84 106
52 85 106
54 85 106
53 84 106
53 85 106
54 85 106
44 63 77
42 60 72
42 62 75
43 62 76
49 70 84
45 65 78
45 65 79
44 64 78
49 70 85
45 66 80
45 65 79
44 63 76
44 63 76
47 66 79
47 68 82
45 65 78
44 64 78
45 65 78
47 66 79
48 67 80
45 65 79
43 63 76
44 63 76
48 69 82
46 66 80
44 65 78
47 68 81
46 67 80
48 69 82
49 70 83
47 68 82
44 63 76
47 67 80
47 68 82
45 65 78
42 63 76
44 65 79
44 64 78
46 67 80
46 67 81
46 67 82
48 68 81
44 64 77
48 68 82
44 64 78
48 68 82
45 66 80
45 66 80
48 69 82
44 64 78
42 62 75
47 67 80
47 68 82
41 61 73
48 68 81
46 66 80
50 71 85
48 68 81
47 66 79
47 68 82
44 64 77
43 63 76
45 64 77
45 66 80
44 64 78
45 66 80
45 67 81
49 70 84
45 65 78
48 69 82
44 64 77
45 66 80
42 62 76
47 68 81
49 70 83
39 58 71
49 70 85
46 66 79
46 66 79
41 60 73
50 72 86
44 63 76
44 64 78
46 66 80
44 64 77
50 72 86
49 70 84
47 68 82
46 65 78
42 61 75
48 68 81
46 67 80
46 67 81
46 67 80
42 62 74
42 62 76
47 67 80
42 62 75
44 63 76
48 68 82
44 63 76
47 68 83
44 63 76
45 65 79
46 66 80
44 64 78
44 65 79
40 60 73
48 67 80
47 67 81
46 66 79
43 63 76
47 68 81
48 67 79
47 67 81
42 61 73
42 63 76
48 69 82
44 65 78
46 66 80
46 66 79
45 64 77
43 61 73
47 68 82
52 73 87
46 67 81
54 86 107
53 85 106
53 85 106
52 84 106
54 85 106
53 85 106
54 86 107
51 84 106
52 84 106
52 85 106
53 85 106
50 83 104
51 84 106
54 85 106
51 83 105
51 84 105
54 85 106
52 85 106
52 84 105
54 86 107
53 85 106
52 85 106
52 85 106
54 85 106
52 84 106
53 85 106
53 85 106
53 85 106
52 84 105
52 84 106
53 85 106
54 85 106
53 85 106
51 84 106
54 85 106
54 86 107
52 85 106
54 86 107
53 85 106
51 84 106
52 85 106
54 85 106
53 85 106
51 84 106
53 85 106
54 86 107
54 86 107
53 85 106
52 84 106
53 85 106
51 83 105
52 84 106
52 84 106
52 84 106
55 86 107
54 86 107
52 85 106
52 84 106
58 90 111
71 103 124
68 101 123
96 129 150
88 120 142
101 134 156
109 142 164
117 150 173
123 157 179
142 176 198
153 187 210
160 194 217
168 203 226
174 209 232
174 209 232
174 209 232
174 209 232
174 209 232
174 209 232
174 209 232
174 209 232
174 209 232
174 209 232
174 209 232
174 209 232
174 209 232
174 209 232
174 209 232
174 209 232
173 209 232
173 209 232
173 209 232
173 209 232
173 209 232
173 209 232
173 209 232
173 208 232
173 209 232
173 208 232
173 208 232
173 208 232
173 208 232
173 208 232
173 208 232
173 208 232
173 208 232
173 208 232
173 208 232
173 208 232
173 208 232
173 208 232
173 208 232
173 208 232
173 208 232
173 208 232
173 208 232
173 208 232
173 208 232
173 208 232
173 208 232
173 208 232
173 208 232
173 208 232
173 208 232
172 208 232
172 208 232
172 208 232
172 208 232
172 208 232
172 208 232
172 208 232
172 208 232
172 208 232
172 208 232
172 208 232
172 208 232
172 208 232
172 208 232
172 208 232
173 208 232
173 208 232
173 208 232
173 208 232
173 208 232
173 208 232
173 208 232
173 208 232
173 208 232
173 208 232
173 208 232
173 208 232
173 208 232
173 208 232
173 208 232
173 208 232
173 208 232
173 208 232
173 208 232
173 208 232
173 208 232
173 208 232
173 208 232
173 208 232
173 208 232
173 208 232
173 208 232
173 208 232
173 209 232
173 209 232
173 209 232
173 209 232
173 209 232
173 209 232
173 209 232
174 209 232
174 209 232
174 209 232
174 209 232
174 209 232
174 209 232
174 209 232
174 209 232
174 209 232
174 209 232
174 209 232
174 209 232
174 209 232
174 209 232
174 209 232
174 209 232
174 209 232
174 209 232
172 206 230
156 190 213
150 183 206
146 180 202
137 171 193
123 157 179
103 136 158
102 135 157
96 128 150
87 120 142
73 106 128
58 90 111
57 90 111
53 85 106
54 86 107
53 85 106
55 86 107
54 86 107
52 84 106
54 85 106
54 86 107
52 85 106
54 85 106
53 85 106
53 85 106
52 84 105
52 84 106
53 85 106
52 85 106
52 84 106
53 85 106
50 83 105
53 85 106
52 84 106
53 85 106
53 85 106
53 84 106
53 85 106
52 85 106
55 86 107
53 85 106
54 85 106
53 85 106
52 84 106
52 84 106
52 84 106
53 85 106
53 85 106
53 85 106
53 85 106
54 86 107
53 85 106
52 84 106
52 84 106
54 85 106
53 85 106
53 85 106
55 86 107
53 85 106
54 85 106
54 86 107
53 85 106
52 85 106
52 84 105
51 84 106
53 85 106
52 84 106
53 85 106
52 84 106
53 85 106
52 84 106
53 85 106
54 85 106
53 85 106
55 86 107
52 85 106
53 85 106
54 85 106
51 84 105
53 85 106
54 85 106
54 86 107
53 85 106
51 84 106
49 72 88
41 61 74
40 58 70
42 62 76
49 70 84
46 66 79
41 61 74
48 67 79
45 65 78
46 66 80
44 62 75
43 62 75
43 63 75
45 66 81
44 63 76
43 63 76
43 62 75
50 70 84
46 67 81
45 66 80
47 67 81
43 62 74
45 65 79
43 62 74
52 73 86
50 71 85
44 64 78
46 66 79
44 64 77
48 68 81
47 67 81
45 66 79
47 67 80
41 61 74
47 66 79
46 66 79
44 63 76
46 67 81
47 67 80
45 66 80
46 66 79
42 61 74
45 65 79
46 67 81
46 68 82
47 67 80
48 69 83
43 63 76
45 65 79
47 68 81
48 68 82
44 64 77
43 64 78
45 65 78
45 65 77
50 72 87
49 70 84
47 68 81
48 68 81
46 66 80
49 71 85
43 63 76
48 68 82
44 64 78
45 65 79
44 64 78
45 66 79
44 63 77
43 63 75
51 72 87
47 68 82
48 68 81
42 62 76
48 68 82
45 65 78
47 68 82
47 67 80
42 62 75
45 64 77
45 65 78
44 64 78
48 68 81
44 64 77
46 66 80
44 65 78
46 66 79
49 69 83
47 66 80
46 66 79
43 63 75
46 65 78
44 63 76
42 62 75
48 69 84
49 68 81
49 71 85
42 62 76
46 67 80
49 69 82
49 69 82
43 62 75
46 66 79
43 62 75
46 65 77
45 64 77
46 66 79
41 61 75
45 65 79
47 67 80
46 66 79
46 67 81
48 68 82
46 66 80
45 65 79
46 66 79
45 65 79
45 65 78
46 66 80
48 68 81
50 70 83
46 66 80
44 63 76
45 65 78
47 66 79
45 64 77
48 72 89
54 85 106
53 85 106
55 86 107
52 84 106
55 86 107
53 85 106
52 84 106
53 85 106
54 86 107
54 86 107
55 86 107
52 85 106
53 85 106
53 85 106
51 84 106
53 85 106
52 84 105
54 86 107
53 85 106
53 85 106
53 85 106
52 84 106
55 86 107
53 85 106
52 84 106
52 84 106
52 84 106
53 85 106
53 85 106
53 85 106
55 86 107
51 84 106
51 84 106
54 86 107
53 85 106
55 86 106
54 85 106
53 85 106
53 85 106
52 85 106
53 85 106
52 84 106
56 86 107
51 84 106
54 86 107
54 85 106
54 85 106
53 85 106
53 85 106
52 84 106
53 85 106
54 86 107
52 84 105
53 85 106
50 83 105
52 85 106
53 85 106
51 84 106
54 85 106
53 85 106
53 85 106
52 84 106
55 86 107
53 85 106
54 86 107
52 84 106
53 85 106
53 85 106
53 85 106
54 86 107
53 85 106
57 89 110
64 96 117
72 105 126
87 120 142
86 118 140
106 139 162
111 144 167
121 155 177
127 160 182
133 167 189
153 187 211
158 193 216
169 204 227
174 209 232
174 209 232
174 209 232
174 209 232
174 209 232
174 209 232
174 209 232
174 209 232
174 209 232
174 209 232
174 209 232
174 209 232
174 209 232
174 209 232
174 209 232
174 209 232
174 209 232
174 209 232
173 209 232
173 209 232
173 209 232
173 209 232
173 209 232
173 209 232
173 209 232
173 209 232
173 208 232
173 208 232
173 208 232
173 208 232
173 208 232
173 208 232
173 208 232
173 208 232
173 208 232
173 208 232
173 208 232
173 208 232
173 208 232
173 208 232
173 208 232
173 208 232
173 208 232
173 208 232
173 208 232
173 208 232
173 208 232
173 208 232
173 208 232
173 208 232
173 208 232
173 208 232
173 208 232
173 208 232
173 208 232
173 208 232
173 208 232
173 208 232
173 208 232
173 208 232
173 208 232
173 208 232
173 208 232
173 208 232
173 208 232
173 208 232
173 209 232
173 209 232
173 209 232
173 209 232
173 209 232
173 209 232
173 209 232
173 209 232
174 209 232
174 209 232
174 209 232
174 209 232
174 209 232
174 209 232
174 209 232
174 209 232
174 209 232
174 209 232
174 209 232
174 209 232
174 209 232
174 209 232
174 209 232
174 209 232
174 209 232
174 209 232
174 209 232
173 208 231
165 200 223
150 184 207
149 183 206
129 163 186
132 166 188
114 148 170
102 135 157
95 128 149
87 120 142
79 113 135
68 100 121
55 87 109
53 85 106
50 83 105
53 85 106
53 85 106
53 85 106
54 85 106
52 84 106
52 85 106
51 84 106
53 85 106
54 86 107
55 86 107
53 85 106
53 85 106
53 85 106
55 86 107
53 85 106
53 85 106
51 84 106
52 85 106
51 83 105
55 86 107
53 85 106
53 85 106
52 84 106
54 85 106
51 84 106
53 85 106
53 85 106
52 84 106
54 85 106
53 85 106
53 85 106
52 84 106
55 86 107
53 85 106
55 86 107
52 84 106
53 85 106
51 84 106
52 84 106
55 86 107
51 84 106
54 85 106
51 83 105
53 85 106
53 85 106
54 86 107
51 84 105
51 84 105
52 84 106
53 85 106
54 86 107
53 85 106
53 85 106
54 86 107
54 85 106
53 85 106
53 85 106
52 84 106
54 85 106
52 85 106
53 85 106
53 85 106
51 84 106
54 86 107
52 84 106
53 85 106
52 84 105
53 85 106
53 85 106
53 85 106
53 85 106
52 84 106
53 85 106
54 85 106
52 84 106
54 85 106
51 84 105
53 85 106
53 85 106
52 84 106
52 84 105
52 84 106
54 79 96
43 62 75
48 67 80
45 65 79
44 65 79
45 65 78
43 63 76
41 61 74
45 66 80
44 65 79
45 64 77
48 69 82
42 61 73
45 65 78
43 62 75
39 57 69
48 68 82
45 64 77
47 67 80
49 70 83
43 62 74
47 67 81
42 62 75
45 66 80
45 64 77
41 60 72
44 64 77
47 68 82
43 64 78
44 63 75
41 62 75
45 65 78
45 66 79
49 69 83
46 66 79
44 64 77
44 64 78
45 65 78
42 61 74
48 69 82
45 65 78
46 66 80
43 62 75
45 65 78
47 68 83
45 66 80
45 66 79
45 65 78
45 66 81
43 62 75
47 67 80
45 65 78
46 66 80
50 71 85
47 68 82
46 65 78
43 64 78
47 67 81
45 65 78
43 63 77
48 69 83
48 67 80
44 62 75
48 67 80
45 65 78
47 67 81
48 69 83
47 66 79
42 62 74
44 64 77
48 69 82
42 62 76
47 68 81
46 67 81
47 68 81
47 68 82
44 63 75
47 68 82
42 61 74
42 63 76
42 62 75
44 64 77
43 63 77
43 63 76
45 67 81
45 66 80
45 65 79
43 63 77
46 66 80
46 66 79
47 68 81
46 66 80
44 63 76
47 68 82
43 62 74
47 68 82
47 68 81
44 63 75
46 66 80
44 63 76
45 66 80
46 66 80
44 65 78
47 67 80
42 62 75
43 63 76
50 69 82
44 65 79
41 60 72
43 62 75
45 64 76
42 62 75
44 63 75
44 64 78
47 68 82
41 60 72
44 65 79
44 63 77
44 65 79
41 61 74
45 64 77
47 67 80
45 65 79
44 64 77
44 62 74
51 78 96
54 85 106
53 85 106
53 85 106
53 85 106
52 84 105
52 84 106
53 85 106
53 85 106
52 84 106
54 85 106
55 86 107
51 84 106
56 86 107
51 84 106
51 84 106
53 84 106
50 83 105
51 84 106
51 84 106
53 85 106
51 84 106
53 85 106
52 84 105
54 85 106
53 84 106
51 84 106
53 85 106
51 84 106
53 85 106
53 85 106
52 84 106
54 86 107
55 86 107
53 85 106
53 85 106
53 85 106
54 86 107
52 84 106
53 85 106
52 84 106
53 85 106
53 85 106
53 85 106
52 84 106
53 85 106
54 85 106
54 85 106
51 84 106
52 85 106
53 85 106
53 85 106
52 84 106
51 84 106
55 86 107
53 85 106
53 85 106
53 85 106
54 85 106
52 84 106
52 84 106
53 85 106
52 85 106
54 85 106
51 84 106
51 84 106
53 85 106
53 85 106
50 83 105
54 85 106
53 85 106
54 85 106
52 84 106
52 85 106
55 86 107
54 86 107
53 85 106
54 85 106
53 85 106
52 84 106
51 84 106
54 85 106
54 85 106
52 84 106
53 85 106
57 89 110
71 104 126
82 115 136
85 118 140
98 131 154
107 140 162
102 136 159
132 166 188
136 170 193
152 186 208
157 192 215
163 198 221
174 209 232
174 209 232
174 209 232
174 209 232
174 209 232
174 209 232
174 209 232
174 209 232
174 209 232
174 209 232
174 209 232
174 209 232
174 209 232
174 209 232
174 209 232
174 209 232
174 209 232
174 209 232
174 209 232
174 209 232
174 209 232
173 209 232
173 209 232
173 209 232
173 209 232
173 209 232
173 209 232
173 209 232
173 209 232
173 208 232
173 208 232
173 208 232
173 208 232
173 208 232
173 208 232
173 208 232
173 208 232
173 208 232
173 208 232
173 208 232
173 208 232
173 209 232
173 209 232
173 209 232
173 209 232
173 209 232
173 209 232
173 209 232
173 209 232
174 209 232
174 209 232
174 209 232
174 209 232
174 209 232
174 209 232
174 209 232
174 209 232
174 209 232
174 209 232
174 209 232
174 209 232
174 209 232
174 209 232
174 209 232
174 209 232
174 209 232
174 209 232
174 209 232
174 209 232
171 205 228
169 204 227
150 184 207
146 181 203
136 170 192
129 163 185
112 146 169
99 133 155
95 129 151
83 116 138
66 98 120
70 102 123
57 90 111
53 85 106
54 85 106
54 86 107
53 85 106
52 84 106
52 84 106
52 84 106
51 84 106
51 84 106
54 85 106
51 84 106
52 84 106
53 85 106
52 85 106
53 85 106
53 85 106
52 84 106
52 84 106
52 85 106
51 84 106
55 86 107
51 84 106
52 84 106
54 86 107
53 85 106
51 84 106
52 85 106
53 85 106
53 85 106
53 85 106
51 84 106
53 85 106
52 85 106
52 84 106
53 85 106
55 86 107
56 87 107
54 86 107
53 85 106
54 85 106
53 85 106
52 84 106
52 84 106
53 85 106
53 85 106
54 85 106
51 84 105
53 84 106
53 85 106
51 84 106
53 85 106
53 85 106
53 85 106
53 85 106
51 84 106
54 85 106
53 85 106
51 84 105
52 84 105
53 85 106
53 85 106
51 84 106
53 85 106
54 85 106
53 85 106
53 84 105
53 85 106
53 85 106
53 85 106
54 85 106
53 85 106
53 85 106
53 85 106
55 86 107
53 85 106
52 84 106
54 85 106
52 84 106
51 84 106
54 85 106
53 85 106
52 84 106
52 84 105
51 83 105
50 83 105
53 85 106
52 85 106
54 85 106
51 84 105
54 86 107
53 84 106
53 85 106
54 85 105
53 84 105
52 84 106
55 86 107
51 81 100
46 66 79
46 66 79
42 61 74
48 69 83
44 64 77
45 64 77
43 62 74
47 67 80
43 62 76
50 70 83
42 61 74
44 64 76
48 68 82
43 63 76
41 61 74
46 66 78
45 66 79
48 68 82
46 66 79
47 67 80
46 65 78
42 61 74
46 66 80
45 64 77
45 65 78
46 67 80
43 62 75
45 65 78
43 62 75
41 59 71
43 63 76
47 66 80
44 64 77
44 63 77
45 65 79
45 65 79
42 62 76
44 63 75
45 65 79
50 71 85
47 68 82
44 64 78
44 63 75
45 66 79
47 68 82
47 67 80
43 63 77
43 63 76
40 59 71
45 65 78
47 67 80
46 66 79
47 67 81
43 63 76
48 67 79
44 64 77
38 56 68
46 66 80
47 67 80
46 67 81
43 63 77
47 67 81
43 61 74
45 65 78
46 66 79
42 63 76
45 66 79
46 66 80
48 69 83
42 61 74
49 69 83
46 65 78
48 68 81
44 65 78
46 66 79
45 64 77
44 63 76
47 67 80
45 65 79
46 68 82
44 64 77
46 67 80
50 70 84
45 64 77
43 63 76
44 63 76
42 61 74
46 66 79
44 63 76
46 66 79
46 66 80
46 66 79
44 63 76
43 62 75
48 69 83
43 62 74
45 65 78
47 68 82
42 61 73
45 65 79
44 63 76
49 71 85
44 64 77
42 61 74
46 67 80
46 65 79
46 66 80
42 61 74
45 66 80
44 64 76
45 65 79
48 69 82
45 64 76
47 67 80
43 61 74
47 67 80
46 66 79
41 62 75
42 62 75
43 63 76
49 69 82
42 62 75
45 65 79
47 67 80
54 83 102
53 85 106
53 85 106
51 84 106
53 85 106
51 84 106
52 84 106
50 83 104
52 84 106
50 83 105
51 84 106
54 85 106
52 84 105
55 86 107
53 85 106
51 84 106
52 84 106
54 86 107
52 85 106
52 84 106
53 85 106
52 84 106
54 86 107
53 85 106
53 85 106
51 84 105
53 85 106
53 85 106
54 85 106
53 85 106
54 86 107
54 86 107
52 84 106
53 85 106
53 85 106
51 84 106
52 84 106
52 84 106
54 85 106
53 85 106
52 84 106
52 84 106
52 85 106
54 85 106
53 85 106
53 85 106
51 84 105
53 85 106
52 84 106
54 85 106
55 86 107
53 85 106
53 85 106
53 84 105
53 85 106
54 85 106
54 86 107
52 84 106
54 85 106
54 85 106
54 85 106
53 85 106
53 85 106
55 86 107
53 85 106
52 85 106
53 85 106
53 85 106
53 85 106
51 84 105
52 85 106
53 85 106
53 85 106
54 85 106
53 85 106
54 85 106
52 84 106
53 85 106
52 84 106
52 84 106
53 85 106
53 85 106
52 85 106
53 85 106
54 85 106
53 85 106
53 85 106
51 84 106
52 84 106
53 85 106
53 85 106
51 84 106
52 84 106
54 85 106
54 85 106
54 85 106
52 84 106
54 85 106
65 96 117
72 105 126
77 110 132
87 120 143
106 140 162
110 143 166
123 157 179
126 160 183
141 175 197
157 192 215
165 199 222
173 208 231
174 209 232
174 209 232
174 209 232
174 209 232
174 209 232
174 209 232
174 209 232
174 209 232
174 209 232
174 209 232
174 209 232
174 209 232
174 209 232
174 209 232
174 209 232
174 209 232
174 209 232
174 209 232
174 209 232
174 209 232
173 209 232
173 209 232
173 209 232
173 209 232
173 209 232
173 209 232
173 209 232
173 209 232
174 209 232
174 209 232
174 209 232
174 209 232
174 209 232
174 209 232
174 209 232
174 209 232
174 209 232
174 209 232
174 209 232
174 209 232
174 209 232
174 209 232
174 209 232
174 209 232
174 209 232
168 203 226
158 192 215
140 174 197
137 171 193
119 153 175
119 152 174
98 131 153
92 125 147
82 115 136
73 106 128
65 97 119
56 88 110
52 85 106
54 86 107
53 85 106
53 85 106
54 85 106
54 86 107
53 85 106
51 84 106
52 85 106
53 85 106
53 85 106
51 84 106
53 85 106
53 85 106
53 85 106
54 85 106
54 85 106
53 85 106
51 84 106
53 85 106
52 85 106
54 85 106
52 84 106
54 85 106
52 84 106
55 86 107
53 85 106
52 85 106
53 85 106
54 85 106
55 86 107
53 85 106
53 85 106
52 85 106
52 84 106
51 84 106
53 85 106
54 86 107
54 86 107
53 85 106
53 85 106
52 84 106
55 86 107
53 85 106
52 85 106
53 85 106
52 84 105
52 85 106
53 85 106
53 85 106
54 85 106
54 86 107
51 84 106
51 84 105
53 85 106
52 85 106
53 85 106
53 85 106
53 85 106
54 85 106
53 85 106
52 85 106
53 85 106
53 84 106
53 85 106
51 84 106
51 84 106
53 85 106
52 84 106
51 84 106
53 85 106
54 85 106
52 84 106
53 85 106
56 86 107
52 84 105
53 85 106
53 85 106
52 84 106
54 85 105
52 84 105
53 85 106
52 84 106
52 84 106
50 83 105
53 84 106
54 85 106
54 85 106
54 85 106
53 85 106
52 84 106
52 84 105
51 84 106
54 85 106
52 83 103
54 86 107
52 84 105
53 85 106
53 85 106
52 84 105
55 86 107
53 85 106
53 85 106
52 85 106
53 85 106
53 85 106
53 85 106
53 85 106
51 84 105
45 67 82
42 61 74
41 59 70
46 66 79
48 69 82
41 59 71
42 62 76
43 63 76
46 66 79
42 61 74
47 67 80
45 64 77
45 66 80
39 58 71
47 67 81
47 67 80
46 66 79
42 63 76
46 66 79
43 61 74
43 63 77
49 70 83
43 63 77
45 66 80
44 64 77
37 56 69
51 71 85
43 63 76
48 69 83
46 65 78
40 59 71
44 64 78
43 63 76
49 69 82
53 74 88
45 63 76
50 70 84
47 67 81
44 64 78
41 60 73
41 61 73
45 65 79
44 64 78
39 58 71
44 63 76
45 64 77
45 65 78
45 63 75
40 59 73
43 63 76
42 61 74
43 63 75
46 67 81
47 67 80
47 67 80
49 70 84
48 68 81
42 63 77
46 67 81
44 64 78
44 65 78
43 63 76
47 68 82
45 65 78
46 66 78
45 64 78
43 62 75
43 63 77
43 62 75
43 64 77
44 64 77
43 63 76
44 63 76
46 66 79
45 66 80
47 66 79
51 72 85
46 65 78
41 60 73
45 66 79
42 63 77
41 60 73
49 69 82
46 67 81
43 63 77
48 68 81
51 72 86
50 70 83
44 63 76
46 66 79
45 64 77
48 67 80
43 61 73
45 66 80
39 58 70
43 62 76
51 71 85
42 61 74
44 64 77
46 67 80
43 63 77
42 62 74
45 64 76
46 67 80
47 66 79
45 65 79
52 72 86
48 69 82
45 64 76
44 63 76
40 60 73
45 65 79
43 61 74
49 70 83
46 66 79
46 66 80
43 62 75
40 60 73
42 62 75
46 65 78
43 62 74
42 62 75
43 61 73
45 68 83
53 85 106
54 85 106
53 85 106
53 85 106
53 85 106
52 85 106
53 84 105
52 84 105
53 84 105
53 84 105
51 84 106
52 84 105
51 84 106
53 85 106
53 84 106
54 85 106
54 85 106
54 85 106
52 84 106
52 84 106
52 84 106
52 84 106
52 84 106
53 85 106
53 85 106
54 85 106
52 84 106
53 85 106
53 85 106
52 84 106
53 85 106
52 84 106
51 84 105
54 85 106
54 85 106
55 86 106
53 85 106
52 84 105
53 85 106
53 85 106
54 86 107
52 84 106
54 85 106
52 85 106
54 85 106
53 85 106
51 84 106
52 85 106
52 85 106
53 85 106
53 85 106
53 85 106
53 85 106
53 85 106
53 85 106
52 84 106
51 84 106
52 84 106
53 84 106
54 85 106
52 84 106
51 84 106
53 85 106
55 86 107
54 86 107
55 86 107
54 85 106
55 86 107
53 85 106
53 85 106
51 84 106
52 84 106
53 85 106
53 85 106
51 84 106
52 84 106
53 85 106
53 85 106
54 86 107
54 85 106
53 85 106
54 85 106
53 85 106
54 86 107
51 84 106
54 86 107
52 84 106
52 85 106
53 85 106
50 83 105
53 85 106
54 86 107
53 85 106
54 86 107
55 86 107
53 85 106
51 84 106
53 85 106
52 85 106
54 86 107
51 84 106
53 85 106
53 85 106
53 85 106
53 85 106
53 85 106
54 86 107
53 85 106
52 85 106
55 87 109
62 95 116
66 98 120
83 116 138
99 132 154
102 135 157
118 151 173
125 159 182
140 174 197
149 183 206
160 194 217
163 197 220
174 209 232
174 209 232
174 209 232
174 209 232
174 209 232
174 209 232
174 209 232
174 209 232
174 209 232
174 209 232
174 209 232
174 209 232
174 209 232
174 209 232
174 209 232
174 209 232
174 209 232
174 209 232
174 209 232
174 209 232
174 209 232
174 209 232
170 204 227
164 198 221
148 182 205
138 172 195
128 162 184
123 157 179
100 133 155
96 129 151
77 110 131
80 112 134
64 95 117
54 86 108
54 85 106
52 85 106
55 86 107
52 84 106
54 86 107
51 84 106
54 85 106
53 85 106
55 86 107
53 85 106
53 85 106
52 85 106
52 84 106
51 84 106
53 85 106
52 84 106
52 84 106
54 86 107
54 86 107
55 86 107
52 84 106
54 85 106
53 85 106
54 86 107
53 85 106
54 86 107
54 85 106
51 84 106
53 85 106
52 84 106
53 85 106
53 85 106
53 85 106
52 85 106
53 85 106
55 86 107
53 85 106
52 84 105
51 84 106
52 84 106
53 85 106
53 85 106
53 85 106
54 86 107
53 85 106
53 85 106
54 85 106
53 85 106
52 85 106
52 85 106
52 85 106
56 87 107
52 84 106
52 84 106
54 85 106
53 85 106
54 85 106
53 85 106
53 85 106
52 85 106
57 87 107
52 84 105
55 86 106
53 85 106
51 84 106
53 85 106
52 84 106
53 85 106
51 84 106
54 85 106
53 85 106
52 84 105
52 84 106
55 86 107
53 85 106
50 83 105
50 83 105
51 84 106
51 84 105
51 84 106
54 85 106
51 84 105
52 84 106
54 85 105
51 84 106
53 85 106
52 84 106
52 84 106
50 83 105
51 83 105
52 84 105
54 85 106
51 84 105
54 85 106
52 84 105
53 85 106
51 84 106
52 84 105
51 84 106
53 85 106
51 84 106
53 85 106
52 85 106
52 84 106
52 85 106
52 84 106
52 85 106
53 85 106
53 85 106
52 84 105
52 84 106
52 84 105
52 84 105
52 84 106
54 85 106
51 84 106
53 85 106
53 85 106
56 86 107
53 85 105
54 86 107
47 72 90
42 61 74
46 65 78
45 65 79
41 60 72
40 60 72
43 63 76
38 57 69
41 61 74
47 67 80
49 69 83
40 58 71
45 64 76
42 62 75
47 66 78
43 63 76
43 62 75
44 64 76
44 64 77
40 60 74
47 67 79
45 65 78
48 69 83
44 63 76
41 59 71
46 66 79
43 63 76
42 62 75
45 65 79
45 64 76
45 65 78
49 69 83
42 61 74
46 66 79
44 63 76
46 67 80
44 63 76
46 66 79
46 66 79
43 63 76
45 64 77
45 65 79
47 67 79
46 66 80
44 63 76
42 62 76
49 71 85
45 65 78
44 64 78
44 64 77
46 66 78
40 59 71
40 58 71
47 66 79
49 69 83
40 60 73
45 64 78
48 69 83
44 64 77
44 64 77
44 64 78
41 60 73
47 67 81
49 69 82
46 66 79
46 65 79
40 59 72
50 70 84
43 63 76
43 62 75
48 68 81
43 62 74
45 63 76
45 66 79
44 63 77
46 66 79
42 62 75
40 59 72
46 67 81
44 64 77
47 67 81
47 67 81
41 60 72
46 66 80
45 64 77
43 62 75
46 66 80
42 62 76
47 67 81
46 66 78
48 68 81
47 68 81
44 63 77
48 69 82
40 59 72
44 64 77
45 65 78
44 64 77
42 62 75
41 61 74
48 68 81
46 66 79
46 67 81
47 68 81
46 66 79
44 64 77
43 63 76
42 61 74
45 66 79
45 65 79
45 65 78
45 64 78
46 66 79
49 69 83
44 63 76
42 62 75
42 61 74
38 57 69
44 64 78
38 56 69
42 62 75
39 57 69
46 67 80
47 73 90
53 85 106
54 85 106
52 84 105
52 84 105
51 83 105
53 85 106
50 83 105
53 85 106
52 84 106
52 84 105
54 85 106
52 84 106
53 84 105
54 85 106
51 83 104
53 85 106
52 84 105
55 86 106
53 84 106
54 86 107
52 84 106
53 85 106
55 86 107
54 86 107
52 85 106
52 85 106
54 85 106
52 84 106
52 84 106
54 85 106
53 85 106
51 84 106
55 86 107
53 85 106
52 84 105
51 83 104
54 85 106
53 85 106
52 84 105
51 84 105
52 85 106
55 86 107
52 85 106
53 85 106
52 85 106
54 85 105
53 85 106
53 85 106
51 84 106
56 86 107
51 84 106
50 83 105
52 84 106
51 84 105
53 85 106
52 85 106
53 85 106
53 85 106
54 85 106
54 85 106
54 85 106
51 83 105
51 83 105
53 85 106
50 83 105
53 85 106
53 85 106
53 85 106
53 85 106
55 86 107
52 85 106
51 84 106
52 84 106
54 85 106
53 85 106
54 85 106
51 84 106
53 85 106
55 86 107
52 85 106
53 85 106
54 85 106
51 84 106
53 85 106
53 85 106
52 85 106
53 85 106
53 85 106
55 86 107
55 86 107
54 85 106
56 87 107
52 84 106
52 84 106
53 85 106
52 85 106
52 84 106
52 84 106
55 86 106
54 86 107
53 85 106
51 84 106
52 85 106
53 85 106
52 84 106
53 85 106
52 84 106
52 85 106
54 85 106
53 85 106
53 85 106
53 85 106
53 85 106
52 84 106
52 84 106
53 85 106
53 85 106
53 85 106
55 86 107
53 85 106
53 85 106
59 90 111
69 102 124
68 100 121
96 129 150
101 134 157
108 141 163
124 158 180
136 170 192
144 178 201
154 188 211
157 191 214
170 204 227
174 209 232
174 209 232
174 209 232
174 209 232
174 209 232
105 139 161
88 121 143
84 117 138
73 106 128
66 99 121
54 85 106
53 85 106
51 84 106
54 86 107
53 85 106
52 85 106
54 85 106
54 85 106
51 84 106
52 84 106
53 85 106
52 85 106
52 85 106
56 87 107
54 85 106
52 84 106
54 85 106
53 85 106
52 84 106
50 83 105
55 86 107
51 84 106
52 85 106
53 85 106
53 85 106
53 85 106
55 86 107
52 84 106
53 85 106
53 85 106
53 85 106
53 85 106
53 85 106
53 85 106
53 85 106
51 84 106
53 85 106
54 85 106
53 85 106
51 84 106
53 85 106
52 85 106
52 85 106
53 85 106
51 84 106
51 84 106
53 85 106
53 85 106
53 85 106
54 85 106
54 85 106
52 84 105
52 85 106
53 85 106
53 85 106
52 84 106
52 85 106
51 84 106
53 85 106
52 84 106
53 85 106
52 84 106
53 85 106
52 84 106
54 85 106
56 86 107
56 87 107
52 85 106
54 85 106
52 85 106
52 84 106
54 85 106
51 84 106
53 84 106
52 84 106
53 85 106
51 84 106
52 84 106
52 84 106
52 84 106
54 85 106
53 85 106
54 85 106
52 84 105
53 85 106
54 85 105
52 85 106
55 86 107
54 85 106
55 86 107
53 85 106
52 84 106
53 85 106
52 85 106
54 85 106
51 84 105
54 85 106
53 85 106
53 85 106
52 85 106
53 85 106
51 84 106
51 84 106
53 85 106
51 84 105
53 85 106
51 84 105
52 84 105
51 84 106
53 85 106
52 84 105
51 84 105
53 84 105
53 85 106
53 85 106
53 85 106
54 85 106
53 84 105
52 84 105
53 85 106
52 84 106
52 84 105
54 86 107
52 84 105
52 84 106
53 85 106
53 85 106
52 84 105
53 85 106
53 85 106
52 84 105
52 83 104
53 85 106
50 80 101
41 59 72
40 60 73
43 63 76
48 67 79
41 60 72
42 61 74
45 64 77
43 63 75
45 65 78
44 64 78
43 62 75
44 63 77
45 64 77
47 68 81
41 60 73
42 62 75
47 67 80
43 62 74
44 64 77
44 63 75
46 67 80
40 59 72
44 64 77
43 62 75
45 64 76
44 64 78
45 65 78
42 63 77
46 65 78
44 64 76
46 66 79
46 66 79
47 68 81
45 65 78
44 64 77
44 63 76
48 68 82
43 63 77
39 58 70
46 66 79
39 59 72
39 58 70
44 65 78
46 65 78
46 67 81
45 65 78
48 69 83
46 67 80
45 64 76
47 67 81
44 64 77
41 60 72
45 65 78
41 60 73
41 61 74
43 62 75
51 71 84
45 65 77
45 65 79
44 64 77
43 63 75
49 69 82
43 63 75
45 65 79
45 66 79
45 64 78
46 66 79
47 67 80
43 64 77
44 63 77
46 66 79
46 66 78
44 64 78
45 65 78
45 66 79
45 65 78
47 67 81
44 65 78
45 65 78
44 63 76
46 66 80
44 63 76
46 65 77
49 68 81
45 65 79
45 65 78
45 64 77
45 65 79
45 66 79
44 63 75
40 59 73
46 65 78
50 70 83
43 63 76
44 63 76
45 64 77
48 68 81
44 63 76
42 61 74
43 63 76
45 66 80
45 65 79
44 64 77
44 64 77
43 63 75
50 69 82
43 64 77
40 59 72
38 55 66
45 64 76
46 66 80
44 63 75
46 66 79
41 60 72
36 55 68
45 63 76
41 59 71
40 59 71
39 58 70
46 66 79
47 67 80
41 60 72
51 81 101
54 84 105
52 84 105
53 85 106
54 86 107
52 84 106
53 84 105
53 84 105
53 85 106
52 83 104
54 85 106
52 84 105
52 84 106
49 82 104
52 84 105
53 85 106
51 83 105
50 83 104
54 85 106
52 85 106
55 86 107
54 86 107
53 85 106
53 85 106
53 85 106
52 84 106
52 84 106
53 85 106
54 85 106
52 84 105
51 84 106
53 85 106
54 85 106
53 85 106
52 85 106
54 86 107
51 84 106
53 85 106
53 85 106
55 86 107
53 85 106
51 83 105
52 84 106
51 83 105
51 84 105
52 84 105
51 83 105
54 85 106
55 86 107
52 84 106
53 84 105
53 85 106
52 84 105
54 85 106
51 84 106
54 86 107
53 85 106
53 85 106
53 85 106
53 85 106
52 85 106
51 84 105
53 85 106
52 84 106
52 84 106
53 85 106
52 84 106
53 85 106
52 84 106
55 86 107
53 85 106
52 84 106
52 84 105
53 85 106
52 85 106
52 84 106
51 84 106
53 85 106
52 84 106
53 85 106
53 84 106
53 85 106
54 85 106
53 85 106
51 84 106
51 84 106
55 86 107
55 86 107
54 86 107
52 84 106
52 84 105
52 84 105
52 84 106
54 85 106
53 85 106
52 85 106
52 84 106
53 85 106
52 84 106
55 86 107
54 86 107
51 84 105
52 84 106
53 85 106
53 85 106
54 86 107
53 85 106
53 85 106
53 85 106
53 85 106
53 85 106
51 84 106
52 84 106
51 84 106
53 85 106
53 85 106
54 85 106
53 85 106
54 85 106
53 85 106
52 84 106
53 85 106
52 84 106
52 84 106
54 85 106
52 85 106
52 85 106
51 84 106
54 85 106
52 84 106
53 85 106
53 85 106
56 87 107
53 85 106
66 99 121
68 101 122
79 111 133
86 119 141
115 149 171
53 85 106
54 85 106
53 85 106
53 85 106
53 85 106
53 85 106
52 84 106
52 84 106
53 85 106
53 85 106
51 84 106
52 84 106
53 85 106
54 86 107
53 85 106
56 86 107
52 84 106
52 85 106
52 84 106
53 85 106
52 85 106
55 85 106
53 85 106
52 84 106
51 84 106
52 84 106
52 85 106
52 84 106
51 84 106
54 86 107
52 84 106
53 85 106
52 84 106
51 84 106
54 86 107
54 85 106
52 84 106
53 85 106
52 84 105
52 85 106
53 85 106
53 85 106
53 85 106
52 85 106
52 84 106
52 84 106
53 85 106
54 85 106
53 85 106
52 85 106
52 84 106
52 84 106
54 86 107
52 84 106
52 84 106
53 85 106
54 85 106
53 85 106
55 86 107
53 85 106
50 83 105
53 85 106
52 84 106
52 84 105
53 84 106
51 84 106
51 83 105
52 84 105
55 86 107
52 84 105
53 85 106
53 85 106
51 84 105
52 84 106
52 84 106
54 85 106
53 85 106
55 86 107
53 85 106
51 84 105
53 85 106
55 86 107
54 86 107
53 85 106
54 85 106
54 85 106
54 85 106
53 85 106
54 86 107
51 84 106
54 85 106
52 84 106
51 84 106
52 84 106
54 85 106
53 85 106
53 85 106
54 86 107
51 84 106
51 84 106
50 83 105
54 85 106
52 85 106
53 85 106
54 85 106
52 83 104
51 84 106
53 85 106
52 85 106
53 84 105
53 85 106
54 85 106
51 84 106
53 85 106
51 83 105
53 85 106
53 85 106
53 84 106
53 85 106
52 84 105
50 83 105
53 85 106
52 84 106
54 85 106
54 85 106
49 82 104
53 85 106
54 85 106
55 86 107
54 85 106
54 85 106
52 84 105
53 84 106
51 84 105
52 85 106
51 84 106
53 84 105
53 85 106
53 85 106
46 69 84
42 60 73
43 62 74
45 64 77
44 63 76
46 64 77
43 62 74
45 64 77
44 62 75
42 60 72
47 67 80
45 65 78
45 65 78
42 62 74
41 62 76
41 61 74
45 63 75
46 66 80
43 63 76
39 57 69
44 63 75
47 67 80
44 63 76
43 62 74
41 60 72
45 66 79
46 66 80
47 67 80
47 66 79
42 62 75
47 67 81
46 66 79
44 64 77
45 64 77
45 65 78
42 60 72
46 67 81
41 60 73
47 67 80
48 67 80
45 66 80
44 64 78
45 65 78
44 63 75
41 61 75
41 59 71
50 71 84
49 70 84
46 66 79
46 65 78
45 66 79
44 63 76
43 62 75
48 68 81
44 63 76
42 61 74
43 62 75
48 68 81
51 71 85
46 65 78
48 68 82
44 64 77
41 59 71
44 65 78
49 69 83
44 64 78
50 71 85
41 61 74
46 65 77
44 64 77
41 60 73
43 62 75
43 62 75
47 68 81
43 63 76
43 62 75
43 62 75
41 59 72
41 60 73
43 63 76
46 65 78
43 62 74
46 65 77
43 62 74
46 67 81
44 63 76
40 58 71
48 68 81
47 67 80
43 62 74
42 61 74
45 63 75
43 63 76
44 63 76
43 62 74
45 65 79
41 61 75
46 66 79
45 65 78
45 64 76
43 62 75
41 60 73
42 61 74
44 63 76
43 62 75
47 66 79
41 61 74
41 60 72
43 62 74
45 65 78
40 60 73
44 63 76
41 60 72
44 63 76
39 58 70
44 63 75
43 63 77
41 60 72
42 62 75
43 62 74
43 62 75
46 69 85
53 84 105
50 83 105
52 83 104
53 85 106
54 85 106
53 84 106
52 84 105
53 85 106
53 84 105
53 85 106
52 84 106
54 85 106
52 84 105
53 85 106
53 85 106
52 84 105
53 85 106
53 85 106
54 86 107
54 85 106
54 85 106
53 85 106
50 83 105
52 84 105
50 83 105
54 85 106
51 83 104
53 85 106
54 85 106
51 83 105
53 85 106
54 85 106
52 84 106
53 85 106
52 84 106
52 84 106
54 85 106
52 84 106
52 84 105
52 85 106
51 84 105
53 85 106
52 85 106
56 86 107
53 85 106
53 85 106
50 83 105
54 86 107
53 85 106
54 85 106
55 86 107
52 84 105
52 84 106
51 84 106
53 85 106
53 84 106
54 85 106
51 84 106
53 85 106
53 85 106
53 85 106
52 84 106
51 84 106
53 85 106
53 85 106
54 86 107
52 84 106
53 85 106
52 84 106
53 85 106
53 85 106
51 84 106
51 84 106
52 84 106
53 85 106
53 85 106
53 85 106
53 85 106
54 86 107
53 85 106
54 86 107
52 84 105
54 85 106
51 84 106
52 84 106
54 86 107
52 84 106
51 84 106
51 84 106
52 84 106
52 85 106
52 84 106
53 85 106
53 85 106
53 85 106
54 86 107
52 84 106
53 85 106
52 84 106
53 85 106
54 85 106
54 85 106
52 85 106
53 85 106
53 85 106
53 85 106
53 85 106
52 84 106
52 84 106
54 85 106
52 84 106
54 86 107
54 85 106
54 85 106
53 85 106
53 85 106
54 85 106
53 85 106
53 85 106
54 86 107
54 85 106
51 83 105
54 85 106
51 84 106
53 85 106
55 86 107
54 86 107
51 84 105
53 85 106
52 84 106
52 85 106
53 85 106
54 85 106
53 85 106
54 86 107
53 85 106
52 85 106
53 85 106
53 85 106
53 85 106
53 85 106
53 85 106
52 85 106
53 85 106
53 85 106
53 85 106
50 83 105
51 84 106
53 85 106
53 85 106
50 83 105
54 85 106
52 85 106
53 84 106
54 86 107
54 86 107
54 85 106
53 85 106
53 85 106
55 86 107
52 85 106
53 85 106
52 84 106
51 84 106
51 84 106
54 86 107
54 85 106
53 85 106
53 85 106
50 83 105
52 84 106
53 85 106
54 85 106
54 85 106
54 86 107
56 87 107
52 85 106
54 86 107
52 84 105
53 85 106
51 84 106
52 84 106
52 84 106
52 84 106
54 85 106
51 84 106
53 85 106
52 84 105
53 85 106
53 85 106
55 86 107
54 85 106
51 84 106
53 85 106
52 84 106
52 85 106
53 85 106
52 84 106
52 84 106
55 86 107
50 83 105
52 84 106
51 84 106
54 85 106
52 84 106
52 85 106
53 85 106
52 84 105
53 85 106
52 84 105
52 84 106
55 86 106
53 85 106
51 84 106
54 85 106
53 85 106
54 86 107
53 85 106
53 85 106
53 85 106
51 83 105
53 85 106
49 82 105
52 84 106
54 86 107
52 84 106
51 84 106
52 84 106
54 86 107
53 85 106
54 86 107
51 84 105
52 84 106
53 85 106
51 82 103
56 86 107
53 85 106
51 84 106
52 84 106
54 86 107
53 85 106
53 85 106
54 86 107
51 84 106
54 85 106
52 84 105
52 84 105
51 83 104
54 85 106
51 84 106
52 84 106
53 85 106
52 84 106
53 85 106
53 84 105
52 84 105
55 86 107
53 85 106
52 83 104
53 84 105
53 85 106
52 83 104
53 85 106
52 85 106
54 85 106
51 84 106
51 83 104
53 84 105
53 84 105
52 84 105
53 85 106
52 83 104
51 83 105
51 83 104
52 84 105
52 84 106
50 82 103
52 84 105
49 77 95
42 60 72
43 62 75
45 65 77
44 63 75
46 64 77
41 60 73
45 64 77
43 62 74
45 64 77
46 66 79
42 61 73
44 63 76
42 59 70
43 61 74
40 59 72
40 60 72
42 61 73
43 63 75
40 58 70
43 62 75
44 63 75
46 66 79
45 65 79
44 63 76
41 60 73
43 62 75
43 61 74
43 62 75
43 62 75
45 65 78
44 63 76
45 65 78
46 66 79
41 60 73
44 63 76
44 64 77
44 63 76
47 67 80
43 62 75
42 61 74
41 60 73
47 67 80
43 62 74
41 60 72
48 68 82
46 65 78
43 64 77
46 65 79
44 65 78
45 65 77
44 64 77
44 63 76
47 68 82
45 65 78
44 63 76
45 64 77
47 68 81
43 63 76
45 65 78
47 66 79
48 67 80
45 65 78
45 64 77
48 68 81
45 66 81
45 65 77
45 65 78
46 65 78
44 63 76
49 69 83
52 73 87
40 57 69
41 60 73
43 61 74
45 64 77
46 65 77
46 66 79
44 62 74
48 68 82
44 63 76
45 66 79
43 62 76
42 62 75
48 68 81
49 68 80
42 61 74
41 60 73
43 62 75
45 64 77
46 65 77
45 64 77
46 67 81
46 66 80
44 63 76
45 65 77
43 62 75
45 65 78
44 63 76
44 64 78
43 63 76
50 69 81
45 65 78
43 62 75
41 60 72
49 70 84
38 57 70
47 66 79
45 65 78
42 61 73
45 64 77
42 62 75
40 59 72
47 68 81
46 66 80
44 63 76
38 55 66
43 62 75
43 63 77
47 67 80
38 56 68
50 78 97
53 85 106
50 83 104
50 82 103
50 83 105
54 85 106
52 84 105
50 83 104
52 83 105
54 86 107
49 82 104
51 84 105
53 85 106
51 83 104
53 84 106
52 84 105
52 84 105
51 84 106
52 84 105
53 85 106
53 84 106
55 86 107
52 84 105
53 85 106
51 83 105
54 85 106
52 85 106
51 84 105
52 84 106
52 84 106
52 84 105
51 83 104
53 85 106
54 85 106
54 85 106
52 84 106
52 84 105
53 85 106
55 86 107
52 84 106
53 85 106
53 85 106
52 84 106
54 86 107
52 84 106
53 85 106
54 86 107
52 84 106
53 85 106
50 83 105
52 85 106
53 85 106
52 85 106
52 84 105
50 83 105
54 85 106
55 86 107
54 85 106
54 85 106
53 85 106
52 85 106
52 84 106
54 85 106
53 85 106
52 84 106
53 85 106
51 84 105
53 85 106
51 84 106
53 85 106
53 85 106
53 85 106
53 85 106
54 86 107
54 85 106
54 86 107
51 84 106
52 85 106
54 86 107
54 86 107
51 84 106
53 85 106
53 85 106
53 85 106
51 83 105
54 86 107
52 84 106
54 85 106
54 85 106
54 85 106
53 85 106
54 86 107
53 85 106
53 85 106
54 85 106
52 85 106
54 86 107
52 84 106
52 84 106
53 85 106
53 85 106
53 85 106
51 84 106
55 86 107
53 85 106
51 84 106
54 86 107
51 84 105
53 85 106
53 85 106
52 85 106
52 85 106
54 86 107
51 84 106
53 85 106
53 85 106
52 84 106
52 84 106
52 85 106
52 84 106
53 85 106
53 85 106
52 84 106
53 85 106
53 85 106
53 85 106
55 86 107
52 84 106
54 85 106
52 85 106
51 84 106
52 84 106
55 86 107
54 85 106
54 86 107
52 84 106
54 85 106
54 85 106
52 85 106
53 85 106
53 85 106
53 85 106
53 85 106
54 85 106
51 84 106
53 85 106
54 86 107
53 85 106
52 85 106
55 86 107
53 85 106
53 85 106
55 86 107
53 85 106
53 85 106
54 85 106
52 84 106
53 85 106
51 84 106
52 84 106
54 85 106
52 84 106
53 84 105
52 84 106
52 84 106
53 85 106
53 85 106
51 84 106
52 84 106
50 83 105
54 85 106
52 84 106
56 87 107
52 84 106
53 85 106
53 85 106
51 84 106
52 84 106
52 84 106
53 85 106
52 84 106
53 85 106
54 86 107
53 85 106
53 85 106
52 84 106
51 84 106
53 85 106
53 85 106
52 84 106
53 85 106
54 85 106
55 86 107
53 85 106
52 84 106
53 85 106
53 85 106
53 84 105
54 85 106
53 85 106
52 85 106
56 87 107
53 85 106
52 85 106
52 84 106
51 84 106
54 86 107
53 85 106
51 84 106
52 84 106
52 84 106
54 86 107
52 84 106
53 85 106
54 85 106
53 84 106
52 84 105
52 85 106
53 85 106
51 83 104
52 84 106
52 84 105
54 85 106
52 84 106
53 84 105
54 85 106
54 85 106
51 84 105
53 85 106
53 85 106
53 85 106
53 85 106
52 84 105
51 83 105
52 84 106
51 84 106
53 85 106
52 85 106
53 85 106
55 86 106
53 84 105
52 84 106
52 84 105
52 84 105
51 84 106
53 85 106
53 85 106
50 83 105
53 85 106
54 85 106
52 84 106
53 85 106
53 84 105
52 85 106
53 85 106
54 85 106
52 85 106
52 84 105
52 84 106
53 85 106
53 85 106
53 84 105
52 84 105
52 84 105
52 83 104
54 85 106
53 85 105
52 84 105
54 85 106
52 84 105
53 85 106
54 85 106
51 82 103
54 85 106
53 85 106
54 85 106
50 83 105
52 84 106
51 82 102
52 83 103
47 67 80
45 64 76
39 58 70
42 61 73
40 60 73
39 57 69
45 64 78
44 64 77
41 60 72
49 69 83
42 63 77
43 63 76
41 59 70
42 61 74
43 61 72
43 62 74
39 58 70
47 66 79
41 59 71
44 64 77
40 59 72
44 63 76
38 56 68
40 60 72
41 60 72
44 63 75
47 67 81
43 63 76
45 65 78
43 62 75
44 63 76
48 67 80
44 63 76
41 60 72
44 63 75
43 61 73
44 63 75
45 64 77
42 62 75
41 59 71
44 64 77
48 68 82
42 61 73
48 69 83
46 66 79
44 63 75
41 60 73
42 62 75
43 62 74
40 59 72
46 66 79
42 61 74
41 60 72
44 64 77
46 67 80
44 64 77
39 58 71
39 58 71
42 61 74
41 60 72
43 63 76
46 67 80
42 61 74
45 63 75
48 67 80
45 64 76
41 60 72
44 64 77
42 61 73
44 64 77
42 61 74
45 65 78
47 67 80
46 66 79
45 65 78
47 67 79
44 62 75
44 63 76
48 68 81
41 60 72
41 61 74
48 68 81
45 65 79
48 68 82
48 68 81
43 63 77
40 59 72
50 70 83
41 61 74
45 66 81
43 62 74
43 63 76
46 65 78
44 64 77
45 66 79
44 63 75
42 61 74
40 59 72
41 60 73
47 67 80
49 69 82
43 62 75
41 60 72
41 59 72
50 70 83
44 63 75
47 66 79
40 57 69
40 59 71
42 61 74
46 66 79
45 63 76
39 57 69
40 58 71
45 64 77
42 61 74
43 62 74
39 58 70
44 64 77
37 56 68
54 85 106
52 84 106
51 83 105
52 84 106
50 82 104
51 83 104
51 83 105
52 84 105
52 84 105
52 84 106
53 85 106
52 84 105
53 84 105
51 84 105
52 85 106
51 83 104
52 84 106
52 85 106
52 84 106
50 82 104
51 83 104
53 85 106
53 84 106
53 85 106
52 84 105
52 84 105
52 84 105
52 85 106
54 86 107
52 84 105
51 84 105
52 84 106
51 83 105
54 86 107
55 86 107
53 84 105
54 85 106
52 84 105
53 85 106
51 83 105
51 84 106
52 84 106
52 84 106
54 85 106
52 85 106
54 85 106
52 84 105
54 85 106
52 85 106
55 86 106
52 85 106
55 86 107
53 84 106
52 84 106
52 84 106
54 85 106
53 85 106
51 84 106
52 84 106
52 84 105
53 85 106
53 85 106
54 85 106
52 85 106
52 84 106
53 85 106
52 84 105
54 85 106
52 84 106
53 85 106
55 86 107
54 86 107
54 85 106
52 84 106
51 83 105
53 85 106
53 85 106
51 84 106
53 85 106
52 85 106
52 85 106
53 84 106
53 85 106
53 85 106
54 85 106
53 85 106
55 86 107
52 84 106
53 85 106
53 85 106
52 84 105
54 85 106
53 85 106
52 84 105
52 84 106
54 85 106
55 86 107
52 85 106
54 86 107
53 85 106
54 86 107
54 86 107
54 85 106
54 86 107
52 84 105
54 86 107
55 86 107
52 84 106
56 86 107
53 85 106
55 86 107
53 85 106
53 85 106
53 85 106
53 85 106
52 84 106
55 86 107
51 84 106
52 85 106
52 84 106
52 84 106
53 85 106
52 85 106
53 85 106
53 85 106
53 85 106
55 86 107
52 85 106
52 84 106
53 85 106
53 85 106
51 84 106
53 85 106
53 85 106
53 85 106
52 84 105
53 85 106
52 84 105
52 84 106
52 85 106
53 85 106
53 85 106
53 85 106
52 84 106
53 85 106
55 86 107
54 85 106
51 84 106
53 85 106
53 85 106
53 85 106
53 85 106
53 85 106
54 85 106
53 85 106
52 84 106
52 84 106
53 85 106
53 85 106
52 84 106
54 86 107
53 85 106
54 85 106
53 85 106
53 85 106
51 84 106
53 84 105
53 85 106
53 85 106
53 85 106
53 85 106
55 86 107
54 85 106
50 83 105
51 83 105
53 85 106
51 84 106
53 85 106
55 86 107
52 84 106
53 85 106
52 84 105
52 84 106
52 84 106
53 85 106
53 85 106
52 84 105
52 84 106
54 86 107
52 84 106
53 84 105
53 85 106
55 86 107
52 85 106
52 84 105
52 84 106
53 84 106
52 84 106
50 83 105
54 86 107
52 84 106
51 84 105
51 84 106
53 85 106
51 84 106
52 84 105
54 85 106
52 84 106
52 84 106
53 85 106
53 85 106
52 84 106
52 84 106
52 85 106
52 84 106
54 85 106
53 85 106
54 85 106
53 85 106
54 85 106
52 84 106
54 85 106
53 85 106
50 83 105
53 84 106
53 85 106
52 83 104
51 84 105
52 85 106
53 85 106
51 83 105
53 84 105
54 86 107
50 83 104
51 83 105
53 85 106
52 84 106
51 83 105
53 84 105
52 83 104
53 85 106
53 85 106
51 84 106
52 84 105
53 85 106
51 83 105
51 83 104
53 84 106
52 84 105
53 85 106
54 85 106
52 85 106
53 85 106
53 85 105
53 85 106
54 85 106
54 85 106
53 85 106
52 84 106
50 82 103
52 84 105
53 84 106
50 82 103
52 84 105
51 83 105
52 84 105
53 85 106
52 84 106
51 84 106
53 84 105
52 85 106
52 84 105
51 83 104
50 83 105
52 84 106
51 83 104
52 85 106
52 84 105
53 85 106
52 82 103
49 75 92
41 59 72
39 57 69
38 57 70
42 62 75
43 62 74
43 62 74
43 62 75
44 63 76
45 65 78
40 58 70
48 66 79
46 66 79
46 66 79
41 60 72
46 65 78
45 64 77
41 60 72
41 60 72
46 65 78
41 59 71
38 56 68
44 64 78
45 64 76
39 59 71
43 63 76
44 63 76
39 57 69
44 65 78
42 62 75
40 59 71
45 65 79
45 64 76
49 69 83
43 62 75
40 59 72
44 62 75
42 61 73
50 69 83
43 63 76
45 64 77
45 64 77
45 64 76
46 65 78
42 62 75
40 59 72
44 64 77
46 65 77
44 62 75
42 62 75
41 60 73
42 62 75
50 69 82
41 59 71
48 68 81
41 60 72
43 63 76
41 59 71
44 64 76
44 63 76
39 58 70
51 71 84
44 64 77
45 64 77
45 64 77
44 63 76
44 63 75
46 66 80
42 61 74
46 65 79
47 67 80
45 64 77
42 61 74
46 66 79
48 68 81
42 61 74
40 59 71
43 63 76
44 64 77
48 69 82
43 62 75
43 61 73
45 64 77
44 63 75
43 62 74
49 70 84
43 63 77
47 67 81
46 66 79
48 69 82
46 65 77
46 65 78
45 65 78
44 63 76
45 64 77
45 65 78
47 67 80
46 65 78
47 67 81
42 60 73
46 66 79
44 62 74
39 57 69
40 58 71
42 62 75
43 61 74
41 60 73
44 63 75
44 65 78
45 65 78
42 61 74
45 65 78
44 63 76
43 62 74
45 64 76
46 65 77
42 62 75
42 61 73
38 57 70
48 72 88
53 84 104
52 83 104
52 83 104
51 82 103
53 85 106
52 84 106
55 86 106
52 83 103
52 84 106
49 81 103
51 83 104
53 85 106
54 85 106
53 85 106
52 84 106
53 85 106
51 83 105
51 84 105
53 84 106
53 84 105
54 85 106
53 85 106
52 84 106
56 87 107
54 85 106
51 83 105
53 84 105
52 84 105
51 84 106
54 85 106
53 85 106
54 85 106
54 85 106
52 84 106
55 85 105
53 85 106
52 85 106
52 84 106
51 84 105
50 82 103
53 84 105
52 84 106
51 83 105
52 84 106
52 84 106
54 85 105
54 85 106
52 84 105
53 85 106
53 85 106
53 84 105
51 83 104
50 83 105
52 85 106
51 83 104
52 84 105
51 84 106
53 85 106
53 85 106
50 83 105
53 85 106
51 84 106
53 84 105
52 84 106
54 86 107
51 84 106
52 84 105
53 85 106
53 85 106
51 83 104
56 86 107
54 85 106
52 84 106
52 84 106
54 86 107
51 83 105
52 84 106
55 86 107
52 84 106
55 86 106
55 86 107
52 84 105
51 84 106
55 86 107
53 85 106
53 85 106
52 85 106
53 85 106
52 84 106
51 84 106
52 84 106
54 85 106
53 85 106
53 85 106
52 84 105
54 86 107
52 84 106
52 84 106
52 85 106
54 85 106
53 85 106
51 84 106
53 85 106
53 85 106
51 84 105
53 85 106
52 84 106
54 85 106
54 85 106
54 85 106
53 85 106
51 84 106
53 85 106
54 85 106
54 85 106
52 84 106
52 84 105
53 85 106
52 85 106
53 84 106
55 86 107
54 85 106
53 85 106
53 85 106
54 85 106
54 85 106
53 85 106
54 85 106
53 85 106
51 84 106
54 85 106
54 85 106
51 84 106
52 84 106
54 85 106
53 85 106
53 85 106
51 84 106
51 84 106
53 85 106
50 83 105
52 84 106
53 85 106
51 84 106
51 83 105
53 85 106
53 85 106
52 84 106
53 85 106
54 85 106
53 85 106
52 84 106
53 84 106
54 86 107
54 86 107
53 85 106
53 85 106
52 84 106
52 85 106
52 84 106
52 85 106
51 84 106
55 86 107
54 85 106
51 84 105
54 85 106
53 85 106
53 85 106
53 85 106
52 84 105
53 85 106
53 84 105
53 85 106
52 84 106
54 85 106
52 84 105
53 85 106
52 84 105
53 85 106
54 86 107
54 85 106
51 84 106
52 84 106
53 85 106
52 84 106
52 84 106
54 86 107
53 85 106
53 85 106
51 83 105
52 84 106
51 84 106
54 85 106
54 85 106
52 84 106
53 84 106
51 83 105
54 85 106
54 86 107
54 86 107
55 86 107
51 84 106
51 84 105
53 85 106
51 83 105
52 84 106
52 85 106
51 83 105
55 86 107
52 85 106
53 85 106
52 84 105
53 85 106
54 85 106
53 85 106
52 84 106
54 85 106
52 84 106
53 85 106
53 85 106
53 85 106
50 83 105
54 85 106
53 85 106
53 85 106
52 84 105
54 86 107
51 84 106
50 83 105
54 86 107
52 84 104
52 84 106
54 85 106
51 84 105
52 84 106
53 85 106
53 85 106
53 85 106
52 84 106
51 84 106
51 83 105
51 83 104
52 85 106
51 82 103
52 84 105
50 83 105
53 84 105
52 84 106
52 84 105
52 84 106
53 85 106
52 85 106
53 85 106
52 84 105
52 84 105
53 85 106
53 85 106
54 85 106
53 84 105
54 85 106
51 84 105
51 83 105
53 85 106
49 83 105
52 84 104
51 83 104
51 83 104
51 83 105
51 83 105
53 85 106
51 83 105
51 83 104
54 85 106
52 83 104
53 84 105
52 84 104
53 84 106
51 82 104
52 84 105
51 83 104
50 81 102
43 62 75
39 58 70
40 59 71
40 59 71
44 63 76
45 64 77
47 66 79
45 64 77
40 58 70
41 59 71
47 67 81
43 62 75
45 64 77
42 61 74
45 64 77
45 66 79
44 62 74
40 59 71
43 62 75
44 64 77
47 67 80
44 64 77
40 59 72
45 63 76
42 61 74
40 58 71
45 64 78
45 65 78
40 58 70
41 60 73
42 61 73
44 64 77
44 64 77
43 62 75
41 60 73
45 64 76
44 63 76
40 59 71
42 61 74
43 62 75
43 62 75
48 68 81
43 63 76
43 63 76
40 60 72
41 60 73
45 65 78
46 66 79
47 66 79
40 59 71
46 65 78
41 59 71
46 67 80
44 64 77
44 63 76
41 61 74
43 62 75
45 66 79
44 63 76
42 62 76
41 58 70
45 65 78
44 63 76
43 63 76
43 63 77
46 66 80
43 63 75
44 64 78
42 62 76
41 59 72
43 63 75
40 58 70
42 61 73
41 60 74
45 64 78
44 62 74
47 67 80
41 60 73
45 63 76
44 63 75
44 62 75
46 65 78
44 63 76
45 65 78
43 63 76
43 63 76
45 64 77
42 63 77
40 60 73
41 60 73
41 60 73
43 63 76
43 63 75
46 64 77
47 67 80
45 65 78
44 63 75
42 61 74
40 59 72
44 64 77
45 63 75
43 63 76
43 61 73
48 68 82
43 61 73
38 56 68
43 61 73
42 62 74
43 61 74
40 59 71
44 63 76
43 62 74
46 65 78
41 59 71
46 64 76
37 55 67
42 60 73
44 62 74
51 81 100
54 84 105
50 82 103
52 83 103
49 81 102
51 83 105
54 85 105
51 83 105
51 83 105
50 83 105
54 85 106
51 83 104
53 85 105
51 82 103
52 84 104
52 84 106
53 84 105
51 84 106
54 85 106
51 84 106
52 83 104
52 84 105
54 86 107
51 84 106
52 83 104
53 85 106
52 84 105
52 84 105
53 85 106
53 85 106
52 84 105
54 85 106
52 84 106
51 83 105
53 85 106
52 84 105
53 84 105
54 86 107
50 83 104
50 83 105
52 84 105
53 85 106
52 84 106
53 85 106
53 84 105
53 85 106
51 84 106
52 83 104
52 84 105
51 83 105
53 85 106
53 85 106
53 84 105
53 85 106
52 84 105
53 85 106
54 86 107
53 85 106
52 84 106
52 84 106
53 85 106
53 84 105
52 84 106
52 84 106
54 86 107
52 84 106
51 84 106
57 87 107
53 85 106
52 84 106
52 85 106
52 84 106
52 84 106
52 84 105
53 85 106
52 84 106
52 85 106
53 85 106
54 86 107
51 84 105
52 84 106
52 84 106
53 85 106
53 84 104
52 83 104
53 84 105
51 84 106
52 85 106
53 85 106
52 84 106
54 85 106
53 85 106
52 84 106
54 85 106
53 85 106
54 86 107
52 84 106
52 85 106
51 84 106
55 86 107
54 85 106
53 85 106
51 84 106
52 84 106
53 84 105
52 84 106
50 83 105
53 85 106
53 85 106
53 85 106
52 85 106
53 85 106
51 84 106
54 86 107
52 84 105
52 84 106
52 84 105
54 85 106
52 84 106
54 85 106
52 85 106
54 85 106
53 85 106
52 84 105
55 86 106
54 85 106
52 84 106
54 86 107
52 85 106
52 84 106
52 85 106
54 85 106
55 86 107
52 84 106
53 85 106
55 86 107
54 86 107
54 85 106
52 85 106
53 85 106
53 85 106
53 85 106
52 84 106
54 85 106
52 84 106
54 85 106
54 85 106
54 85 106
52 84 106
52 84 105
51 84 106
53 85 106
53 84 105
57 87 107
53 85 106
51 84 106
54 85 106
54 86 107
52 84 106
54 85 106
54 86 107
53 85 106
53 85 106
53 85 106
52 85 106
53 85 106
53 85 106
52 84 105
53 85 106
54 85 106
54 85 106
53 85 106
52 84 106
54 85 106
51 84 106
54 85 106
56 86 107
51 84 105
53 85 106
53 85 106
50 83 105
52 85 106
51 83 105
53 85 106
54 85 106
50 83 105
52 84 105
53 85 106
56 86 107
54 85 106
53 85 106
51 83 105
53 85 106
52 84 105
52 84 106
53 85 106
56 86 107
54 85 106
53 85 106
52 85 106
53 85 106
53 85 106
54 85 106
53 85 106
54 85 106
52 84 105
53 85 106
53 85 106
52 84 106
52 85 106
53 85 106
52 84 106
53 84 106
52 84 106
52 84 106
53 85 106
54 86 107
55 86 107
53 85 106
52 83 104
52 84 104
51 84 106
53 85 106
53 85 106
52 84 105
52 84 106
52 84 106
54 86 107
53 84 106
52 84 106
52 84 105
52 84 106
53 85 106
50 83 105
52 84 105
53 85 106
53 85 106
53 85 106
52 84 105
54 85 106
51 84 106
53 84 105
53 85 106
52 84 105
50 82 103
52 84 106
53 85 106
53 85 106
54 85 106
52 84 106
52 83 104
54 85 105
52 84 105
52 84 106
52 84 105
53 84 105
52 84 105
51 84 106
53 84 105
52 84 105
52 84 105
53 84 105
52 84 106
53 84 105
54 84 105
52 84 105
51 83 104
52 83 104
53 84 105
53 84 106
54 85 106
49 82 103
52 84 105
52 84 104
50 82 103
52 84 105
52 83 105
51 83 104
51 83 104
52 84 104
50 83 104
51 84 105
44 69 86
45 63 76
38 56 68
41 60 72
43 62 74
48 68 81
45 64 76
42 60 73
43 60 72
41 60 73
45 65 78
44 62 75
41 60 73
39 57 69
41 60 72
42 62 75
44 63 75
41 59 71
46 65 78
45 63 75
46 66 80
41 60 72
43 63 76
42 61 74
42 61 73
44 64 77
43 61 74
45 65 78
41 60 72
43 62 74
44 63 75
43 63 77
45 63 75
43 63 76
40 58 71
42 61 74
45 64 76
46 67 80
44 64 77
45 64 77
46 65 78
40 58 70
43 61 73
44 64 77
44 63 76
44 63 76
42 61 74
45 64 77
41 60 72
46 65 78
44 64 76
41 61 74
41 60 72
45 65 78
42 61 74
41 61 74
44 65 78
45 64 76
42 62 75
41 60 72
40 59 71
42 62 76
45 64 77
43 62 74
45 64 77
45 64 76
44 64 77
45 64 76
39 58 71
46 66 79
36 54 66
46 65 77
46 65 78
40 58 71
46 66 79
41 61 74
45 63 76
44 64 77
44 63 77
40 59 71
40 58 70
48 68 82
46 66 79
44 64 77
47 66 79
47 67 80
46 64 77
45 63 75
43 63 76
41 59 71
40 58 70
44 63 75
44 63 76
42 61 73
44 64 77
42 61 73
40 59 71
43 62 74
39 57 69
37 56 69
43 63 76
44 64 77
41 60 73
45 65 78
43 62 75
47 68 82
40 58 70
45 64 76
45 64 77
38 57 69
42 60 72
38 56 69
43 61 74
45 64 76
46 65 78
41 59 71
38 57 69
44 66 81
51 83 105
52 84 105
53 84 105
51 81 101
52 84 105
53 84 105
51 83 104
53 83 104
51 82 103
53 84 105
52 83 103
54 85 106
51 83 104
52 84 105
54 85 106
53 85 106
51 83 104
52 83 104
52 84 106
53 85 106
52 84 105
53 85 106
53 85 106
51 83 105
52 84 104
52 83 104
50 82 103
51 84 106
52 83 105
53 84 104
52 84 105
51 83 105
52 84 105
54 85 106
54 85 106
52 85 106
51 84 106
53 84 104
55 86 107
51 83 105
54 85 106
52 84 105
54 86 107
50 83 105
52 84 106
53 84 105
53 85 106
53 84 105
52 84 105
53 84 105
53 85 106
52 85 106
52 84 106
53 84 106
52 85 106
52 84 106
51 83 105
53 85 106
53 85 106
52 84 106
53 84 105
52 84 106
52 85 106
53 85 106
53 84 105
52 85 106
54 85 106
52 84 105
53 85 106
52 84 105
54 85 106
53 85 106
53 84 105
53 85 106
54 86 107
52 84 105
53 85 106
52 84 106
52 84 105
54 85 106
53 85 106
52 84 106
52 84 106
49 83 105
52 84 106
52 85 106
52 84 106
55 86 107
54 85 106
52 84 106
53 85 106
53 85 106
52 84 106
52 84 106
53 84 106
52 84 106
53 84 105
54 85 106
53 85 106
52 84 106
53 85 106
54 85 106
52 84 105
53 85 106
55 86 107
53 85 106
53 85 106
53 85 106
53 85 106
52 84 106
52 84 106
54 86 107
52 84 106
54 85 106
54 85 106
53 85 106
53 85 106
51 84 106
52 85 106
53 85 106
53 85 106
53 85 106
51 84 106
53 85 106
53 84 106
54 85 106
51 84 106
54 85 106
54 86 107
54 85 106
54 85 106
53 84 106
53 85 106
53 85 106
53 85 106
51 84 106
54 86 107
51 84 106
53 85 106
53 85 106
53 85 106
53 85 106
54 85 106
52 85 106
54 85 106
53 85 106
52 84 106
53 85 106
55 86 107
52 85 106
54 85 106
53 84 105
53 85 106
52 85 106
54 85 106
53 85 106
54 86 107
54 85 106
51 84 105
52 84 106
51 84 106
51 83 105
54 85 106
54 85 105
53 85 106
53 85 106
54 85 106
53 85 106
53 85 106
53 85 106
54 85 106
52 84 105
53 85 106
54 85 106
54 86 107
54 85 106
51 84 106
53 84 105
54 85 106
53 85 106
55 86 107
54 85 106
53 85 106
53 85 106
52 84 106
54 85 106
53 85 106
53 85 106
53 85 106
54 85 106
53 85 106
52 84 105
53 85 106
53 84 105
52 84 105
54 85 106
54 85 106
53 85 106
51 84 106
53 85 106
51 84 105
51 84 106
55 86 107
52 84 105
54 85 106
53 85 106
50 83 104
52 84 105
54 86 107
51 84 106
53 85 106
53 85 106
53 85 106
51 84 105
53 85 106
51 83 105
53 85 106
52 84 106
53 85 106
54 86 107
53 85 106
53 84 105
51 84 106
51 83 105
52 84 106
51 84 106
52 84 105
52 84 105
52 84 105
52 84 106
52 84 105
52 84 105
53 85 106
51 83 105
54 85 106
52 85 106
52 83 104
54 85 106
53 85 106
55 86 107
53 85 106
52 84 105
53 85 106
52 84 106
53 85 106
53 85 106
49 82 103
52 84 106
52 84 106
52 84 106
52 84 105
50 83 104
55 86 107
51 83 105
53 85 106
53 84 104
54 86 107
52 84 106
53 85 106
49 81 103
52 84 105
53 85 106
55 86 106
53 85 106
53 85 105
51 83 104
51 83 105
52 84 105
51 82 103
51 83 104
52 83 104
53 85 106
50 80 100
50 82 103
51 82 103
52 83 103
51 82 103
53 85 106
54 85 106
51 82 103
50 82 103
52 83 104
48 78 98
38 57 69
43 61 74
43 61 73
43 62 75
38 56 68
41 61 74
42 60 72
40 59 72
41 60 72
40 58 70
42 60 73
39 57 69
36 53 64
41 60 72
42 61 74
46 65 78
44 63 75
40 58 71
43 63 76
39 57 70
42 60 72
43 62 75
46 66 79
42 60 72
39 58 70
44 62 74
41 60 72
40 59 72
43 63 76
39 56 68
47 67 81
43 62 75
43 62 74
39 57 69
39 57 69
42 60 72
46 66 79
43 63 75
48 68 81
42 60 72
41 60 72
46 66 79
46 65 78
43 62 75
39 58 71
40 58 69
43 62 75
42 62 76
39 57 68
42 61 74
45 63 76
45 65 77
41 59 71
40 59 72
42 62 75
44 64 77
49 70 84
39 57 70
41 61 74
41 60 73
50 70 84
40 60 73
45 64 77
45 64 76
43 62 75
44 63 75
41 59 71
45 64 76
41 60 73
43 62 75
41 60 73
44 64 77
42 61 73
44 63 76
43 61 74
46 66 79
42 60 73
45 65 78
45 65 79
43 62 75
44 64 77
44 62 75
43 62 75
46 65 78
44 63 76
43 62 74
42 60 72
44 62 75
47 66 79
44 63 76
46 65 77
46 65 78
48 69 82
40 60 72
43 62 75
43 61 74
47 67 80
45 63 75
45 64 76
38 55 66
40 58 70
37 55 67
43 62 74
44 64 77
44 64 76
40 59 72
42 60 73
36 54 66
39 57 70
42 62 75
42 61 73
41 60 72
43 62 74
36 53 64
42 60 72
42 61 73
50 79 98
51 83 104
50 81 101
50 82 103
50 82 103
53 84 105
51 83 105
51 84 105
52 84 105
52 84 105
50 82 102
52 83 104
54 84 104
53 84 106
53 84 104
51 84 105
50 83 105
54 85 105
53 84 105
53 84 105
53 84 105
51 83 104
52 83 104
52 83 103
53 84 105
52 84 105
53 85 106
51 82 104
51 83 105
51 83 105
54 84 105
52 83 104
53 84 105
52 84 105
53 85 106
54 85 106
53 85 106
53 85 106
51 83 105
52 84 105
54 85 106
53 84 105
53 85 106
51 84 106
51 83 105
54 85 105
53 85 106
53 85 106
52 84 106
52 84 105
52 84 105
54 85 106
52 84 105
52 84 106
56 87 107
55 86 107
52 85 106
52 85 106
52 84 105
53 85 106
54 85 106
53 85 106
53 85 106
55 86 107
53 84 105
55 86 107
52 85 106
54 85 106
54 85 106
53 84 105
52 84 106
53 85 106
54 85 106
54 85 106
54 86 107
53 85 106
52 84 106
54 85 106
52 84 106
52 84 106
53 85 106
56 87 107
52 84 106
52 84 106
51 84 106
52 84 106
51 84 105
54 86 107
53 85 106
54 85 106
52 84 105
53 85 106
50 83 105
54 85 106
53 84 105
54 85 106
53 85 106
53 85 106
53 85 106
51 84 106
53 85 106
50 83 105
52 85 106
52 84 105
53 85 106
55 86 107
53 85 106
53 85 106
53 85 106
52 85 106
53 85 106
51 84 105
54 85 106
53 85 106
53 85 106
54 85 106
53 85 106
53 85 106
52 85 106
53 84 106
52 84 106
52 84 106
52 84 106
52 85 106
52 84 106
51 83 105
53 85 106
52 84 105
54 86 107
54 85 106
54 85 106
53 85 106
54 85 106
54 85 106
53 85 106
53 85 106
52 85 106
50 83 105
54 85 106
54 86 107
54 85 106
53 85 106
53 85 106
52 84 106
53 85 106
53 85 106
52 84 106
54 86 107
53 85 106
52 85 106
54 85 106
51 84 106
53 84 106
53 85 106
52 85 106
52 84 106
53 85 106
52 84 105
52 84 106
53 85 106
54 86 107
53 85 106
54 86 107
53 85 106
52 84 106
54 85 106
52 84 106
54 85 106
52 84 106
54 85 106
52 85 106
52 85 106
53 85 106
52 84 106
52 84 106
53 85 106
55 86 107
53 85 106
52 85 106
51 84 106
50 83 105
53 84 106
52 85 106
52 84 106
55 86 107
55 85 106
53 85 106
52 84 106
54 85 106
53 85 106
53 84 105
54 86 107
53 85 106
51 83 105
53 85 106
52 84 106
53 85 106
53 84 106
52 85 106
52 84 106
51 84 106
54 86 107
51 84 106
52 84 106
53 84 105
53 85 106
53 85 106
53 84 105
51 83 104
53 85 106
53 84 106
55 86 106
53 85 106
52 84 105
52 84 106
52 84 105
53 85 106
52 85 106
52 83 104
53 85 106
54 85 106
51 83 105
50 83 105
52 84 105
50 83 105
52 85 106
53 85 106
51 83 105
53 85 106
52 84 105
52 84 105
52 84 105
54 85 106
53 85 106
51 83 105
51 84 106
51 83 104
52 84 105
52 84 105
54 86 107
54 85 106
52 84 105
51 84 106
51 84 105
52 84 105
54 84 105
51 83 105
53 85 106
52 84 104
52 84 106
50 83 105
51 83 104
53 84 105
51 82 103
53 83 104
52 84 106
51 83 104
53 84 104
51 84 106
52 83 103
50 82 104
53 84 105
53 84 105
52 83 103
50 82 103
52 84 105
51 82 103
51 83 104
53 85 106
53 84 105
52 84 105
52 83 104
51 82 102
50 82 103
52 83 103
52 83 104
49 81 103
52 84 106
52 83 104
54 85 105
50 81 102
50 81 101
52 84 106
54 85 105
48 72 88
41 59 71
38 56 67
41 60 72
41 60 73
44 64 77
42 61 73
44 63 76
38 55 66
41 60 73
44 62 75
43 62 75
43 62 74
43 61 74
39 58 70
45 65 77
39 56 67
40 58 70
39 57 69
41 59 72
40 59 71
44 63 75
45 64 76
45 64 77
41 60 73
41 60 73
47 68 82
45 63 76
37 55 67
43 62 74
41 60 73
36 53 65
40 59 71
40 59 71
44 63 75
45 65 78
44 63 75
46 66 80
44 62 75
42 61 74
45 65 78
41 59 72
40 59 71
40 59 72
48 69 82
41 59 70
41 59 72
43 62 75
41 59 71
41 59 72
43 62 74
44 64 78
45 66 79
45 63 76
44 62 74
41 59 70
45 64 78
41 61 74
38 57 70
46 65 78
43 62 74
44 62 75
43 62 75
43 63 76
43 63 76
45 65 78
43 62 74
46 65 78
45 65 78
48 67 79
41 59 72
43 62 75
44 64 78
45 64 77
45 64 76
44 64 77
45 63 76
43 62 75
47 67 81
44 63 76
40 58 70
44 63 76
43 63 76
43 62 74
41 60 73
47 66 79
45 65 79
41 58 70
42 61 73
41 60 72
47 67 81
44 62 74
42 60 73
41 60 72
39 57 68
42 62 74
41 60 73
45 64 77
42 61 74
42 60 73
43 61 73
43 62 75
44 63 76
43 62 75
41 60 73
41 59 71
38 56 68
40 58 70
45 64 76
46 65 78
44 63 75
42 61 73
42 60 72
41 59 71
41 59 71
41 64 79
51 82 102
51 84 105
51 81 102
50 81 102
51 81 101
50 81 102
52 84 105
50 83 104
51 83 103
50 81 101
53 85 106
51 82 102
52 83 104
51 83 104
52 83 104
50 82 103
51 82 102
52 83 104
51 83 105
53 84 105
52 84 105
52 84 105
51 83 104
51 83 105
52 83 105
49 81 102
51 83 105
52 84 105
54 85 105
52 84 105
51 83 103
51 83 104
52 83 104
52 84 105
51 84 106
50 83 104
52 83 104
53 85 106
50 82 104
52 84 106
51 84 106
52 84 105
53 85 106
52 84 105
52 84 105
52 84 106
52 85 106
52 84 105
52 84 105
53 84 105
54 85 106
55 86 106
53 85 106
52 84 106
54 86 107
54 85 106
54 86 107
54 85 106
51 84 105
53 85 106
52 84 106
52 84 105
52 84 105
51 84 106
54 85 106
53 85 106
54 85 106
51 83 105
51 83 104
52 85 106
53 85 106
53 85 106
51 84 105
51 84 105
52 85 106
52 84 105
52 85 106
52 84 106
53 85 106
51 84 106
52 84 106
52 84 105
52 84 105
51 83 105
51 84 105
52 84 105
51 83 104
54 86 107
54 85 106
54 86 107
51 83 105
55 86 107
52 85 106
55 86 107
53 85 106
52 84 105
54 86 107
53 85 106
51 84 106
53 85 106
54 86 107
52 84 106
51 83 105
52 85 106
53 85 106
54 85 106
52 84 106
54 85 106
52 84 105
54 86 107
54 85 106
54 85 106
53 85 106
52 84 106
51 84 106
53 85 106
52 84 106
53 85 106
52 84 105
54 85 106
54 86 107
53 85 106
51 84 106
56 86 107
55 86 107
53 85 106
53 85 106
52 84 106
54 85 106
55 86 106
53 85 106
52 85 106
53 85 106
52 84 106
52 84 106
53 85 106
53 85 106
52 84 106
53 85 106
53 85 106
51 84 106
53 85 106
54 85 106
52 85 106
53 84 106
54 85 106
51 84 106
52 84 106
51 84 106
52 85 106
54 85 106
52 84 106
55 86 107
53 85 106
52 85 106
53 85 106
53 85 106
54 85 106
52 85 106
53 85 106
52 84 106
53 85 106
52 84 106
53 85 106
54 85 106
50 83 105
53 85 106
53 85 106
53 85 106
52 84 105
52 85 106
53 85 106
54 85 106
52 85 106
53 85 106
52 84 106
53 85 106
53 85 106
54 85 105
53 85 106
53 85 106
54 85 106
52 84 106
54 85 106
54 86 107
52 84 106
52 84 105
54 85 106
51 84 106
53 85 106
53 84 105
53 85 106
53 85 106
52 85 106
52 84 106
53 84 106
53 85 106
52 84 105
52 84 106
52 83 105
53 85 106
55 86 107
52 84 106
52 85 106
52 84 105
50 82 103
54 85 106
52 85 106
52 84 106
52 84 106
51 84 106
54 85 106
51 84 105
51 83 105
53 85 106
52 84 105
51 83 105
51 83 105
52 84 106
51 83 104
52 84 105
53 84 105
52 84 106
51 84 105
52 84 106
54 85 106
53 84 105
52 83 104
52 84 106
53 85 106
52 83 103
53 85 106
52 84 106
52 84 105
51 84 106
51 83 105
53 84 105
53 84 105
53 84 105
51 83 105
54 85 106
55 85 106
54 85 106
54 85 106
54 85 106
53 85 106
52 84 105
52 85 106
51 83 105
52 83 104
52 83 104
53 84 105
52 84 105
53 84 105
52 84 105
51 82 102
52 83 104
52 83 104
50 83 104
51 82 103
51 83 104
52 84 104
52 83 104
51 83 104
52 84 106
51 83 104
52 84 105
53 84 105
54 85 106
50 81 102
52 84 106
51 82 103
53 84 106
51 83 104
52 83 105
52 84 105
53 84 105
53 84 105
49 80 101
49 81 102
52 83 103
52 83 104
50 81 102
51 83 104
52 82 102
38 55 66
44 63 75
41 60 72
43 61 73
41 61 74
38 57 69
45 64 76
41 59 71
39 58 71
44 63 75
46 66 80
42 61 73
44 63 76
39 56 67
43 60 72
43 61 73
40 58 69
43 62 74
42 60 73
40 58 71
44 63 75
43 63 76
41 58 70
41 60 73
39 57 69
41 59 72
42 61 73
46 67 80
43 61 72
42 60 72
45 63 76
42 61 74
47 67 80
41 60 72
42 61 73
44 62 75
43 61 74
44 62 74
41 61 73
44 63 76
44 64 76
41 60 72
46 66 79
43 63 77
46 66 79
45 65 78
40 57 69
40 59 72
39 59 71
40 58 70
43 61 74
43 63 76
44 63 76
44 63 75
44 65 78
39 57 70
39 56 68
46 65 77
44 63 75
41 60 73
43 63 76
44 63 75
44 63 76
42 61 74
41 60 73
41 59 71
43 61 73
45 65 78
40 59 72
40 59 71
44 64 77
41 59 72
44 63 75
42 61 73
41 60 73
41 59 71
42 61 74
40 59 71
45 65 78
40 59 71
42 61 74
40 59 71
44 63 75
42 61 73
48 68 81
41 59 71
40 58 70
40 58 70
44 62 74
45 65 79
42 61 73
39 57 68
42 59 71
39 58 70
41 59 70
45 64 76
40 59 72
39 57 70
43 62 75
45 64 76
39 56 68
41 61 74
40 58 71
45 65 78
44 64 77
37 55 67
43 62 75
41 60 73
44 62 75
40 58 70
43 61 74
35 51 62
35 53 66
42 61 74
48 78 98
53 84 104
51 83 104
50 82 104
51 82 103
51 81 102
50 81 102
51 83 105
51 83 104
50 82 103
52 83 104
51 82 103
50 81 102
50 81 102
52 83 104
52 84 105
52 84 105
53 84 106
53 84 105
50 83 104
53 84 105
50 82 103
52 84 105
52 84 105
51 83 104
54 85 106
52 84 105
51 82 103
52 84 104
51 83 104
53 85 106
52 84 105
50 82 104
51 82 103
54 85 106
52 83 105
53 85 106
50 83 104
53 85 106
52 84 105
51 84 105
49 82 104
52 84 105
51 83 104
53 84 105
53 84 105
50 83 104
50 82 104
50 83 105
52 84 106
52 83 104
51 83 105
51 84 105
51 83 104
51 83 105
52 84 106
53 85 106
52 83 104
52 84 106
54 85 105
51 83 104
52 84 105
53 85 106
53 85 106
52 84 105
53 84 105
51 84 106
51 84 106
54 85 106
52 84 106
52 84 105
53 85 106
51 84 105
53 85 106
55 86 107
52 84 106
51 83 104
52 84 106
54 85 106
51 84 106
53 85 106
52 84 105
52 84 105
54 86 107
53 85 106
55 86 107
54 85 106
52 84 106
53 85 106
52 85 106
52 84 105
52 84 105
52 84 105
50 83 105
52 83 104
53 85 106
53 85 106
51 83 105
53 85 106
52 85 106
54 85 106
52 84 106
52 84 105
53 85 106
53 85 106
53 85 106
53 85 106
53 84 105
52 84 106
52 84 106
54 86 107
52 85 106
52 84 105
53 85 106
53 85 106
53 85 106
52 84 105
51 84 106
52 85 106
53 85 106
52 85 106
52 84 106
54 85 106
52 85 106
53 85 106
53 85 106
53 85 106
51 84 106
53 85 106
51 84 106
54 85 106
54 86 107
53 85 106
52 84 106
51 84 106
52 84 105
52 85 106
52 84 106
52 84 106
53 85 106
54 85 106
52 84 106
53 85 106
53 85 106
53 85 106
54 85 106
53 85 106
52 85 106
54 85 106
52 84 106
52 85 106
53 85 106
52 84 106
53 85 106
55 86 107
52 85 106
52 84 106
54 86 107
52 84 106
54 85 106
52 84 106
52 84 106
52 84 106
53 85 106
52 84 106
54 85 105
53 85 106
54 85 106
53 85 106
53 85 106
51 84 105
51 83 104
53 85 106
53 85 106
52 84 106
51 84 106
52 84 105
53 85 106
54 85 106
53 85 106
51 84 106
50 83 105
53 85 106
52 84 106
53 85 106
54 86 107
53 84 105
53 85 106
53 84 105
52 84 105
52 85 106
52 84 106
53 85 106
52 84 105
50 83 104
51 83 104
52 84 106
52 85 106
52 84 105
52 84 106
52 85 106
51 84 106
51 84 106
51 84 106
53 84 105
53 85 106
53 85 106
54 85 106
50 82 104
54 85 105
52 84 105
53 85 106
53 84 105
52 84 105
53 85 106
53 84 106
51 84 106
50 83 105
52 84 105
54 85 106
51 83 105
52 84 106
51 83 105
53 84 105
53 84 106
54 85 106
53 85 106
52 84 106
51 84 106
50 82 103
54 84 105
50 82 103
54 85 106
52 84 106
53 84 106
52 83 105
53 84 104
52 83 105
53 85 106
51 83 105
53 84 105
52 84 105
52 84 105
51 83 104
50 82 104
53 85 106
52 84 105
51 82 102
50 82 104
52 84 105
51 83 105
53 85 106
52 83 103
52 84 105
51 84 106
52 84 105
51 83 104
52 84 105
53 84 104
52 84 105
51 82 103
52 83 104
51 83 104
51 83 103
53 84 105
51 83 105
50 81 101
52 84 105
51 83 104
51 83 105
50 81 101
50 82 103
51 83 104
51 83 104
50 81 102
52 83 105
51 82 103
51 83 104
51 83 104
50 82 102
49 81 102
51 81 101
52 83 103
52 84 105
52 82 103
51 82 103
40 64 79
38 56 67
39 57 69
38 56 68
39 58 70
40 58 69
42 61 74
42 61 74
40 58 70
44 63 76
43 61 73
39 57 69
44 63 75
41 59 71
40 56 68
43 62 75
40 57 69
35 53 64
42 61 74
43 63 76
39 56 67
39 57 69
42 61 74
41 60 72
45 65 78
43 61 74
38 56 68
41 59 72
38 56 69
42 60 72
40 58 71
45 64 77
41 60 72
41 59 72
40 58 70
39 57 69
43 62 75
39 56 67
39 57 68
39 58 70
44 63 76
43 62 75
42 61 74
41 59 71
40 58 71
41 60 73
45 64 77
44 63 76
42 60 72
42 62 75
38 57 69
39 57 68
37 54 65
41 60 72
41 59 71
42 59 71
37 54 66
42 62 76
39 58 70
44 63 76
40 59 71
44 63 76
44 63 75
40 58 70
41 60 72
45 65 79
42 60 72
43 61 74
43 61 74
39 57 69
48 67 80
43 62 76
44 62 74
42 60 72
44 64 77
47 67 80
43 62 75
41 60 73
44 63 75
44 63 75
39 57 69
45 63 75
41 58 70
41 61 73
41 59 71
43 62 75
42 59 70
43 63 76
46 66 80
41 60 73
38 55 67
38 57 69
40 59 71
39 57 69
41 59 72
42 60 72
40 58 70
41 60 73
47 66 79
42 61 74
42 61 73
40 58 69
43 62 74
39 58 70
39 57 68
41 59 71
40 58 70
40 58 70
43 61 74
39 58 70
47 66 78
40 58 70
41 60 72
49 75 92
50 79 98
50 82 103
50 82 103
49 80 100
52 83 103
49 80 102
48 78 99
52 84 105
51 83 105
53 83 104
51 82 103
51 83 103
52 83 104
51 83 105
53 83 104
53 84 105
49 81 102
53 84 105
51 82 102
53 84 105
53 84 105
51 83 104
50 83 104
53 84 105
51 83 104
53 85 106
53 84 105
52 83 104
51 82 103
51 83 103
53 84 105
52 83 104
51 83 104
51 83 104
52 83 103
51 84 106
53 84 106
51 83 104
52 84 105
53 85 106
52 83 105
51 83 104
51 83 105
52 84 105
51 83 105
51 83 105
56 87 107
51 82 103
51 84 105
51 82 103
52 84 106
52 84 105
52 84 105
53 84 105
54 85 106
52 84 105
55 86 107
53 85 106
51 83 104
53 85 106
53 85 106
51 84 106
53 85 106
53 85 106
52 84 105
52 84 105
52 84 105
54 85 106
52 85 106
51 84 106
52 84 105
54 85 106
53 85 106
54 85 105
53 85 106
50 82 103
52 84 106
52 84 106
53 85 106
52 84 105
53 85 106
54 85 106
50 83 105
54 85 106
53 85 106
54 85 106
51 83 105
52 85 106
52 85 106
53 85 106
52 84 105
52 85 106
54 86 107
52 84 106
54 86 107
55 86 106
52 84 106
51 83 104
55 86 107
53 85 106
51 84 105
52 84 106
52 84 106
54 85 106
53 85 106
51 83 105
53 85 106
54 85 106
53 85 106
54 85 106
53 85 106
54 85 106
53 85 106
54 85 106
49 83 105
53 85 106
52 84 105
53 85 106
53 85 106
55 86 107
53 85 106
53 85 106
52 84 106
54 85 106
53 84 105
53 85 106
51 84 105
54 85 106
51 84 106
50 83 105
52 84 106
51 84 106
53 85 106
53 85 106
53 85 106
52 84 106
53 85 106
52 85 106
54 85 106
51 84 105
52 85 106
52 84 106
53 85 106
54 86 107
52 84 106
53 85 106
51 84 106
52 84 106
53 85 106
52 84 105
54 86 107
53 85 106
52 84 106
52 85 106
52 84 106
54 85 106
52 84 106
53 85 106
53 85 106
54 85 106
51 84 106
53 84 106
53 85 105
52 84 106
54 85 106
52 84 105
53 85 106
52 84 106
52 84 106
54 86 107
53 84 105
53 85 106
54 86 107
51 83 105
53 84 105
52 84 105
53 85 106
51 83 105
53 85 106
53 84 106
52 84 106
53 85 106
52 84 105
53 84 105
52 85 106
52 85 106
52 85 106
53 85 106
51 84 106
52 84 106
52 84 106
51 84 106
52 84 106
51 83 104
50 83 105
53 84 105
53 85 106
56 87 107
52 85 106
51 83 105
52 85 106
50 83 105
53 85 106
52 84 105
53 85 106
51 83 105
52 84 105
51 83 104
53 84 105
52 84 106
53 85 106
53 84 105
53 85 106
54 85 106
53 85 106
51 84 105
52 84 105
52 84 105
52 84 105
54 86 107
52 83 104
54 85 106
53 84 105
53 84 105
52 85 106
53 85 106
51 83 104
53 85 106
53 85 106
52 84 105
49 82 103
52 85 106
53 85 106
52 84 105
51 84 106
52 83 104
52 84 105
51 83 104
51 83 104
51 84 106
52 84 106
53 84 105
52 84 106
52 83 104
52 84 105
54 85 106
51 83 104
51 83 104
51 83 104
51 84 105
49 82 104
51 84 105
51 84 105
51 83 104
50 82 103
53 84 105
52 84 105
52 83 104
53 84 105
49 81 102
51 83 104
53 84 105
50 80 100
51 83 105
51 83 104
51 83 104
50 82 103
53 84 104
51 82 103
54 85 106
50 81 102
51 82 103
53 85 106
52 83 104
52 83 104
52 83 104
49 80 100
52 83 104
50 81 102
50 81 101
50 81 102
51 80 100
46 78 99
52 81 101
52 82 103
51 81 102
50 80 100
41 59 71
42 61 73
36 53 64
39 56 67
40 57 69
43 61 73
39 58 70
39 57 68
39 57 69
37 54 65
39 56 67
42 59 70
42 60 72
36 53 64
40 58 71
44 62 75
44 64 76
41 60 73
46 66 79
43 62 74
45 64 78
47 67 80
39 57 70
46 65 77
45 64 76
40 58 70
43 62 74
38 56 68
45 64 77
40 59 71
43 61 74
45 63 76
40 58 70
45 65 78
44 62 74
42 61 73
45 65 78
39 58 71
45 64 76
45 65 78
39 58 71
43 62 75
44 64 77
45 64 76
42 60 73
38 56 68
42 61 73
36 55 67
44 64 77
45 63 75
40 58 71
40 59 71
48 67 80
41 59 71
43 63 76
40 58 70
41 59 71
42 61 74
45 64 76
42 59 71
41 59 71
42 62 75
43 62 74
38 56 67
45 64 77
41 59 71
41 60 73
40 58 70
44 64 77
37 55 67
45 63 75
42 59 71
40 59 71
41 60 73
40 57 69
44 63 76
42 61 73
42 61 74
47 65 78
42 61 74
44 63 75
40 59 72
38 56 68
42 62 74
45 65 78
40 57 68
41 59 71
41 60 73
43 61 74
40 58 71
46 65 78
44 63 76
40 57 69
39 57 69
42 59 70
39 56 68
43 61 74
41 59 71
39 57 68
39 58 70
44 63 76
43 62 75
38 56 68
42 60 72
39 58 70
44 63 76
41 59 72
44 63 75
41 58 70
43 60 72
41 60 72
41 61 74
49 80 100
48 80 101
52 82 101
51 82 103
51 81 101
48 80 101
51 83 104
50 81 102
52 83 103
48 79 99
51 82 102
50 79 99
49 81 103
51 82 103
51 83 104
52 84 104
49 81 101
52 84 106
52 83 104
51 82 103
52 83 104
53 84 104
52 84 105
53 83 103
50 82 104
52 83 104
50 82 103
53 84 105
51 82 103
50 82 104
52 84 105
53 84 104
53 84 106
52 83 104
52 84 105
52 83 104
52 84 105
52 84 105
51 83 104
52 84 105
51 83 104
53 84 104
52 84 105
51 83 104
51 83 104
52 84 105
51 83 104
52 83 104
52 83 104
54 84 105
53 85 106
52 84 105
51 83 105
53 85 106
54 86 107
52 83 104
51 83 104
52 85 106
52 84 105
53 84 105
51 82 103
52 84 105
53 85 106
52 84 105
52 84 105
51 84 106
53 85 106
53 85 106
51 84 106
53 84 106
53 85 106
54 85 106
53 85 106
52 85 106
52 85 106
53 84 105
52 85 106
53 85 106
52 85 106
52 84 106
50 83 104
51 83 105
52 84 106
52 84 106
54 85 106
52 84 106
53 85 106
53 84 105
53 85 106
52 85 106
53 84 105
53 84 104
52 84 106
52 85 106
53 85 106
52 84 106
54 85 106
52 84 106
50 83 105
53 84 105
53 85 106
52 83 104
53 85 106
55 86 107
54 86 107
52 84 106
50 83 105
53 85 106
54 86 107
51 84 106
53 85 106
53 85 106
53 85 106
54 86 107
53 85 106
51 84 106
54 85 106
54 85 106
52 85 106
52 84 105
54 85 106
52 85 106
53 85 106
54 86 107
51 84 106
53 84 105
54 85 106
52 84 106
50 83 105
53 85 106
53 85 106
53 85 106
55 86 107
53 85 106
53 85 106
52 84 106
54 85 106
54 85 106
53 85 106
51 84 106
52 85 106
52 84 106
54 85 106
54 86 107
53 85 106
54 85 106
53 85 106
55 86 107
54 85 106
52 84 106
52 84 105
53 85 106
54 85 106
52 84 106
54 85 106
52 84 106
54 85 106
53 85 106
55 86 107
52 84 105
54 85 106
53 85 106
53 85 106
52 84 106
52 85 106
52 84 106
55 86 107
52 84 105
52 84 105
52 84 106
52 84 105
52 84 106
53 85 106
52 85 106
53 85 106
51 84 105
53 85 106
52 84 105
55 86 107
53 85 106
52 83 104
52 85 106
51 84 106
53 85 106
53 84 105
52 84 105
52 85 106
54 85 106
55 86 107
52 84 106
51 84 105
54 85 106
52 85 106
52 84 106
54 85 106
52 84 106
51 84 105
53 85 106
54 85 106
53 85 106
53 84 105
53 85 106
52 84 106
53 84 105
52 84 105
52 84 105
52 84 105
51 83 105
53 85 106
52 84 105
52 84 106
52 84 106
52 83 104
51 83 104
53 85 106
51 84 106
51 83 104
54 85 106
54 85 106
51 83 104
53 85 106
51 83 105
52 84 105
51 84 106
52 84 106
51 83 105
54 85 106
53 84 105
52 83 105
52 84 106
51 83 105
53 84 105
52 84 105
52 84 105
53 84 104
52 83 104
51 83 105
52 83 104
52 84 105
50 82 103
50 82 103
51 83 104
51 83 104
54 85 106
52 84 105
50 82 103
51 83 104
53 84 105
52 83 104
53 84 105
53 84 105
50 81 101
50 81 102
52 83 104
50 82 103
51 83 104
50 81 102
53 85 105
52 82 102
52 82 103
53 84 105
50 83 104
50 81 102
51 81 102
52 84 106
51 83 104
52 82 103
51 82 103
49 81 103
51 82 103
52 82 102
52 82 103
55 85 105
50 79 98
51 82 103
50 80 101
51 82 103
51 82 102
52 83 104
52 83 103
51 82 102
50 78 98
51 82 102
51 79 99
51 82 103
49 80 100
52 83 103
52 83 103
48 74 91
41 59 71
42 61 73
38 56 68
43 62 75
44 62 75
42 58 69
39 57 69
43 62 74
41 60 73
41 60 72
43 62 75
43 61 74
42 60 73
40 59 71
41 58 69
37 54 65
43 60 72
42 60 72
40 58 70
42 60 73
41 60 73
40 59 72
40 59 72
42 60 73
44 63 75
36 54 66
40 58 70
46 64 76
42 61 73
41 58 70
42 61 73
41 61 74
45 63 76
40 58 70
43 61 73
43 62 75
40 59 72
44 63 75
48 67 80
42 60 71
39 55 67
40 59 71
42 61 74
41 60 72
42 60 73
45 64 77
39 56 67
40 59 72
45 63 75
38 56 68
41 60 72
39 58 71
41 59 70
40 57 68
40 59 72
42 61 73
41 60 72
42 62 75
38 56 68
43 63 76
43 61 73
42 60 72
42 60 72
43 61 73
42 60 71
40 57 69
39 56 68
41 60 72
41 60 72
45 63 75
41 59 71
39 58 70
39 57 68
42 60 72
42 60 72
43 62 75
39 57 69
41 59 72
44 63 75
40 59 71
40 59 72
41 60 72
38 56 67
38 56 68
47 67 80
40 58 70
40 57 69
42 61 74
45 64 76
42 60 72
39 58 70
41 59 71
44 63 76
44 63 75
42 60 73
41 60 72
42 60 72
40 59 71
42 60 73
39 57 69
40 58 70
40 58 70
44 63 76
45 63 76
41 59 71
38 55 67
39 57 69
43 62 74
44 62 75
38 54 65
47 73 90
51 82 103
49 80 101
51 82 103
50 80 99
53 83 103
51 82 103
49 79 99
51 82 102
50 81 101
50 80 100
49 80 100
51 82 102
50 81 102
51 82 102
49 81 103
51 83 104
47 77 97
52 83 104
53 84 104
53 84 105
52 84 105
47 79 101
53 83 104
52 84 105
51 82 103
52 83 105
49 81 103
51 82 102
50 80 100
50 81 102
50 82 104
53 83 103
53 84 105
51 83 105
52 83 103
53 84 105
49 82 104
51 84 106
51 83 104
49 82 104
51 83 105
51 83 105
52 83 104
53 85 106
52 84 105
52 83 105
51 82 103
53 85 106
52 84 106
52 83 104
52 84 105
53 84 105
52 84 104
50 82 104
53 84 105
51 83 105
50 82 104
52 83 103
54 85 106
52 83 104
53 85 106
51 83 105
50 82 104
53 84 106
54 85 106
53 85 106
52 84 106
52 83 104
54 85 106
52 85 106
50 82 103
50 82 104
51 83 105
52 83 104
52 84 106
50 83 104
53 84 105
55 86 107
53 84 105
51 83 104
54 85 106
53 85 106
54 85 106
55 86 107
53 85 106
52 84 105
53 85 106
52 84 105
52 84 106
54 84 105
54 85 105
53 85 106
53 85 106
53 85 106
51 84 106
53 85 106
54 85 106
55 86 107
52 84 106
52 84 106
51 83 105
53 85 106
53 84 105
51 84 106
54 85 106
55 86 107
51 83 104
53 85 106
53 85 106
54 85 106
53 84 105
55 86 107
53 84 106
55 86 107
52 84 106
52 84 106
53 85 106
54 86 107
52 84 106
53 85 106
51 84 106
53 85 106
54 86 107
52 84 105
52 84 106
53 85 106
53 85 106
52 84 106
54 85 106
52 84 105
52 84 106
52 85 106
53 85 106
55 86 107
52 84 106
52 84 105
53 85 106
53 85 106
53 85 106
54 86 107
52 85 106
54 85 106
52 84 106
53 84 105
51 84 105
55 86 106
54 85 106
51 84 105
51 83 105
54 85 106
53 85 106
53 85 106
53 85 106
52 84 106
53 85 106
54 86 107
53 84 106
55 86 107
54 85 106
54 85 106
53 85 106
51 83 104
53 85 106
52 84 106
53 85 106
52 85 106
53 84 105
53 85 106
52 83 105
51 84 105
53 84 105
54 86 107
53 85 106
52 84 106
52 84 106
52 84 106
55 86 107
54 85 106
54 86 107
52 84 106
53 85 106
53 85 106
50 83 105
51 83 104
53 85 106
52 84 106
51 83 104
53 84 105
52 84 105
52 84 106
53 85 106
51 83 105
52 84 105
52 83 105
50 83 104
54 85 106
52 84 105
53 84 105
51 84 106
51 83 104
53 85 106
51 84 105
52 85 106
50 83 105
53 84 106
53 85 106
54 86 107
52 84 105
52 84 106
54 85 106
52 84 106
52 85 106
51 83 104
53 85 106
52 84 106
54 85 106
52 84 106
54 85 106
51 84 105
51 82 103
55 85 106
50 83 104
50 82 103
51 83 104
52 84 106
51 83 105
51 84 105
52 83 104
52 84 105
52 84 105
52 83 104
52 84 105
53 85 106
54 85 105
54 85 105
52 84 105
50 82 103
52 84 105
53 84 105
53 84 104
50 83 105
52 83 104
51 83 105
50 82 103
51 83 104
54 86 107
54 85 105
50 80 101
51 83 104
51 83 104
51 83 104
52 83 105
51 83 105
52 83 104
53 83 104
53 84 105
52 83 104
52 84 105
52 84 105
54 85 106
51 83 104
52 83 104
49 80 101
51 83 104
49 81 102
50 80 101
51 83 104
52 83 104
53 84 104
52 82 102
50 81 102
52 83 103
50 80 100
53 84 105
51 81 101
50 82 103
53 84 104
51 82 102
50 81 101
49 79 99
51 82 103
49 79 100
49 81 102
51 82 102
51 83 104
51 82 102
49 80 100
48 76 96
49 80 101
40 59 72
40 58 70
40 58 70
39 56 68
34 51 62
39 57 70
40 58 70
39 57 69
44 63 75
42 60 71
40 58 69
46 65 78
40 58 70
39 57 69
43 61 73
42 61 74
45 64 76
42 60 73
46 64 76
42 60 73
44 63 75
37 53 64
44 62 74
37 54 66
39 57 69
39 58 71
43 61 74
40 58 70
43 61 73
38 56 69
42 60 73
41 59 71
45 64 77
36 53 65
36 54 65
38 56 68
41 59 72
41 59 72
38 57 69
39 57 69
39 57 68
43 60 72
39 57 70
41 59 71
40 58 71
40 58 70
39 57 69
41 60 72
41 60 73
42 61 74
44 64 77
42 61 73
44 63 76
43 62 75
42 60 72
45 64 76
38 56 68
43 62 75
43 62 74
40 59 72
39 57 69
41 59 71
42 61 73
41 59 71
43 61 73
43 62 75
44 63 76
44 62 74
43 61 73
46 65 78
42 61 74
42 61 73
44 64 77
42 60 73
43 61 74
40 58 70
39 57 69
37 56 68
41 59 71
41 60 72
43 61 73
49 67 80
43 61 73
47 65 77
45 63 75
42 60 72
46 67 81
41 59 70
41 60 72
45 65 78
42 59 71
41 59 71
41 59 71
39 56 68
40 57 69
41 59 70
43 61 74
46 66 79
34 51 62
40 57 69
40 58 70
41 58 70
41 58 69
39 57 68
45 63 76
42 60 72
38 56 68
37 55 67
33 50 61
42 64 79
48 78 98
51 82 102
50 80 101
50 81 102
49 80 101
50 81 102
50 80 100
49 81 102
50 79 99
51 81 101
49 81 102
51 83 104
51 81 102
48 79 99
50 81 101
49 80 100
50 82 103
52 84 104
50 81 101
52 83 104
52 83 104
53 84 105
52 83 104
51 82 104
52 82 102
51 82 103
49 81 103
51 82 102
52 83 104
53 85 106
51 83 105
51 83 104
52 84 105
53 84 105
52 83 104
52 83 104
48 81 103
52 83 104
53 84 105
52 84 105
52 84 105
54 85 106
54 85 106
53 83 104
52 84 105
53 82 102
51 84 105
52 85 106
53 85 106
52 84 105
51 82 103
50 82 103
54 85 105
53 85 106
52 84 105
52 84 105
52 84 105
54 85 106
54 85 106
52 83 104
52 84 105
53 85 106
52 83 104
53 84 105
52 84 105
53 85 106
50 83 105
53 84 105
52 84 105
52 84 106
52 83 104
54 85 106
52 84 105
52 84 105
52 84 105
52 84 105
50 83 105
54 86 107
52 83 104
53 85 106
52 84 106
51 84 106
53 85 106
55 86 106
50 83 105
53 84 105
53 84 105
54 84 105
53 84 104
53 84 105
53 85 106
52 84 105
52 83 104
51 82 103
53 84 105
53 84 106
53 85 106
53 85 106
51 84 106
53 85 106
51 83 104
52 84 105
51 83 105
54 85 106
51 83 105
52 84 105
52 84 105
52 84 105
53 85 106
53 84 105
53 84 105
54 85 106
53 85 106
52 85 106
54 85 106
52 84 106
52 84 105
54 85 106
53 85 106
51 84 106
53 85 106
54 86 107
52 84 106
53 85 106
51 84 106
52 85 106
52 84 106
54 85 106
53 85 106
52 84 105
52 85 106
51 84 106
56 86 107
52 84 105
53 85 106
52 85 106
52 84 105
50 83 105
52 84 106
53 85 106
53 85 106
53 85 106
53 85 106
54 85 106
52 84 106
53 85 106
53 85 106
53 85 106
53 85 105
52 84 105
51 84 106
53 85 106
55 86 107
49 83 105
51 83 105
52 84 106
54 86 107
53 84 105
52 84 105
52 85 106
52 84 106
52 84 105
53 85 106
51 84 105
51 84 106
55 86 107
51 84 106
53 85 106
52 84 106
55 86 106
52 84 106
54 86 107
54 86 107
53 85 106
53 85 106
53 85 106
53 85 106
53 85 106
53 84 106
54 85 106
54 85 106
52 84 106
53 85 106
52 84 106
52 84 106
51 84 106
52 84 106
53 84 104
53 84 106
52 84 106
52 84 106
54 86 107
54 85 106
53 85 106
53 85 106
53 85 106
51 84 106
55 85 105
53 84 105
51 83 104
51 84 105
52 85 106
52 84 105
53 85 106
52 84 106
52 84 105
55 86 107
53 84 105
50 83 105
52 84 106
53 85 106
52 84 105
52 84 105
54 85 106
53 85 106
53 85 106
52 83 103
52 84 105
55 86 106
52 84 105
51 83 104
51 83 104
53 84 105
50 83 104
50 82 104
54 84 105
50 82 104
53 85 106
54 85 106
52 84 105
53 85 106
52 84 105
51 83 104
52 83 103
53 84 105
51 83 104
53 84 106
50 81 101
51 84 105
54 84 105
52 82 103
54 85 105
53 84 105
53 84 105
52 83 104
52 84 105
51 83 105
51 82 103
54 85 106
52 83 103
54 85 105
52 83 104
50 82 103
50 82 104
48 81 102
51 83 104
51 83 104
50 80 100
50 81 102
53 84 104
50 81 102
52 83 104
52 83 104
52 83 104
51 82 103
51 82 104
50 82 103
50 81 102
51 83 105
50 81 101
52 82 102
52 83 103
50 80 100
50 81 101
50 81 102
50 82 103
49 80 100
51 82 103
51 81 101
53 83 104
50 79 98
47 78 98
50 81 102
49 80 100
49 80 101
48 79 100
51 81 101
49 80 100
47 77 98
48 78 98
46 75 94
36 53 65
39 57 69
35 51 62
39 57 68
41 58 70
35 52 64
43 61 73
38 55 67
41 58 70
43 61 73
41 59 71
38 56 68
47 67 80
37 54 66
39 56 68
41 59 70
40 58 69
43 62 75
41 58 70
42 60 73
41 59 71
39 57 70
44 63 76
36 54 66
38 55 66
39 56 68
42 61 74
40 59 72
41 59 71
44 61 73
40 58 70
40 59 71
43 62 74
44 63 76
39 57 70
45 63 76
40 59 72
37 57 70
45 63 75
45 63 75
43 61 73
44 63 76
40 58 70
41 59 72
42 60 72
41 60 72
40 59 72
42 61 73
42 60 71
39 57 68
42 60 73
38 56 68
40 58 70
39 57 69
43 62 75
43 61 73
38 56 68
40 58 71
40 58 71
41 59 71
40 58 70
43 61 74
42 61 74
42 60 72
46 66 79
36 54 66
38 56 68
39 57 69
42 60 71
41 59 70
41 59 71
43 61 73
43 61 73
42 60 73
38 55 66
42 60 72
41 59 71
45 64 77
43 62 75
36 53 64
41 58 70
46 66 79
40 59 71
39 57 69
37 55 67
44 63 75
43 62 76
40 58 71
40 58 70
40 58 70
35 53 65
43 61 74
45 64 76
41 60 73
42 61 73
39 56 68
40 58 69
36 53 64
41 58 70
42 60 72
39 57 70
41 60 72
44 63 75
45 63 75
38 56 68
41 59 71
44 62 74
38 56 68
49 78 98
49 79 99
51 81 101
47 78 98
49 78 98
50 80 100
48 78 98
51 82 102
50 81 102
49 79 99
49 82 103
51 83 103
51 82 102
48 79 99
51 82 103
51 82 103
51 82 103
51 82 103
51 82 104
52 82 102
52 83 104
48 78 98
51 82 102
52 83 104
50 81 102
53 84 105
51 83 103
49 81 103
51 82 103
49 80 100
51 81 102
49 81 103
51 83 105
50 81 101
51 83 105
51 83 105
52 83 104
51 83 104
53 85 106
52 82 102
51 83 105
50 82 103
52 83 104
51 83 104
52 83 103
50 81 102
50 82 104
54 84 104
51 84 106
53 84 106
53 85 106
52 83 104
52 83 104
52 83 104
50 81 102
51 84 106
52 84 104
51 83 104
51 84 105
54 85 106
52 83 104
51 82 103
52 83 104
53 84 105
51 84 105
52 84 105
52 84 106
55 86 106
53 84 106
54 85 106
52 84 105
53 85 106
51 83 105
51 84 106
53 84 106
53 85 106
53 85 106
54 85 106
51 84 106
53 84 106
51 83 104
53 84 104
53 85 106
52 83 104
52 84 104
51 84 105
52 84 105
53 85 106
53 85 105
53 85 106
53 84 105
53 84 105
53 85 106
51 83 104
51 84 106
52 84 105
51 84 105
53 85 106
51 83 105
50 83 105
52 84 105
54 85 105
52 84 105
53 85 106
53 85 106
52 84 106
54 85 106
53 85 106
53 85 106
52 84 105
53 85 106
54 85 106
53 85 106
52 84 106
52 84 106
54 85 106
52 84 105
54 85 106
53 85 106
51 84 105
55 86 107
52 84 106
53 84 105
53 85 106
54 85 106
52 84 105
52 84 106
53 85 106
53 85 106
53 84 106
53 85 106
53 85 106
53 85 106
53 85 106
53 85 106
52 84 106
52 84 106
53 85 106
53 85 106
50 83 105
52 85 106
53 85 106
54 85 106
52 84 106
52 84 105
53 85 106
53 85 106
54 85 106
53 85 106
53 85 106
52 84 106
53 85 106
53 85 106
52 85 106
54 86 107
52 84 106
53 84 106
53 84 105
53 85 106
53 85 106
52 85 106
52 85 106
55 86 107
52 84 106
52 84 105
54 85 106
52 85 106
53 85 106
51 83 105
51 83 105
54 85 106
52 84 105
52 84 106
52 84 106
55 86 107
53 84 105
51 84 105
53 85 106
53 84 105
53 84 105
51 83 105
54 85 106
54 86 107
51 84 105
53 85 106
53 85 106
52 84 105
53 84 105
53 85 105
53 84 106
53 85 106
52 85 106
52 85 106
52 84 106
50 83 104
52 84 105
52 84 106
52 84 106
53 84 105
55 86 107
54 86 107
51 83 104
50 83 105
52 85 106
50 82 103
53 85 106
51 83 105
52 84 105
53 85 106
53 85 106
52 85 106
52 83 104
52 84 105
55 86 107
53 84 105
50 81 103
52 85 106
52 82 103
51 84 105
52 84 105
51 82 103
53 84 105
52 84 105
52 83 104
50 83 104
51 83 104
51 83 104
52 83 104
53 85 106
49 82 103
53 84 104
53 85 106
51 83 105
51 83 105
50 81 102
52 83 104
52 83 104
54 85 106
51 82 104
51 83 103
53 84 106
51 83 104
51 83 104
52 83 105
50 82 104
51 82 104
51 83 104
50 82 103
51 83 104
49 80 100
53 85 106
51 82 103
51 82 103
51 83 105
50 82 104
48 81 102
51 83 105
53 83 102
52 84 105
49 81 102
51 82 103
50 81 102
52 84 105
52 82 102
53 84 104
51 83 104
53 84 105
52 83 104
48 80 101
51 82 103
50 81 102
51 82 102
50 81 101
50 81 102
52 83 103
50 81 102
50 82 103
51 82 104
49 78 98
50 80 101
50 81 102
48 79 99
49 78 98
48 78 99
49 80 101
50 80 100
50 80 100
48 79 100
47 76 96
53 82 102
48 78 97
48 78 98
44 70 87
43 61 72
38 55 65
38 56 68
42 60 71
40 57 69
37 55 67
45 64 77
42 61 73
43 61 74
40 58 69
36 53 64
43 61 73
37 53 64
38 55 66
38 55 67
41 59 70
39 58 71
39 56 67
37 54 66
38 56 68
40 58 70
42 60 73
46 64 76
43 62 74
44 62 74
39 57 69
36 54 66
35 52 64
42 60 73
47 66 78
43 62 74
44 62 74
42 60 72
44 63 75
40 58 70
42 61 73
37 54 65
42 61 73
41 58 70
43 61 72
42 61 73
42 60 73
42 60 73
39 57 68
36 54 66
41 58 70
43 63 76
43 61 73
46 65 77
40 58 69
42 61 73
43 61 72
42 61 74
47 66 79
42 60 72
41 60 72
39 57 69
44 63 75
43 61 73
40 58 70
44 63 76
37 55 67
38 56 68
43 61 74
38 56 68
40 59 72
43 62 74
43 62 74
46 65 78
40 58 70
37 54 66
42 61 73
43 62 74
45 64 77
43 61 73
41 59 71
40 59 71
37 55 66
39 57 68
42 60 72
42 61 74
41 59 71
38 55 66
36 53 65
40 58 71
41 60 72
44 63 75
40 57 69
42 60 72
46 65 77
36 54 65
40 58 70
42 60 72
39 56 68
43 63 76
39 56 68
34 51 62
41 58 70
39 57 69
39 57 69
38 56 68
39 56 68
43 62 74
38 55 66
39 55 66
39 56 68
44 68 84
44 73 92
50 79 99
50 80 100
49 78 98
50 78 97
50 78 98
51 81 101
49 80 100
49 81 102
52 82 102
51 81 102
48 80 101
49 81 101
51 80 99
50 81 101
52 83 103
50 80 100
50 82 102
49 80 100
48 79 100
51 81 101
50 81 101
51 83 104
49 79 100
50 82 103
50 81 101
50 82 103
50 80 101
52 83 104
51 83 104
51 82 103
50 80 101
53 83 104
52 83 104
52 82 102
51 82 103
50 81 102
51 83 105
50 82 104
52 84 105
51 82 102
52 83 104
52 83 104
51 83 105
52 84 106
51 81 102
49 80 100
51 83 104
51 83 104
50 83 104
51 83 104
52 84 105
50 83 105
52 83 105
51 82 103
51 83 103
51 83 104
53 84 104
51 83 105
51 84 106
50 82 104
54 86 107
51 83 103
54 85 106
53 84 105
53 85 106
52 84 106
52 83 105
48 82 104
51 83 105
52 84 105
54 85 105
54 85 106
52 84 105
53 85 106
52 84 106
53 84 105
52 84 105
53 84 105
53 85 106
52 84 105
53 85 106
53 85 106
52 84 105
52 84 105
54 86 107
53 84 106
52 84 106
50 83 104
52 84 105
53 85 106
53 85 106
53 84 105
51 83 105
53 85 106
53 85 106
53 84 105
54 85 106
53 84 105
54 85 106
53 85 106
53 85 106
53 85 106
53 84 105
52 84 105
54 85 106
54 85 106
54 85 106
52 84 106
51 83 104
52 84 105
53 84 105
53 85 106
53 85 106
52 84 106
53 85 106
52 84 106
51 84 105
53 84 106
51 83 104
51 84 106
53 84 105
52 84 105
55 86 107
54 86 107
53 85 106
53 85 106
51 84 106
52 85 106
51 84 106
52 84 106
52 84 105
54 86 107
53 85 106
52 84 105
53 85 106
51 84 106
53 85 106
52 84 106
53 85 106
53 85 106
53 85 106
53 85 106
52 84 106
53 85 106
54 85 106
53 84 105
52 84 105
51 84 105
52 85 106
50 83 104
53 85 106
51 83 105
52 83 104
52 84 106
53 84 105
53 85 106
52 84 105
54 85 106
51 84 106
52 84 106
54 86 107
54 85 106
52 84 106
53 85 106
54 85 106
52 84 105
53 85 106
53 84 105
53 84 105
52 84 106
52 84 105
53 84 105
52 84 105
52 84 105
52 84 105
54 86 107
52 84 105
53 85 106
52 84 106
51 84 106
53 84 105
51 84 106
52 84 106
53 85 106
54 85 106
52 84 105
53 84 106
54 85 106
52 84 106
51 83 105
52 84 105
51 84 106
51 84 105
52 84 106
54 85 106
52 83 104
52 84 105
53 85 106
51 84 106
53 85 105
53 84 104
50 82 103
53 84 105
51 83 105
53 84 105
50 82 104
50 82 102
51 84 106
55 86 106
52 84 106
53 85 106
53 85 106
51 83 104
51 82 103
53 84 105
53 84 104
51 83 104
51 83 104
52 84 105
52 84 105
52 84 105
52 84 106
51 83 105
52 84 105
51 83 104
54 85 106
53 84 105
51 83 105
53 85 106
50 82 103
53 85 106
54 85 106
54 85 105
53 85 106
52 84 105
50 83 104
51 83 103
52 84 105
50 82 102
51 82 103
54 85 106
51 82 104
51 83 104
51 82 103
51 82 103
50 82 103
50 82 103
51 83 104
49 80 102
53 84 105
49 80 102
53 84 105
51 82 103
52 83 104
49 80 101
54 85 105
50 83 105
50 82 102
51 83 105
51 82 103
50 81 102
50 81 102
51 82 103
49 79 100
52 83 104
50 81 102
49 80 101
48 78 98
48 80 101
49 80 100
50 81 102
50 80 99
50 78 98
51 81 101
49 80 101
48 79 100
48 79 99
48 79 99
49 78 97
48 77 95
50 82 103
50 79 99
47 78 98
48 79 100
51 81 100
48 78 98
50 80 101
50 80 101
49 78 97
46 76 95
47 76 95
48 77 96
37 58 71
39 56 68
42 60 72
42 60 73
40 57 68
41 58 70
41 58 70
37 54 66
38 56 68
41 59 71
39 56 67
41 59 71
40 58 70
41 58 70
38 55 66
36 53 64
40 59 71
39 56 68
37 55 68
45 65 77
41 60 73
48 67 80
45 64 76
42 59 71
41 59 71
38 56 68
41 59 70
39 57 69
37 55 66
40 57 69
44 62 74
39 57 69
38 56 67
41 60 72
42 60 72
42 61 73
38 55 67
41 60 73
37 56 68
41 60 72
42 60 73
41 59 72
39 57 68
38 56 68
38 56 68
41 60 72
40 58 70
36 53 64
40 58 70
35 52 63
43 63 75
40 58 71
41 60 72
43 61 73
37 55 67
42 60 73
44 61 73
41 58 70
38 56 68
39 56 67
38 56 67
41 58 70
45 63 75
40 57 69
43 61 74
40 59 71
41 59 71
40 57 69
40 57 69
38 56 67
42 60 73
39 58 71
44 63 76
41 59 71
42 60 72
41 58 70
42 60 72
39 57 69
42 60 72
41 60 73
39 57 69
39 57 69
40 58 70
39 57 69
41 59 71
37 54 66
40 58 69
39 57 69
35 53 64
38 55 67
47 66 79
36 53 64
38 56 68
38 56 68
42 61 74
39 57 68
38 56 67
41 59 71
39 57 69
40 57 68
35 52 63
42 59 71
43 61 73
40 57 68
35 51 61
41 60 73
49 78 98
47 77 98
48 77 97
49 77 96
50 80 101
48 78 97
46 75 94
48 78 99
50 79 99
49 80 100
48 80 101
49 79 100
49 79 99
48 78 98
50 79 99
49 80 101
49 78 98
48 77 97
51 81 102
47 78 99
49 81 101
49 80 101
49 80 101
50 81 102
50 80 101
51 83 104
49 79 100
49 81 102
51 81 102
50 80 100
49 81 102
51 81 101
49 81 103
50 82 104
50 82 102
52 83 103
53 83 103
53 84 105
52 83 104
50 81 102
52 84 105
50 82 103
51 82 103
52 83 104
51 83 104
53 83 103
52 83 104
52 83 104
52 83 104
52 83 104
52 83 103
52 83 104
52 83 104
52 83 103
53 84 104
52 84 105
53 84 105
51 83 104
53 84 105
52 84 105
52 84 105
52 84 106
52 83 104
50 83 105
51 83 104
52 84 106
51 83 104
51 83 104
51 83 104
52 83 103
52 83 103
51 83 105
50 82 104
49 82 104
54 85 106
52 84 106
52 85 106
51 83 105
51 84 105
53 84 105
51 83 105
53 85 106
50 83 105
52 84 106
52 84 105
52 84 105
52 84 106
52 84 106
51 83 105
50 83 104
54 85 106
54 85 106
53 85 106
52 84 106
51 84 105
54 85 106
54 85 106
53 85 106
52 84 105
53 85 106
54 85 106
54 85 106
53 85 106
52 84 105
53 85 106
54 85 106
53 85 106
50 83 105
53 85 106
51 83 105
52 84 104
53 85 106
53 85 106
52 84 106
52 85 106
51 83 105
53 84 105
54 85 106
54 85 106
52 84 105
53 85 106
54 85 106
54 85 106
52 84 106
52 84 106
55 86 107
52 84 106
52 84 105
51 83 105
53 85 106
50 83 104
53 85 106
54 85 105
51 84 106
52 84 106
53 84 105
51 84 105
53 85 106
52 85 106
53 85 106
51 83 104
51 84 106
54 85 106
54 85 106
52 84 105
51 84 105
52 85 106
52 85 106
53 84 105
53 85 106
55 86 107
52 84 106
52 84 105
52 84 106
50 83 105
53 85 106
52 84 106
54 85 106
53 85 106
53 84 106
54 85 106
51 84 106
52 84 106
52 84 105
52 84 105
54 85 106
54 86 107
54 85 106
52 84 105
53 85 106
55 86 107
52 83 104
55 86 107
53 85 106
54 85 106
50 83 105
52 84 105
52 84 106
51 83 105
52 85 106
51 83 104
52 84 105
53 84 105
53 85 106
54 85 106
51 84 106
51 84 106
52 84 105
53 85 106
54 85 106
54 85 106
52 84 105
51 84 106
52 84 105
52 84 105
51 83 105
55 86 107
52 84 106
54 85 106
50 82 103
54 85 106
53 84 105
51 84 106
52 84 105
52 84 105
51 83 105
51 83 105
52 85 106
51 83 105
53 84 104
52 84 105
51 83 104
54 85 106
54 85 106
54 85 106
52 84 105
52 83 104
53 84 105
50 83 104
53 84 105
51 82 104
51 83 104
53 85 106
52 84 105
51 83 104
51 82 103
52 83 104
53 84 105
51 82 103
54 85 105
50 81 102
52 83 104
52 84 105
50 82 104
53 84 105
52 83 104
50 80 101
51 83 104
50 82 103
51 83 103
53 84 105
51 83 104
50 82 104
51 83 104
52 82 103
52 84 105
51 83 104
51 83 103
52 84 104
51 82 103
51 82 102
50 83 104
53 84 104
52 83 104
51 82 103
51 82 103
50 81 102
51 82 102
51 82 102
51 82 103
52 83 104
50 80 101
49 79 98
52 82 102
51 82 102
51 83 103
51 81 101
50 81 102
49 80 101
48 80 100
51 81 102
48 80 101
52 81 101
50 82 103
50 80 100
50 80 100
49 81 102
50 81 102
49 79 98
51 79 98
51 81 101
52 83 103
50 80 99
48 78 98
47 76 94
49 79 99
49 78 97
50 79 99
47 76 95
48 76 94
48 78 98
49 77 96
51 82 102
51 81 101
48 76 95
42 61 73
36 52 63
42 59 71
36 54 65
40 58 69
41 60 72
40 57 68
39 56 67
41 60 73
37 54 65
39 56 68
39 57 69
42 61 73
43 62 74
39 57 69
39 58 70
45 63 75
43 62 75
40 57 69
39 57 70
38 56 67
41 58 70
44 62 75
40 58 70
42 59 71
41 59 72
42 60 73
36 52 64
39 57 69
40 57 69
40 58 70
37 54 66
39 57 69
40 59 71
39 57 69
40 57 68
45 63 76
39 57 69
40 57 69
37 54 66
39 57 69
44 63 76
40 57 69
40 58 70
46 64 77
40 58 70
38 54 66
42 59 71
40 57 68
44 63 75
40 57 69
41 59 71
41 59 71
41 58 70
41 60 72
38 55 67
40 58 70
39 56 68
36 53 64
37 54 66
40 58 70
44 62 75
42 60 73
40 58 69
42 61 73
43 62 74
37 54 65
40 58 70
42 61 73
41 60 72
42 61 74
42 61 74
41 59 70
40 59 71
41 60 73
42 61 74
41 59 71
44 62 75
42 61 74
41 59 71
42 60 72
40 58 70
44 62 74
38 55 67
43 61 73
44 62 74
39 57 68
41 60 72
40 58 70
43 62 75
36 53 64
43 61 73
37 54 65
36 53 64
41 59 71
41 58 69
41 58 69
36 53 65
36 53 65
37 55 68
37 53 64
41 59 71
37 55 66
37 54 66
46 75 95
46 73 91
48 78 99
52 81 100
49 80 101
48 77 97
47 76 96
48 79 99
48 78 99
50 78 97
49 81 101
49 80 101
50 79 99
48 78 98
47 77 96
49 79 99
49 81 102
51 82 103
51 83 104
53 83 103
50 81 102
51 81 101
52 83 103
50 80 100
50 81 101
53 83 104
50 80 101
50 79 99
51 81 102
53 84 104
51 82 103
49 78 98
50 81 102
50 81 102
51 81 100
50 82 103
49 81 102
51 81 101
51 82 102
51 82 103
52 83 103
50 80 101
50 80 100
52 84 105
51 81 102
51 82 103
51 82 103
49 79 99
52 83 104
50 81 102
51 83 105
51 83 105
50 81 101
54 85 106
52 84 105
52 84 105
51 82 103
51 83 104
51 83 105
50 82 104
53 85 106
53 84 105
53 84 105
54 85 106
54 85 106
51 82 102
50 82 103
50 81 101
52 84 105
49 81 103
49 80 101
51 84 106
52 83 105
55 85 105
53 85 106
51 83 104
52 83 104
50 83 105
52 82 103
53 84 105
52 83 104
51 84 106
52 84 105
52 84 105
51 84 105
51 83 104
52 83 104
52 84 106
52 84 105
52 84 105
54 85 106
50 82 104
53 84 105
51 84 105
51 83 104
52 83 104
53 85 106
52 84 105
52 84 105
52 84 106
51 83 105
54 85 106
52 84 106
51 83 105
51 83 105
53 84 105
51 84 105
52 84 105
52 84 106
51 84 106
54 85 105
53 85 106
54 85 106
52 84 105
54 85 106
51 84 106
52 83 105
54 85 105
51 84 106
51 84 105
54 85 106
53 85 106
54 85 106
53 85 106
53 85 106
55 86 107
52 84 105
51 84 105
53 85 106
51 83 105
54 86 107
53 85 106
53 85 106
51 83 105
54 85 106
53 85 106
52 84 105
55 86 107
52 85 106
53 85 106
52 84 105
52 85 106
53 85 106
51 84 106
51 84 106
52 85 106
52 85 106
53 85 106
53 85 106
54 85 106
51 83 105
52 84 106
51 83 105
52 84 105
54 86 107
55 86 107
54 85 106
52 85 106
52 84 105
51 84 106
53 85 106
53 85 106
51 83 105
52 84 106
55 86 107
53 85 106
52 84 106
52 84 105
52 84 106
53 85 106
53 84 105
55 86 106
52 84 105
53 85 106
52 84 106
51 84 105
51 83 104
49 83 105
51 83 105
52 85 106
52 84 105
53 85 106
52 84 106
51 84 106
53 84 105
52 84 106
53 84 106
53 85 106
52 85 106
51 82 103
52 84 105
53 84 105
53 85 106
52 84 105
52 84 105
53 84 105
53 85 106
51 84 105
52 84 106
52 84 105
54 84 105
52 84 106
53 85 106
49 82 104
52 84 105
51 84 105
51 84 106
53 84 104
53 84 105
53 85 106
52 84 105
53 84 105
53 84 105
51 83 104
53 84 105
52 83 104
52 83 103
53 85 106
51 84 106
51 83 104
50 82 103
51 84 105
55 86 106
52 83 104
51 83 105
51 84 106
50 82 104
53 84 105
52 83 104
52 84 105
52 83 104
52 83 104
55 86 106
51 83 104
53 84 104
51 84 105
52 83 104
51 83 104
54 84 105
51 83 104
53 85 106
52 83 103
52 84 104
51 82 102
52 83 104
52 83 104
52 83 104
52 84 105
49 80 101
49 82 103
53 84 104
51 82 103
51 82 103
53 84 105
51 82 103
50 81 102
49 82 103
49 81 102
49 80 100
51 82 102
50 79 99
51 81 102
48 80 101
49 80 100
51 82 103
52 84 105
51 81 100
50 82 104
50 81 102
51 82 103
50 82 104
50 80 101
50 81 101
50 80 100
49 79 100
49 80 100
50 79 99
49 79 99
48 78 98
50 81 102
51 80 99
49 79 98
48 79 100
49 79 99
47 76 95
50 80 100
49 79 99
48 77 97
50 79 98
49 79 100
49 78 97
48 77 97
48 75 93
48 77 96
49 77 96
47 76 96
43 68 85
38 55 67
39 57 68
37 54 65
38 56 68
37 54 65
37 54 65
41 59 71
44 64 77
36 52 63
41 59 71
37 53 64
41 60 72
40 58 71
38 55 66
33 49 60
41 58 69
42 61 73
40 59 71
38 56 67
38 54 65
39 57 70
43 62 75
41 58 70
42 60 72
38 55 66
42 60 73
40 56 67
42 59 71
42 60 72
46 64 76
36 53 64
40 58 70
41 59 72
39 56 67
39 57 69
38 55 67
44 61 73
41 58 70
38 55 67
39 57 68
39 57 68
40 58 70
40 58 70
41 58 70
39 57 69
40 57 68
47 66 78
39 57 68
39 57 70
43 62 75
41 59 71
42 60 72
37 56 68
42 61 74
39 58 70
40 59 71
45 64 76
35 52 63
39 56 67
38 54 65
39 56 68
40 59 71
41 60 73
39 57 69
41 59 71
37 55 67
46 64 76
37 55 66
39 58 70
42 60 73
39 57 69
38 56 69
37 55 67
39 57 69
40 58 71
41 58 69
39 56 68
37 54 66
43 62 74
39 56 68
41 60 72
38 55 67
41 59 71
40 58 70
38 54 65
36 52 63
42 59 70
43 62 75
37 54 65
40 58 69
37 54 65
39 56 68
40 58 70
38 56 68
38 56 67
39 58 70
43 61 73
38 56 68
35 53 65
34 50 61
38 55 66
36 53 65
46 72 89
48 76 95
44 71 89
49 80 101
49 78 98
48 76 95
49 80 100
50 79 98
51 80 100
51 82 103
50 79 98
49 78 97
48 76 95
49 80 100
51 80 100
50 81 101
51 81 101
49 78 98
49 79 99
48 79 99
51 80 100
52 83 104
52 83 104
48 77 96
51 80 100
51 82 103
51 82 103
49 79 99
49 80 101
51 82 102
52 82 102
50 81 102
51 82 103
51 81 101
53 84 104
50 82 104
52 83 104
52 83 103
48 81 102
49 80 100
53 84 105
51 83 104
52 82 102
53 85 105
50 81 102
50 82 103
51 82 103
50 81 102
49 80 100
49 81 102
49 81 102
51 82 102
52 84 105
50 81 102
52 84 105
53 84 105
50 82 103
52 84 105
54 84 105
51 84 105
50 82 103
51 83 104
50 82 104
50 82 103
52 83 104
50 82 103
53 85 105
51 84 105
51 83 104
51 83 105
52 83 104
52 83 104
52 84 105
52 84 105
51 83 105
51 83 104
53 84 105
51 82 103
54 85 106
51 83 104
51 83 104
51 83 104
52 84 105
53 85 106
51 83 105
51 84 105
49 81 102
51 84 105
52 83 105
53 85 106
51 82 103
52 83 104
51 84 105
52 84 106
51 83 104
52 83 105
52 84 105
52 84 106
51 83 105
52 84 105
52 84 105
55 86 106
53 85 106
52 84 105
52 84 105
53 85 106
52 84 105
52 84 105
52 83 104
52 84 106
53 85 106
53 85 106
53 85 106
52 84 105
51 83 105
53 85 106
51 83 104
52 85 106
53 84 106
53 85 106
51 84 105
50 83 104
53 85 106
52 84 106
53 85 106
52 84 106
52 84 106
51 83 104
54 85 106
53 85 106
54 86 107
53 85 106
53 84 105
53 85 106
53 85 106
53 85 106
54 86 107
54 86 107
53 85 106
53 85 106
52 84 105
53 84 105
53 85 106
54 85 106
51 84 106
52 84 106
53 85 106
55 86 107
52 84 106
51 84 106
53 85 106
52 84 106
54 86 107
52 85 106
54 86 107
52 85 106
50 83 105
53 85 106
53 85 106
53 85 106
53 85 106
52 84 106
51 83 105
51 84 106
52 84 106
52 83 105
51 84 106
54 85 106
54 86 107
53 85 106
54 85 106
52 84 105
52 84 105
51 83 105
52 84 106
52 84 106
51 83 104
52 84 105
52 84 105
52 84 105
51 84 105
52 83 104
52 83 104
54 85 106
53 84 105
52 83 104
50 83 105
52 84 105
52 84 105
53 85 106
52 85 106
52 83 105
53 85 105
52 84 105
52 84 106
54 85 106
52 84 105
52 84 105
52 84 105
53 85 106
52 84 106
51 83 104
53 84 104
51 84 105
52 84 106
52 83 104
53 84 105
51 83 104
51 84 105
50 83 104
51 83 105
52 84 105
51 83 104
52 83 104
52 83 104
54 85 106
50 82 103
52 84 105
55 85 105
51 82 103
51 83 104
54 85 106
55 86 106
52 83 103
53 83 103
51 83 104
52 83 104
53 84 105
50 81 102
50 83 105
52 83 104
52 84 105
51 82 102
50 80 100
53 84 105
52 82 102
51 82 103
52 83 104
52 83 104
52 83 104
51 83 104
51 82 103
50 81 102
51 83 105
53 84 105
51 81 101
52 82 103
51 83 103
50 81 102
53 84 104
52 84 105
52 84 105
50 82 102
51 82 103
51 82 102
51 82 102
49 81 102
52 84 105
53 84 106
50 81 102
50 80 100
51 82 103
48 77 97
49 81 102
50 81 101
48 79 100
51 82 103
51 81 102
50 82 103
49 79 99
51 82 103
46 75 95
51 81 102
50 80 100
50 81 101
47 76 96
48 79 100
46 77 97
48 78 98
50 80 101
49 78 97
51 79 99
48 78 98
50 79 98
48 77 97
48 78 98
49 78 97
47 76 95
48 78 97
43 71 90
47 75 94
52 81 100
49 77 96
46 73 91
49 77 96
43 71 90
47 74 91
48 76 95
41 64 80
35 52 63
32 49 60
39 56 68
39 56 67
36 52 63
38 55 67
40 57 68
39 57 69
36 52 63
41 59 71
41 59 71
36 53 63
43 62 74
41 58 70
39 57 68
38 55 67
36 54 65
39 56 68
40 58 70
42 60 73
41 58 69
42 59 71
37 54 65
34 49 59
41 59 71
36 53 65
40 58 69
41 59 71
39 56 68
36 54 66
43 61 73
40 57 68
39 57 69
40 58 70
40 57 68
42 60 72
34 50 61
38 56 67
41 59 71
38 57 69
42 59 71
41 58 70
40 58 71
37 54 66
40 57 69
43 61 73
39 57 68
40 58 71
42 61 73
41 58 70
35 52 63
40 57 69
40 59 72
43 61 73
40 57 69
40 59 71
42 60 71
39 57 69
37 55 67
42 60 72
40 58 70
43 62 74
41 59 71
39 57 70
36 52 62
38 56 68
36 54 65
41 59 71
42 61 73
38 55 66
38 55 66
41 59 71
43 62 74
44 62 75
41 58 70
36 53 65
41 58 70
39 56 67
36 54 66
42 60 72
40 57 69
41 59 70
43 61 73
44 62 74
43 61 74
37 55 67
40 57 69
40 58 70
34 50 61
38 55 67
39 57 68
42 60 72
34 49 59
38 55 67
36 53 64
36 52 63
38 55 66
38 54 65
38 55 67
34 50 61
45 68 83
45 72 89
48 78 97
49 78 97
47 75 94
46 75 94
49 76 94
44 71 88
51 81 100
45 74 93
49 78 98
48 78 97
48 77 97
49 78 97
48 79 99
51 80 99
50 78 97
48 77 97
46 73 91
48 78 98
46 75 94
48 79 100
51 82 102
48 78 98
53 83 103
49 79 99
50 80 99
50 81 102
49 81 102
49 79 100
49 79 99
50 81 102
50 82 102
52 82 103
48 79 100
49 82 104
51 83 103
52 82 102
54 84 104
50 81 101
50 82 104
50 81 102
51 83 104
51 82 102
52 82 102
49 80 100
49 81 102
49 81 102
51 82 103
53 85 106
52 84 105
52 83 105
52 83 104
52 83 104
49 80 102
52 83 103
51 82 103
51 84 106
50 82 104
54 85 106
50 83 105
53 84 104
52 84 105
50 83 105
53 85 106
53 85 106
50 82 104
50 82 104
52 83 104
53 84 105
52 84 105
51 82 104
53 85 106
52 84 105
51 84 105
50 82 104
52 84 105
51 82 103
52 84 105
50 83 104
51 82 103
52 83 104
53 85 106
52 84 105
52 83 104
50 81 102
52 84 105
53 84 105
51 83 104
50 83 105
53 83 104
52 84 105
52 84 105
52 84 105
50 82 104
53 84 105
52 84 105
53 85 106
53 84 105
55 86 106
51 83 105
50 83 104
51 83 104
51 84 105
52 84 106
55 86 107
52 84 105
51 84 105
54 85 106
52 83 104
54 86 107
51 83 105
52 83 104
51 84 106
52 83 103
52 84 105
52 84 106
54 85 106
52 84 106
54 86 107
51 83 104
52 84 105
52 84 106
52 84 105
52 84 105
53 84 105
52 84 106
50 83 105
52 84 105
51 84 106
53 84 105
53 85 106
53 85 106
51 83 104
52 85 106
51 84 106
52 84 105
53 85 106
52 83 104
52 84 105
53 85 106
54 85 106
50 83 105
54 85 106
52 84 106
52 84 106
51 84 106
51 84 106
53 85 106
53 85 106
53 84 105
52 84 106
54 85 106
54 86 107
52 84 105
52 84 106
52 84 105
52 84 104
52 84 105
52 84 106
53 84 105
54 85 105
55 86 107
54 85 106
52 84 105
52 84 105
53 85 106
54 85 106
52 84 105
53 85 106
49 81 103
52 84 106
52 83 105
52 84 105
52 84 105
52 84 105
51 83 104
54 85 106
51 83 105
49 82 103
52 84 105
53 85 106
51 84 106
53 85 106
53 83 104
54 85 106
52 84 106
51 84 106
51 83 105
52 84 106
51 83 104
50 82 104
55 86 107
52 84 105
51 84 105
52 83 104
51 82 103
54 86 107
52 84 106
50 83 105
51 83 105
50 82 104
53 85 106
52 84 105
52 83 104
50 82 104
51 83 104
52 83 104
54 85 105
51 84 106
53 84 105
51 83 105
51 82 103
52 83 104
53 84 104
53 84 105
51 84 105
52 83 104
52 84 105
54 85 105
51 83 105
53 85 106
52 84 106
51 82 103
52 83 104
51 83 104
50 83 105
51 83 104
50 82 103
50 81 102
51 83 104
50 82 103
52 83 103
52 84 105
51 83 104
52 81 101
52 83 104
51 82 103
50 81 102
53 85 106
52 82 103
49 81 102
52 84 105
50 81 102
51 83 104
50 82 104
54 85 106
52 83 103
49 79 100
53 83 104
51 82 103
52 83 104
52 83 103
51 82 102
51 82 103
51 82 102
53 83 102
49 81 102
50 81 101
49 81 101
49 79 100
51 81 102
48 79 100
50 81 101
51 82 103
51 81 102
48 77 97
50 80 101
48 79 100
51 81 102
47 78 99
46 76 96
49 79 98
50 80 101
52 82 102
49 79 99
48 78 98
49 79 100
50 79 98
49 79 99
48 76 95
49 79 99
47 77 97
49 78 97
47 77 96
47 76 95
48 78 98
47 77 97
49 77 96
47 76 95
48 76 95
48 76 95
46 74 92
47 73 91
46 74 93
44 72 90
44 70 88
49 76 94
45 73 91
46 74 92
41 62 75
39 55 66
39 56 68
36 52 63
39 56 67
38 55 66
35 51 62
39 56 68
40 58 70
42 59 71
37 53 64
36 54 66
34 50 61
36 53 64
38 55 66
41 58 70
38 56 68
37 54 65
38 55 66
41 58 70
40 57 69
37 55 67
40 58 71
39 57 68
43 60 72
34 49 60
34 50 61
38 56 68
40 58 69
37 54 65
40 58 70
42 59 71
44 62 74
45 64 77
36 53 64
39 58 70
40 58 70
38 56 67
41 58 70
40 58 69
41 59 71
37 54 65
42 60 72
41 59 71
37 55 67
42 60 72
36 53 64
39 56 68
41 60 73
34 51 63
41 58 70
42 60 72
37 53 64
42 60 72
37 54 65
37 55 67
45 63 75
41 58 69
43 60 71
37 55 67
39 56 68
39 57 69
39 56 67
40 58 69
35 52 64
42 59 71
37 54 65
41 59 71
37 54 65
36 54 66
42 60 73
37 54 65
41 59 71
38 55 66
39 56 68
37 55 66
36 54 65
40 58 70
39 56 67
37 54 66
34 50 60
37 55 66
41 58 70
41 58 70
36 53 64
37 53 64
38 55 66
37 54 64
34 51 62
36 53 65
36 53 64
40 58 69
36 53 64
38 56 68
39 55 67
35 51 61
42 58 70
40 57 69
37 52 63
39 60 75
43 69 86
47 75 94
47 76 95
48 76 95
46 72 89
48 76 95
49 78 97
48 77 96
46 75 94
45 72 90
47 74 92
48 75 93
43 70 87
49 79 99
44 73 92
46 75 95
48 78 98
48 79 100
49 79 99
49 80 100
47 75 94
51 81 102
50 80 100
49 79 99
47 78 99
46 76 96
49 79 99
49 80 100
49 79 99
49 80 100
51 82 102
48 79 100
49 79 100
48 79 99
49 80 101
47 77 98
49 81 102
49 80 100
51 82 103
51 82 102
52 82 102
51 81 101
50 82 103
51 83 105
48 79 99
51 80 100
50 80 100
51 81 102
49 81 102
48 80 102
51 82 103
51 82 103
50 82 102
51 82 102
50 81 101
51 82 103
51 82 102
50 81 103
51 82 103
52 84 106
51 81 101
51 83 103
50 82 104
52 83 104
51 83 103
51 83 104
51 83 104
53 85 106
50 82 103
53 85 106
52 83 103
53 84 104
51 83 104
52 83 103
49 81 103
54 85 105
52 84 105
52 84 106
49 80 101
51 82 103
51 83 103
52 83 104
52 83 103
51 83 104
54 85 106
53 84 105
52 84 105
51 83 105
51 84 105
53 85 106
53 84 105
51 83 104
53 84 105
51 83 105
52 83 104
49 80 101
53 84 105
52 84 105
51 83 105
53 85 106
53 83 104
51 83 105
54 85 106
53 84 105
52 85 106
52 84 106
53 85 106
52 84 105
52 85 106
51 83 104
52 84 105
52 84 105
51 83 104
52 84 106
52 83 104
52 84 106
52 84 105
52 84 105
51 84 106
52 83 104
54 85 106
52 85 106
50 83 105
54 85 106
52 84 106
53 85 106
53 84 105
54 85 106
51 83 105
50 83 105
53 84 105
52 84 105
55 86 107
52 84 106
53 85 106
51 84 105
53 85 106
50 82 103
53 85 106
52 85 106
52 84 105
52 84 106
54 85 106
53 85 106
52 84 105
53 85 106
51 84 105
53 85 106
52 84 105
50 83 105
52 84 105
53 85 106
53 84 106
53 85 106
53 85 106
53 85 106
52 84 106
53 85 106
51 84 106
52 84 106
52 84 105
53 85 106
54 85 105
56 87 107
52 84 105
52 84 106
53 85 106
53 85 106
52 84 106
52 84 104
52 83 105
52 83 104
54 85 106
52 84 106
54 85 106
52 84 106
53 85 106
50 82 104
54 85 106
53 85 106
52 84 106
51 83 104
54 86 107
52 84 105
54 85 106
52 84 106
52 84 106
53 85 106
53 85 106
53 84 105
54 86 107
52 83 104
52 83 104
52 84 105
53 85 106
53 84 105
53 85 106
52 84 106
53 85 106
52 84 105
51 83 104
50 82 103
52 85 106
52 84 105
51 83 104
51 82 102
51 83 104
52 83 104
51 83 104
50 83 105
52 83 104
53 84 105
53 85 106
53 85 106
52 84 105
51 83 105
52 84 105
53 83 103
50 82 104
52 84 105
52 83 104
53 84 105
52 84 105
51 82 102
52 83 103
50 83 105
51 82 104
52 83 104
52 83 104
52 84 105
52 83 103
52 83 103
51 83 104
52 84 105
51 83 105
53 84 104
52 83 103
51 82 103
53 84 105
50 82 104
49 81 102
52 82 102
51 82 103
49 80 101
53 83 103
51 81 101
54 85 106
53 84 105
51 83 104
53 83 103
50 80 101
51 82 103
51 83 104
52 84 105
52 84 105
47 77 97
48 79 99
49 80 102
50 80 100
50 82 103
51 82 103
51 82 102
50 81 101
49 79 99
49 80 101
51 83 104
49 78 98
51 82 102
50 80 100
50 80 101
49 79 99
49 81 102
49 79 100
49 79 98
48 78 98
52 81 101
46 75 94
52 83 103
48 77 97
46 75 94
49 78 98
47 75 94
46 74 92
47 75 94
50 78 97
49 80 100
49 77 96
49 78 96
48 76 96
47 74 93
46 74 92
50 80 100
45 73 92
48 77 96
42 68 85
44 70 87
45 73 91
46 73 92
43 70 87
45 72 90
49 75 93
42 62 76
34 50 60
37 54 64
40 58 69
33 49 60
41 59 71
33 49 60
38 55 66
39 56 67
35 52 63
38 54 65
34 51 62
39 55 67
35 51 62
39 56 68
40 57 69
37 53 64
41 59 71
40 57 68
36 53 64
40 58 70
42 58 69
42 60 71
39 56 68
41 59 71
39 56 68
40 58 71
42 60 72
36 53 64
34 51 62
40 57 69
38 54 65
40 58 70
37 54 65
39 57 70
40 57 68
43 62 74
38 55 66
44 64 77
37 53 64
40 57 69
38 55 66
39 56 68
40 57 69
40 57 68
40 57 69
37 54 65
45 63 75
37 54 65
41 59 71
45 64 76
40 58 70
45 64 76
41 60 72
36 54 65
37 54 66
39 57 69
42 60 71
42 61 73
35 51 62
39 57 69
41 60 72
39 57 69
38 56 68
37 54 66
40 58 69
37 54 66
35 52 63
40 58 70
40 59 71
37 54 65
42 59 71
42 60 72
35 52 63
40 58 70
34 50 62
38 55 66
39 56 68
36 53 64
41 59 71
38 56 67
42 60 72
38 56 67
40 57 69
32 49 59
38 55 66
45 64 76
40 56 67
33 49 60
40 57 69
32 48 58
37 55 67
36 52 62
35 52 62
37 54 65
34 51 62
33 48 58
38 58 71
45 73 92
47 75 94
47 74 93
47 76 94
47 74 92
46 74 93
44 70 88
45 73 91
49 79 100
46 73 91
49 78 98
48 77 96
45 73 93
46 75 94
47 77 97
49 78 98
48 79 99
48 77 97
47 76 95
50 82 103
50 79 99
49 77 96
51 82 102
48 78 98
46 76 96
50 80 100
48 79 100
50 79 99
51 81 100
49 79 98
48 78 97
49 80 101
49 80 101
46 75 95
50 80 100
47 78 99
51 81 102
50 80 100
50 82 103
50 80 100
52 82 102
52 83 103
50 80 101
51 82 102
49 79 100
51 83 103
50 81 102
49 81 102
48 80 100
50 81 102
51 81 101
52 83 104
49 79 99
49 80 101
50 82 103
52 82 103
52 83 104
50 81 101
51 82 102
50 82 103
50 81 101
54 85 106
52 82 103
48 79 100
51 81 101
51 84 105
53 84 106
52 84 105
52 83 104
51 82 104
51 82 103
51 83 104
54 85 106
52 84 105
52 83 104
52 84 106
50 82 103
53 84 105
53 84 105
52 84 105
52 84 106
52 85 106
52 84 105
54 85 105
51 83 104
51 82 103
52 84 106
53 85 106
51 83 105
53 84 105
52 83 104
54 86 107
51 82 104
51 83 103
50 83 105
55 86 107
54 85 106
51 83 104
52 84 105
53 84 105
51 83 105
51 84 106
52 84 105
52 83 104
53 85 106
53 84 104
53 85 106
51 84 105
51 83 104
52 84 105
50 82 103
52 84 106
51 83 104
51 83 105
53 84 105
53 85 106
52 84 106
52 84 105
55 85 106
52 84 105
51 83 105
53 85 106
54 85 105
52 84 105
51 83 105
54 85 106
53 84 105
52 84 105
52 85 106
52 84 105
52 84 106
51 84 106
55 86 107
52 84 106
53 85 106
51 84 105
53 85 106
53 84 105
53 85 106
53 84 105
53 85 106
55 86 107
51 84 106
53 84 106
53 84 105
53 84 106
51 83 104
52 85 106
53 85 106
51 83 105
54 85 106
53 85 106
51 84 106
52 84 105
53 85 106
54 85 106
52 84 106
54 85 106
53 84 105
51 84 106
52 84 106
53 85 106
50 83 105
51 84 106
53 85 106
51 84 106
49 82 103
52 83 104
54 85 106
54 85 106
52 84 105
53 85 106
53 84 105
50 82 104
50 83 105
54 85 106
52 84 106
51 84 105
52 84 106
53 85 106
53 84 105
55 86 106
52 84 105
51 84 105
53 84 105
52 84 106
56 86 106
51 83 105
50 83 104
52 84 106
53 85 106
53 85 106
54 85 106
51 84 105
51 83 104
51 84 106
48 81 103
53 84 105
52 84 105
52 84 105
53 85 105
54 86 107
51 83 104
52 84 105
51 83 104
51 84 105
53 84 105
52 84 106
51 82 103
52 84 105
50 81 102
52 85 106
48 81 102
50 82 103
52 84 105
51 83 103
52 83 104
52 83 104
52 84 104
51 83 104
52 83 103
53 84 105
51 83 104
49 80 101
52 83 104
53 84 105
52 83 104
53 84 105
53 84 105
52 84 105
52 83 103
51 83 104
52 84 105
49 81 103
51 83 104
51 82 103
50 81 103
51 83 103
52 84 105
52 84 105
54 84 103
50 81 101
50 81 102
50 82 104
51 82 102
51 83 104
51 82 103
51 81 102
50 82 103
52 83 103
51 81 102
49 80 100
50 82 103
50 83 104
49 81 101
51 82 103
51 82 102
51 81 101
49 80 100
51 82 102
49 80 102
51 81 101
48 80 101
51 81 101
50 81 102
51 82 103
48 77 97
51 82 103
48 77 96
49 80 101
49 79 99
50 78 98
47 78 99
45 74 93
50 81 101
46 76 96
50 80 100
50 80 100
51 82 102
47 77 97
46 75 95
50 80 99
48 76 95
47 76 95
47 75 94
47 76 96
46 73 91
48 77 97
46 73 90
45 74 93
46 75 93
46 73 92
47 74 93
44 72 91
46 74 92
45 72 90
49 77 96
42 69 87
47 75 93
45 72 90
47 74 92
45 72 90
44 71 88
35 53 64
35 51 61
39 55 66
36 53 64
38 55 66
38 54 65
38 56 68
41 58 70
36 53 65
40 58 69
36 52 63
39 56 68
34 50 60
39 57 69
35 51 62
40 57 68
37 53 64
39 56 68
39 56 68
38 55 66
37 54 66
41 58 70
40 58 70
39 56 67
41 58 69
38 56 69
42 60 73
42 60 71
35 52 64
43 60 72
39 56 68
42 60 71
43 62 74
34 51 62
41 59 71
38 55 67
41 58 69
39 57 69
37 54 66
41 59 71
38 55 66
39 56 68
43 61 73
38 55 66
34 50 61
38 56 68
35 52 64
38 56 67
42 60 72
42 60 73
37 54 65
41 59 71
40 58 70
41 60 72
45 62 74
38 56 67
33 50 61
39 57 69
39 56 68
40 58 70
41 59 71
42 61 74
39 57 68
39 55 67
40 57 69
39 56 68
39 56 67
40 57 69
42 60 72
41 60 72
34 52 63
40 57 68
39 57 70
41 59 70
38 55 66
41 58 70
36 52 63
37 55 67
37 54 65
38 54 65
40 57 68
39 55 66
41 59 71
35 51 62
39 56 68
42 59 70
35 51 62
37 56 68
37 54 65
32 47 58
40 58 70
34 51 62
40 57 69
34 50 61
34 49 60
39 58 70
45 70 87
46 73 92
47 75 93
43 69 86
46 73 92
45 72 90
47 75 93
43 69 86
47 75 95
48 78 97
47 74 92
46 74 92
49 78 97
47 75 94
47 75 94
48 78 98
48 78 98
50 80 100
49 79 98
47 76 95
48 77 96
48 77 96
50 79 98
49 79 99
48 79 100
45 73 91
48 78 98
48 78 98
49 80 101
49 78 97
50 79 99
50 80 101
48 78 99
52 82 102
51 82 103
49 77 96
49 78 97
49 79 100
48 81 102
50 81 101
49 81 102
52 83 104
51 82 103
49 80 101
52 83 104
51 82 103
52 83 104
51 82 103
52 83 104
49 81 101
52 84 104
52 84 104
49 81 102
51 82 103
50 82 103
49 80 100
50 81 102
50 81 102
49 79 100
50 81 102
50 82 103
53 84 105
48 79 99
50 81 101
51 83 104
51 83 104
51 83 104
50 81 101
49 80 101
50 82 103
49 80 101
51 82 103
51 82 103
50 82 103
50 81 103
50 81 102
55 85 105
54 86 107
51 83 104
51 82 103
51 82 103
52 84 105
53 84 105
53 85 106
51 83 104
53 85 106
53 83 104
51 83 105
52 84 105
52 84 105
53 84 106
51 83 104
51 83 105
54 85 106
52 83 104
54 85 105
52 83 104
51 82 103
52 83 104
52 84 105
53 84 105
51 83 105
52 84 106
55 86 107
51 83 104
53 84 105
54 85 106
52 84 105
52 84 104
53 84 104
51 83 104
52 84 105
53 85 106
52 84 105
51 83 105
52 84 106
50 83 105
52 84 105
53 85 106
52 84 105
50 83 105
51 82 103
49 83 105
51 83 104
54 85 106
53 85 106
53 85 106
51 83 104
52 84 105
52 84 106
53 85 106
52 84 105
53 85 106
54 85 106
51 83 104
52 84 105
52 84 106
52 84 105
53 85 106
52 84 105
50 82 104
52 84 105
51 83 105
54 86 107
53 84 105
51 83 105
54 86 107
54 85 106
54 85 106
54 85 106
53 85 106
51 83 105
53 84 106
52 84 105
53 84 106
55 86 107
53 85 106
50 83 105
53 85 106
52 84 106
53 85 106
54 86 107
51 84 106
51 83 105
51 83 105
53 85 106
53 84 105
51 83 105
51 83 105
50 83 104
54 85 106
53 84 105
54 84 104
52 83 104
52 84 105
53 85 106
51 83 104
53 84 104
54 86 107
52 83 104
52 84 106
52 84 105
50 83 104
53 85 106
53 85 106
53 84 105
51 84 106
52 84 106
52 84 105
51 83 104
51 83 105
53 84 105
51 83 105
53 84 105
52 83 103
52 84 106
51 83 105
51 83 104
53 84 106
50 82 103
51 84 106
53 85 106
52 83 104
54 85 106
52 83 104
52 84 105
53 85 106
52 83 105
53 84 105
52 84 105
52 84 105
52 83 104
51 82 103
53 84 106
50 81 101
49 81 103
51 83 105
52 83 104
52 84 105
52 83 104
53 85 106
50 81 103
50 82 103
52 83 103
52 84 106
51 82 103
54 86 107
51 83 103
51 82 103
51 83 103
51 82 103
50 81 101
50 81 102
49 78 97
52 83 104
53 84 104
51 82 103
52 83 103
50 81 101
51 81 102
50 81 101
49 81 102
52 83 103
51 82 103
51 81 102
50 81 101
51 82 103
51 82 103
51 81 101
51 82 102
49 79 99
48 80 101
50 80 100
50 80 100
50 81 102
53 83 103
52 83 103
51 81 101
51 82 103
50 79 98
49 79 99
50 80 100
51 82 103
49 80 100
50 79 99
49 79 99
50 80 101
49 78 97
51 81 100
48 79 99
49 79 99
48 78 98
51 80 99
52 83 103
50 79 99
49 79 99
48 78 98
48 79 100
46 75 95
49 80 100
47 75 93
47 77 96
48 77 96
50 79 98
46 76 96
46 74 92
51 80 99
47 75 94
45 74 93
44 71 89
45 73 91
44 69 85
45 72 89
45 73 92
47 72 89
45 73 92
48 76 95
47 75 94
41 67 84
42 68 85
42 67 83
46 71 88
43 69 86
42 65 80
41 66 83
32 49 60
34 50 60
37 54 64
34 50 61
39 55 67
40 57 68
37 53 64
33 49 60
35 52 63
38 55 67
40 57 68
35 51 62
37 53 65
40 58 69
42 59 70
35 51 62
31 47 57
38 54 65
38 55 67
35 52 64
35 51 63
41 58 69
34 51 62
43 61 73
39 56 67
38 55 67
35 52 63
43 61 73
42 60 72
40 58 70
36 54 65
38 55 67
38 54 65
44 61 73
41 59 71
34 51 62
36 53 64
37 54 65
38 56 67
38 56 68
37 54 66
39 57 69
39 57 69
37 53 64
38 55 66
36 53 64
36 54 65
39 57 68
39 56 68
44 62 75
40 57 68
45 64 77
39 57 68
39 57 69
38 55 66
39 56 67
38 55 66
39 57 69
40 58 70
38 55 66
37 54 65
39 56 68
40 57 69
36 53 64
39 56 67
43 61 73
38 55 66
42 60 72
37 53 64
40 57 69
40 57 68
40 57 69
37 53 64
32 49 60
38 55 66
37 54 65
38 55 67
35 51 62
39 57 68
36 53 64
39 57 68
37 54 66
36 52 63
41 58 69
35 50 61
33 49 59
39 55 66
35 52 62
38 54 65
33 49 59
33 48 59
34 50 60
38 54 65
36 53 65
46 73 91
47 73 89
46 72 89
46 73 91
44 70 88
45 72 90
44 70 87
46 74 93
48 78 98
47 75 94
45 72 90
48 76 94
44 71 89
45 74 92
44 71 89
47 75 93
47 75 93
46 75 95
46 74 92
47 75 94
48 76 94
46 75 95
46 76 96
50 80 101
49 78 97
50 78 97
49 79 99
47 76 96
48 78 98
47 76 96
50 79 99
50 79 98
47 75 94
48 79 99
51 81 101
48 78 98
48 79 99
48 76 95
48 78 98
49 80 101
53 84 104
51 82 103
48 79 99
49 80 100
47 79 100
53 83 103
49 80 101
52 83 103
51 82 102
51 82 102
51 82 104
52 82 103
50 81 101
49 80 101
52 83 103
51 81 102
52 82 102
50 80 100
52 83 104
49 80 101
50 82 103
49 79 99
52 84 105
52 84 105
52 83 104
51 81 101
51 83 104
52 83 103
51 83 104
49 81 102
53 84 105
50 82 102
52 84 105
51 83 105
52 83 104
52 83 104
51 82 103
51 83 104
51 82 103
53 83 104
50 82 104
51 82 103
51 83 104
52 84 105
52 82 103
52 84 105
54 85 106
53 84 105
54 85 105
53 85 106
53 84 105
54 85 106
53 84 105
50 82 104
53 84 105
52 83 104
54 85 105
51 83 105
54 84 104
53 83 104
52 84 105
52 84 106
52 84 105
51 83 104
52 85 106
53 85 106
52 84 106
52 84 106
52 84 105
50 82 103
51 84 105
52 83 103
51 83 104
52 84 105
53 84 105
51 82 103
53 84 104
50 83 105
52 84 105
52 84 105
51 83 104
53 84 104
53 85 106
51 84 105
55 86 107
51 84 106
52 84 104
52 84 105
54 85 106
52 84 105
53 84 105
51 84 106
52 84 105
54 85 105
51 83 104
52 84 105
53 85 106
51 83 105
53 85 106
52 84 105
53 84 106
52 84 105
52 84 105
53 85 106
50 83 105
51 83 104
53 84 104
53 85 106
52 85 106
53 85 106
49 81 102
53 85 106
53 84 105
54 85 106
53 85 106
53 85 106
53 85 106
55 86 107
54 85 105
53 85 106
53 84 105
52 84 105
54 86 107
53 84 105
53 84 105
52 84 105
54 85 105
51 83 104
53 85 106
51 84 105
52 84 105
51 83 104
51 83 105
52 84 106
52 84 105
53 84 106
53 85 105
51 84 106
53 84 105
53 85 106
53 85 106
53 85 106
51 84 105
53 85 106
54 85 106
50 82 104
53 84 105
53 85 106
51 83 104
54 84 105
51 83 105
54 85 106
53 84 105
52 85 106
54 85 106
50 82 104
53 84 105
53 84 105
51 84 106
52 84 105
52 83 104
53 84 105
50 82 103
51 83 105
51 83 104
53 84 106
53 84 105
50 82 104
51 82 103
51 82 102
52 83 104
51 83 104
52 85 106
50 81 102
51 83 104
53 85 105
53 84 104
51 83 104
52 83 104
52 83 104
49 80 101
52 83 104
51 83 104
51 82 102
52 84 105
49 81 103
51 83 104
51 81 102
54 85 106
52 83 104
51 83 104
52 84 105
51 82 102
52 83 104
54 85 105
51 82 103
51 82 102
51 84 105
50 82 103
48 81 102
50 81 101
48 79 100
50 81 101
50 82 103
52 83 103
51 81 102
52 82 102
54 84 104
51 83 104
50 82 103
52 84 105
51 80 100
53 85 106
50 81 102
52 82 102
49 79 99
48 78 98
51 81 101
50 81 101
51 82 102
51 80 100
49 80 100
52 82 102
51 82 103
49 79 98
48 76 95
49 79 99
50 80 100
50 81 102
49 79 99
46 75 95
48 78 98
50 80 100
50 81 102
51 81 101
48 75 94
48 78 97
48 77 96
47 76 95
49 78 97
46 75 95
47 74 93
45 74 93
48 78 97
46 74 92
48 78 97
46 74 93
47 75 94
45 74 93
45 72 91
47 74 93
46 74 92
49 78 97
43 70 88
46 72 90
44 70 87
44 70 88
47 74 92
44 71 89
46 73 91
43 69 85
40 64 80
42 67 84
40 64 81
40 64 80
43 69 86
45 71 88
35 52 64
36 52 64
32 48 58
35 52 63
39 54 65
37 53 63
38 55 67
39 57 68
37 54 65
35 50 61
38 54 65
44 62 74
39 56 67
35 51 63
38 55 67
38 54 65
38 56 68
37 55 66
37 54 65
35 52 64
34 51 61
37 54 66
38 54 65
36 52 62
38 56 67
37 54 65
42 60 71
40 57 68
35 52 63
40 57 68
36 53 64
39 57 68
34 51 62
44 62 73
41 58 69
37 56 68
36 53 64
37 55 67
38 54 65
40 57 69
37 53 64
37 55 67
34 50 61
36 53 64
38 55 66
34 51 61
34 51 63
36 53 64
37 54 66
40 58 70
38 55 67
37 54 66
43 61 73
39 56 68
39 56 67
39 56 67
34 50 60
38 55 67
38 55 66
43 61 72
37 54 66
37 54 65
39 56 68
34 51 61
40 58 70
38 53 64
33 49 60
39 56 67
38 55 66
39 57 69
39 57 68
36 54 66
33 49 60
37 54 65
32 48 58
41 59 70
40 58 70
37 55 67
39 56 68
42 59 71
35 51 62
35 51 61
31 47 58
39 56 67
36 52 63
38 55 66
35 50 61
40 55 66
32 48 58
35 51 62
39 56 67
38 55 66
42 66 81
43 68 84
44 71 89
46 72 90
48 75 92
43 67 84
45 70 87
44 70 88
47 72 90
46 71 88
47 76 95
45 72 90
46 74 92
45 72 90
46 75 93
47 74 93
46 73 91
45 73 92
42 70 88
45 73 91
47 76 96
49 80 101
46 73 92
47 76 96
46 74 94
46 74 93
47 76 95
46 75 95
47 76 95
48 74 92
48 77 96
49 79 99
48 77 96
49 80 101
52 81 101
49 79 99
46 75 94
49 79 99
49 78 97
48 78 98
49 78 98
48 79 99
49 79 99
49 80 100
48 78 98
48 80 101
50 81 102
51 82 102
50 79 98
50 81 102
50 79 99
50 81 102
52 82 102
49 79 100
51 82 103
51 81 101
49 78 98
51 82 103
49 79 100
50 80 100
49 79 99
51 82 102
52 84 105
51 82 103
52 82 103
50 81 101
52 82 102
50 81 101
50 82 103
50 81 101
54 85 105
50 81 102
51 84 105
50 82 103
51 82 103
53 83 102
53 84 104
52 83 105
50 82 103
52 83 103
52 84 105
49 81 102
51 83 104
51 83 104
51 83 105
51 82 103
50 82 103
51 82 103
53 85 106
49 81 103
51 84 105
51 83 104
48 79 100
52 83 104
50 80 101
50 82 103
54 85 106
53 84 104
51 82 103
53 85 106
51 83 104
52 83 104
50 83 105
54 85 105
52 84 105
52 84 105
53 85 106
51 84 105
52 83 104
53 84 105
52 84 105
53 85 106
53 84 106
52 84 105
52 83 105
52 85 106
52 84 106
54 84 105
52 84 105
52 84 105
51 82 103
54 85 106
53 84 105
52 84 106
48 80 102
52 84 105
51 84 106
52 84 106
52 84 106
53 84 105
53 85 106
52 84 105
52 84 105
51 84 105
53 85 106
52 84 105
53 85 106
51 84 105
52 83 104
53 84 105
52 84 106
53 85 106
54 85 106
52 84 106
52 84 105
55 86 107
54 85 106
53 85 106
55 86 107
50 83 105
52 84 106
53 84 105
53 84 105
52 84 105
49 82 104
51 83 105
51 84 105
52 84 106
53 84 105
49 82 104
54 85 106
52 84 106
51 83 105
53 84 105
54 85 106
51 83 104
52 84 106
53 85 106
53 85 106
52 84 105
52 83 105
51 83 104
51 84 106
51 82 103
52 84 105
50 83 104
51 83 104
54 85 106
51 84 105
52 84 105
53 85 106
52 84 105
52 83 104
51 83 105
52 83 104
52 84 106
53 84 104
53 84 105
53 85 106
50 83 105
53 84 104
54 84 105
53 84 105
51 83 104
51 83 105
52 83 104
50 83 104
53 85 106
52 82 103
53 84 104
53 84 105
52 84 105
51 83 105
51 83 105
52 84 105
50 82 103
53 85 106
53 84 105
51 83 104
52 84 105
52 84 105
52 83 104
53 85 106
51 83 104
51 83 105
50 82 103
49 80 101
53 84 105
53 85 105
51 83 104
52 84 105
51 83 105
53 85 106
52 84 105
52 83 104
49 80 101
52 83 103
51 83 104
53 84 105
49 82 103
51 84 105
51 83 105
51 82 103
52 83 104
52 84 105
51 81 102
52 83 104
53 84 105
49 80 101
50 79 99
53 85 106
50 81 101
50 81 101
52 83 104
49 81 102
52 83 104
51 82 102
49 80 101
52 82 102
50 80 101
53 85 106
51 82 103
52 83 104
51 83 105
51 82 102
48 78 98
47 76 96
49 80 100
50 82 102
50 80 99
50 81 102
51 82 102
51 81 101
50 81 101
50 79 99
51 82 102
49 77 96
49 79 99
51 81 101
48 77 97
49 79 100
49 79 100
48 80 101
48 78 97
47 76 96
49 79 99
49 80 100
47 76 95
50 79 98
48 76 95
45 73 91
49 79 100
47 75 95
49 79 99
45 72 90
47 76 95
42 70 89
47 75 93
48 77 97
46 73 90
47 75 94
42 69 87
46 73 91
46 74 93
47 74 92
44 71 90
46 73 90
45 72 90
45 73 91
45 72 90
44 69 86
46 73 91
45 70 86
44 69 86
45 71 89
42 67 83
40 63 78
42 64 79
39 61 76
35 52 63
35 51 62
36 51 61
30 45 55
37 53 64
36 52 62
37 53 65
34 50 61
36 52 63
37 52 63
37 54 65
34 48 58
38 54 65
37 54 65
36 52 63
42 58 70
42 59 71
38 54 65
35 52 62
39 57 69
35 52 62
35 51 62
40 57 69
34 51 62
37 53 64
35 52 63
41 59 71
37 53 64
35 50 60
39 54 65
36 52 63
38 55 66
38 55 66
39 56 67
34 49 60
32 48 59
38 56 67
38 55 67
35 52 63
34 49 59
38 55 67
37 54 65
36 52 63
38 55 67
38 55 66
42 60 71
39 55 67
41 59 71
38 55 66
39 56 68
37 55 66
35 51 61
35 53 64
39 56 67
39 56 67
35 51 63
35 50 61
38 55 65
39 56 67
36 52 63
35 52 63
35 51 62
42 59 71
38 54 65
37 54 66
40 58 70
34 51 62
34 51 62
40 57 69
36 53 64
36 53 65
35 50 60
35 51 62
32 48 58
38 54 65
34 50 61
36 52 63
40 56 67
33 49 60
38 54 66
38 56 67
37 53 64
39 55 66
36 52 63
36 52 63
36 52 63
36 53 65
37 54 65
38 54 65
35 52 64
41 66 82
41 63 78
41 65 81
41 65 82
42 66 82
44 69 86
43 69 86
43 68 85
45 71 88
46 74 93
43 69 86
47 73 91
46 73 91
46 72 90
45 71 89
47 74 92
48 76 95
46 74 92
45 73 91
46 73 91
43 70 88
46 75 94
46 75 94
48 77 96
46 72 89
47 75 95
45 72 89
47 74 92
44 72 91
48 76 94
47 76 96
45 73 92
49 79 98
52 81 100
48 77 97
51 80 100
49 79 99
47 76 96
48 78 98
49 80 101
51 80 100
49 80 100
49 79 98
50 80 100
47 77 97
47 77 97
47 76 95
49 79 98
52 84 104
48 81 102
48 78 98
49 79 100
50 81 102
50 81 101
51 81 102
50 81 101
52 82 102
50 81 102
51 81 101
49 80 100
50 81 101
52 83 104
52 82 103
51 83 105
51 81 102
52 82 103
50 81 102
51 83 104
53 83 104
50 81 101
50 80 101
52 82 102
50 81 101
51 82 103
52 84 105
53 83 103
51 84 105
51 82 103
52 84 105
52 82 103
51 82 102
49 79 99
53 84 105
51 82 103
53 83 103
51 83 104
50 82 103
53 85 106
49 81 102
54 84 105
52 83 103
54 84 104
52 84 106
52 85 106
49 81 102
52 83 103
53 83 103
50 82 103
53 83 103
53 84 104
49 81 102
52 84 106
53 84 105
52 83 104
50 83 104
53 85 106
50 82 103
53 85 106
53 84 105
52 84 105
51 82 104
53 85 106
51 84 106
51 83 104
52 84 105
54 84 104
52 84 105
51 84 105
50 82 103
53 84 105
52 84 106
52 84 105
51 83 104
51 83 104
52 84 105
53 83 103
54 85 106
53 84 105
52 84 106
51 83 104
53 83 104
51 83 104
51 84 106
53 85 106
52 85 106
52 85 106
52 84 106
53 84 105
53 84 105
55 86 107
52 84 106
52 84 105
52 85 106
52 83 104
54 85 106
51 84 106
53 85 106
51 84 106
51 84 106
52 84 105
53 84 105
54 86 107
53 85 106
54 86 107
53 84 105
53 85 106
53 85 106
54 85 106
53 85 106
54 85 105
51 83 104
52 84 105
51 84 105
53 85 106
53 84 105
53 85 106
52 85 106
52 84 105
52 83 105
51 83 105
51 82 103
51 82 103
54 85 106
53 84 105
50 83 105
52 84 105
53 84 105
53 85 105
51 83 105
54 85 106
53 84 105
52 84 105
51 83 104
52 84 105
52 83 103
51 84 106
52 84 105
53 84 105
52 83 103
52 83 104
52 83 105
51 82 103
51 83 105
53 84 106
51 83 104
51 83 104
51 83 104
51 83 103
52 83 105
51 83 104
54 85 106
51 83 105
52 83 103
52 84 105
50 82 104
54 85 105
52 84 105
51 84 105
52 84 105
51 82 102
50 82 104
53 84 105
52 83 104
52 84 105
51 81 101
51 82 103
52 82 103
52 83 104
51 83 104
53 84 105
53 84 105
52 83 104
52 83 104
51 82 103
50 81 102
50 81 101
51 81 102
50 81 102
51 82 103
51 83 104
51 83 104
51 82 103
50 80 101
53 84 105
49 80 101
49 81 101
52 83 103
52 83 103
49 79 100
50 82 103
53 84 104
52 82 102
50 82 103
51 82 103
51 80 100
49 81 102
52 81 101
52 83 103
52 82 102
46 76 95
52 84 105
51 82 102
52 80 98
48 80 101
50 81 101
51 81 101
52 82 102
49 80 101
48 79 100
50 80 100
47 77 96
49 79 99
50 79 99
50 79 98
50 79 98
48 78 97
49 79 100
50 80 100
47 77 96
49 80 100
45 76 96
50 79 98
50 81 101
47 74 93
47 77 97
49 78 98
51 80 99
49 77 96
49 78 96
47 76 96
49 78 98
47 78 98
47 76 95
47 74 92
48 77 97
46 75 95
45 73 92
46 73 92
45 71 88
48 76 96
46 73 91
47 74 92
46 73 90
42 69 87
48 76 94
43 70 87
43 68 85
42 67 84
43 68 85
43 69 86
42 66 82
45 71 89
44 68 84
42 67 83
47 75 93
43 67 84
44 69 85
38 61 76
41 64 80
39 61 75
38 60 74
31 47 58
31 45 55
32 48 59
35 51 61
37 52 63
34 51 61
38 54 64
35 51 62
33 50 61
38 55 66
39 56 68
36 53 64
34 51 62
39 56 68
39 56 68
36 52 63
33 48 57
38 54 65
34 51 62
35 52 64
35 52 63
39 54 65
36 52 64
32 49 60
37 55 67
40 58 70
38 55 66
37 53 63
40 58 69
38 55 67
37 53 64
37 53 63
35 51 61
37 53 64
33 49 60
32 48 58
37 53 65
42 59 71
34 50 61
36 54 65
44 62 74
34 51 63
35 52 64
39 56 66
40 58 69
39 56 67
32 47 57
41 59 71
38 55 66
35 52 63
39 55 66
38 54 66
37 54 65
39 56 67
37 54 65
37 54 66
36 52 62
33 49 60
38 54 65
36 53 65
37 53 63
38 55 66
40 57 69
39 56 68
34 50 61
36 52 63
38 54 65
44 63 75
41 57 68
36 52 63
36 51 62
37 53 64
34 50 61
37 53 64
41 59 70
36 52 63
35 52 62
39 57 68
38 54 65
35 50 61
37 54 66
37 54 65
37 54 66
30 44 53
31 45 55
32 46 56
32 47 57
32 48 59
41 64 79
45 70 86
41 65 81
41 64 79
41 65 81
43 66 82
45 70 86
44 69 86
41 65 81
45 70 87
43 69 86
43 70 89
45 71 88
46 74 92
45 71 88
47 76 96
44 71 89
46 73 91
47 75 94
46 72 90
46 73 91
47 75 94
48 76 95
43 70 88
47 76 96
45 72 89
47 75 94
45 72 91
46 74 93
48 78 98
48 77 96
51 81 101
49 78 98
47 76 96
46 75 95
47 78 98
46 77 97
48 78 98
49 79 99
47 77 97
47 77 98
49 80 101
49 80 100
50 80 99
46 75 94
50 80 100
51 82 102
51 83 104
48 79 99
47 78 98
49 79 99
48 79 99
51 82 102
49 81 102
51 83 104
51 82 102
51 82 103
49 79 99
50 80 100
50 80 100
51 81 101
51 82 103
52 82 103
51 81 102
52 83 103
51 81 102
50 80 100
53 84 105
52 83 104
50 80 100
50 81 102
51 83 105
52 83 104
52 83 103
50 82 102
51 83 104
53 84 105
50 82 103
51 82 102
52 83 104
49 81 101
53 84 104
50 82 103
50 81 102
51 82 103
53 84 105
49 82 104
51 82 103
52 83 103
53 84 105
50 81 102
51 83 105
49 81 102
52 83 104
51 83 104
52 83 104
49 81 103
51 83 103
51 83 105
53 83 104
54 85 106
53 83 104
50 82 103
51 83 104
50 82 103
51 83 104
53 84 105
50 82 103
52 83 103
50 82 103
51 84 105
52 84 105
54 85 105
50 82 103
53 84 105
52 84 105
53 84 104
52 84 106
52 84 104
51 84 105
52 83 104
52 85 106
51 82 103
53 84 105
52 84 105
51 83 104
51 83 104
51 83 104
53 84 105
53 85 106
51 84 106
51 83 104
52 84 106
51 83 105
52 84 105
52 84 105
50 82 103
53 84 104
51 82 103
53 83 104
52 84 105
53 85 106
53 84 105
53 85 106
52 84 105
51 83 105
53 85 106
54 86 107
51 83 104
52 84 105
52 84 106
53 84 106
54 85 106
51 83 104
51 84 106
53 83 104
52 84 106
50 83 104
52 84 105
52 84 106
52 84 105
53 85 106
53 85 106
53 85 106
52 83 104
52 84 105
51 84 105
51 84 106
51 82 103
52 83 104
52 84 106
53 85 106
52 83 104
52 84 106
50 83 104
52 84 105
51 82 103
54 85 105
53 84 106
51 84 106
53 84 106
53 84 105
52 84 105
52 84 105
53 85 106
52 84 105
52 84 105
51 83 105
52 83 105
53 85 106
53 83 104
49 82 105
53 84 105
52 83 104
52 83 104
53 85 105
52 83 103
50 83 105
52 84 105
51 82 103
54 85 106
53 85 106
52 84 105
53 85 106
50 81 102
49 81 102
52 83 103
53 84 105
51 82 104
50 83 105
53 84 105
50 82 104
53 82 102
53 84 105
51 82 103
50 81 102
50 82 103
50 82 103
50 82 103
50 81 102
50 82 104
50 82 104
52 82 102
52 83 104
53 83 103
52 83 104
51 82 104
52 83 104
53 84 105
50 81 102
50 81 102
51 82 102
53 84 104
54 85 106
51 83 103
52 84 105
52 84 105
52 83 103
51 82 103
50 80 101
48 80 101
52 84 104
51 82 102
50 79 99
49 80 100
50 80 100
51 83 104
51 82 103
49 80 100
51 82 103
47 79 100
51 81 101
50 79 98
53 84 105
52 83 104
47 75 94
48 79 99
52 82 103
52 82 102
49 80 100
51 80 99
51 81 102
49 80 100
50 80 101
51 81 100
49 79 99
49 80 100
50 80 100
49 80 100
48 78 98
50 79 99
48 77 96
49 78 98
48 77 96
48 77 96
48 78 97
50 79 98
48 77 96
50 78 97
46 75 94
50 80 100
48 77 96
46 73 92
50 78 98
44 71 90
47 75 94
47 74 92
48 78 98
48 75 93
45 74 94
46 73 91
45 73 91
46 72 90
44 71 89
45 72 90
49 76 94
44 71 88
43 66 81
42 67 84
45 71 89
44 71 88
42 66 82
44 68 84
44 69 86
42 64 79
40 62 78
40 63 78
38 60 74
39 61 76
39 62 77
38 60 76
42 63 77
39 60 74
33 49 60
35 51 62
36 51 61
33 49 59
35 52 62
37 54 65
33 48 58
33 49 59
40 55 66
36 51 62
42 59 71
37 54 65
39 55 66
33 48 58
35 49 59
37 53 64
40 57 68
37 54 64
36 52 63
33 49 59
38 56 67
39 56 67
39 55 65
33 49 59
35 51 61
38 55 66
35 51 61
32 47 57
38 54 65
37 54 65
41 58 69
36 53 63
37 54 65
36 52 63
40 58 70
40 57 68
33 48 59
37 53 65
38 55 66
35 52 63
39 55 65
34 51 62
37 53 64
41 58 69
44 61 73
38 54 65
38 56 68
41 60 72
36 53 64
33 49 60
41 58 70
37 54 65
38 55 66
35 51 61
36 53 64
35 52 63
38 55 67
34 51 62
33 48 58
33 48 58
37 53 64
41 58 70
33 49 59
36 52 63
37 53 64
40 58 69
32 47 57
38 54 65
44 62 74
39 54 64
36 52 62
37 53 65
37 53 64
37 54 64
34 50 61
35 50 60
32 47 57
38 53 64
32 47 58
33 47 57
34 50 61
33 49 60
35 50 61
32 47 57
31 45 55
34 50 61
39 59 73
38 58 71
41 64 79
43 66 81
42 66 82
40 63 78
43 68 84
45 71 88
40 64 80
43 68 86
43 66 82
45 70 87
42 67 84
44 71 90
41 68 85
42 68 85
43 70 88
44 70 87
43 68 85
44 71 89
46 73 90
47 75 93
47 75 94
49 77 96
47 75 94
48 77 96
46 74 93
49 79 99
46 74 93
47 76 95
46 73 91
46 74 93
44 72 90
47 74 92
46 74 92
50 80 99
47 76 96
46 75 94
49 78 98
46 75 94
46 77 97
51 81 102
49 80 100
51 81 101
48 77 97
50 79 98
47 78 98
46 76 96
52 83 104
48 77 96
48 79 99
50 79 99
49 79 99
51 82 103
48 78 98
49 78 98
49 80 100
50 80 100
50 81 101
50 81 102
49 79 100
47 79 100
49 79 98
50 80 100
48 78 98
51 81 102
48 79 100
50 79 99
49 79 98
52 84 105
51 83 104
51 82 102
51 82 103
50 82 103
50 81 102
49 80 101
50 82 104
52 83 104
50 80 101
51 83 105
51 83 104
52 83 103
51 83 104
51 82 102
50 82 103
50 82 103
51 81 102
52 83 104
50 82 103
52 83 104
52 83 104
51 83 103
52 84 104
53 83 104
50 81 102
50 82 104
51 83 104
50 82 103
53 85 106
50 82 103
52 84 106
52 84 105
51 83 104
52 84 106
52 83 104
55 86 106
50 83 104
50 81 102
52 84 105
54 84 104
51 84 106
52 84 106
51 82 103
51 84 105
51 83 105
53 84 105
51 83 104
51 83 105
51 84 106
51 84 105
52 83 104
51 83 104
55 86 106
51 83 104
52 84 106
51 84 106
52 83 103
50 83 104
53 84 105
52 84 105
54 85 106
52 85 106
51 83 104
54 85 106
53 85 106
51 83 104
52 84 105
51 82 103
52 85 106
51 84 105
52 84 105
52 84 105
52 84 105
51 84 105
52 84 105
53 85 106
54 86 107
52 84 105
54 86 107
52 84 106
52 84 105
51 84 105
51 84 105
54 86 107
54 85 106
52 84 106
53 85 106
52 84 105
52 84 105
51 82 103
53 85 106
52 84 106
49 82 104
52 84 105
51 82 103
52 83 105
54 85 106
51 83 105
52 84 105
52 84 105
51 83 104
55 86 106
51 84 105
53 85 105
52 84 105
52 84 105
52 83 104
52 84 105
51 83 104
53 84 104
52 84 105
53 85 106
52 83 104
53 85 106
53 85 106
51 84 105
50 82 104
53 85 106
49 83 105
52 83 104
53 85 106
52 84 105
52 84 105
54 85 106
50 82 104
52 84 105
52 84 105
51 83 105
52 84 105
51 83 104
52 84 105
51 84 105
53 85 106
52 84 105
52 83 104
53 84 104
52 83 104
54 85 105
51 82 103
53 84 105
51 83 104
50 82 104
54 85 106
51 82 103
50 82 104
52 84 105
51 82 103
53 85 106
52 83 103
50 82 104
51 83 104
53 85 106
50 81 101
52 83 103
52 83 104
52 84 105
51 82 103
52 83 104
51 83 104
51 82 102
51 83 104
49 79 99
51 82 103
51 83 103
51 81 102
50 82 102
50 82 104
50 81 101
52 83 103
50 82 103
52 83 103
51 82 103
50 82 103
50 82 103
52 84 105
48 77 97
51 81 100
53 83 104
48 80 101
48 78 98
50 82 103
49 81 101
50 80 100
50 80 100
52 83 103
52 82 102
48 78 98
49 79 100
51 82 103
52 82 102
52 82 102
50 81 102
48 77 97
46 77 98
49 79 99
49 80 100
47 77 97
50 78 97
49 78 98
47 75 94
48 78 98
49 80 101
49 79 98
47 77 97
48 78 98
46 75 95
49 79 99
45 74 93
48 77 96
49 78 97
49 78 97
46 75 94
46 73 92
47 77 97
45 74 93
50 79 98
45 73 91
46 73 91
46 74 92
48 76 95
48 76 94
46 74 93
44 70 88
44 72 90
41 65 80
44 70 88
45 71 88
46 73 91
42 67 83
44 72 90
44 69 87
44 69 86
45 71 88
38 61 77
42 66 82
42 66 83
43 68 84
39 61 75
41 64 79
41 64 79
38 60 74
43 65 80
39 60 74
40 62 76
34 54 68
33 50 62
30 45 54
36 52 63
30 44 54
37 53 64
35 51 61
33 48 58
39 56 67
34 49 59
35 51 62
39 56 67
36 53 64
39 55 65
38 55 66
38 54 65
36 53 64
35 50 60
39 55 66
37 54 65
34 50 61
36 52 62
37 53 63
38 55 66
36 52 63
36 52 63
38 55 66
37 53 64
38 55 65
36 53 64
38 53 64
36 53 64
35 52 63
41 58 70
36 53 64
36 53 64
34 50 61
35 50 60
34 51 62
40 57 69
40 58 70
33 50 61
40 56 67
34 50 61
40 57 68
39 57 69
33 49 59
35 51 62
39 57 69
35 52 63
37 54 66
34 50 60
36 52 63
36 53 64
38 53 63
35 51 62
43 61 73
37 54 65
32 47 57
39 55 66
36 53 64
36 52 62
39 56 67
36 52 62
36 52 63
35 50 60
38 54 65
37 53 63
38 54 65
36 53 63
35 51 62
39 56 68
31 46 56
38 54 64
31 46 56
35 51 62
36 52 62
33 48 57
35 51 61
32 47 56
35 51 61
35 50 60
35 51 61
33 48 58
35 54 66
41 63 78
43 65 80
35 56 69
39 61 75
41 65 81
41 63 78
39 61 75
42 67 84
44 68 83
44 67 83
43 66 82
43 67 84
44 69 86
43 67 83
41 65 80
44 68 85
45 71 88
45 71 89
46 72 89
43 71 89
43 68 85
47 75 93
48 76 95
43 70 89
48 74 92
46 74 92
42 68 85
45 71 88
46 73 91
45 72 91
46 75 94
47 75 94
50 78 97
44 70 87
48 77 96
48 78 97
45 72 90
49 78 98
47 76 95
51 81 101
47 75 94
49 79 98
46 76 97
49 80 100
49 78 97
45 73 92
49 79 99
48 78 98
49 80 100
49 78 98
49 80 100
51 80 100
52 83 103
48 77 97
48 78 98
50 80 100
48 78 99
51 82 103
50 81 102
49 81 102
51 82 103
50 81 102
47 76 96
50 80 100
48 79 100
50 82 103
49 80 101
51 83 104
51 82 102
49 79 99
53 84 105
53 83 103
52 84 104
53 83 103
52 83 104
51 81 101
49 79 99
51 82 102
51 81 102
51 83 104
53 84 105
52 83 104
51 83 104
50 82 103
51 82 102
52 84 105
49 80 100
49 82 103
53 84 105
51 82 102
54 84 104
53 84 105
53 84 105
52 83 104
52 83 104
52 84 105
52 84 106
50 82 103
50 82 104
49 80 100
53 84 104
50 82 104
52 84 105
51 82 103
53 84 104
51 83 105
53 84 105
53 85 106
50 81 103
51 82 103
51 82 103
54 84 105
49 82 104
51 84 105
51 83 105
52 84 105
53 84 105
51 83 105
50 82 103
52 83 104
51 83 104
51 83 105
50 83 105
51 82 102
51 82 104
52 84 105
52 84 106
54 85 106
54 85 105
52 83 104
52 85 106
52 84 105
51 83 105
52 85 106
50 82 103
50 82 104
51 83 104
51 83 105
51 83 104
53 85 106
51 83 104
51 84 106
53 85 106
52 84 106
53 85 106
52 84 105
52 83 104
52 84 105
53 84 105
52 83 104
51 83 104
52 84 105
52 84 106
55 85 105
52 84 105
53 85 106
53 85 106
53 84 105
53 85 106
52 84 105
52 84 105
53 85 106
53 85 106
52 83 104
50 83 104
53 84 105
51 82 103
52 84 105
52 84 106
54 85 105
53 84 105
53 85 106
52 83 105
53 85 106
52 84 105
51 83 104
51 83 105
52 84 105
53 85 106
51 83 105
51 84 106
51 83 104
52 84 105
53 84 105
53 85 105
53 84 105
50 82 103
51 82 103
52 84 106
52 85 106
53 85 106
52 83 104
52 83 104
50 82 103
52 84 105
52 84 105
54 85 105
51 83 104
52 83 104
50 82 103
52 84 105
53 84 104
51 83 104
52 84 105
53 85 106
51 82 102
51 83 104
51 82 103
50 82 104
51 84 105
52 84 106
52 84 105
51 83 104
49 81 101
52 83 104
53 84 105
51 82 102
51 82 102
51 83 103
53 84 105
49 80 101
52 83 103
53 84 106
51 82 102
50 82 103
50 80 100
52 83 104
51 83 104
50 82 104
50 81 102
50 81 102
51 82 103
52 84 105
50 82 104
50 81 101
51 82 103
50 81 102
51 82 103
52 83 105
52 81 101
50 80 101
50 81 101
50 81 102
50 81 102
51 81 101
50 80 100
50 82 103
49 78 98
48 78 98
48 78 98
49 79 99
51 81 101
52 82 102
50 80 100
48 78 98
50 80 100
53 83 104
50 80 100
50 80 100
51 81 100
52 83 103
51 82 102
53 84 104
48 78 98
48 78 98
45 74 93
51 80 99
50 80 101
49 79 99
50 81 101
49 79 100
49 78 97
47 77 96
48 75 93
51 81 101
45 75 94
48 76 95
49 78 97
49 76 95
44 70 88
47 75 93
47 78 98
48 77 96
47 74 93
48 77 97
50 77 95
49 78 98
45 72 91
47 75 93
46 75 94
45 71 89
47 75 94
47 76 95
42 67 83
43 69 86
46 73 91
42 64 80
45 72 89
41 64 80
44 71 88
42 66 82
46 73 91
44 69 85
43 67 84
43 68 85
42 66 81
37 59 73
41 64 78
46 69 85
37 59 73
40 63 78
35 55 68
47 73 90
36 56 69
40 60 74
38 59 72
36 56 69
36 57 70
31 47 57
29 43 52
35 50 60
31 46 55
36 52 63
37 52 63
32 49 59
34 50 60
33 49 59
30 45 55
40 56 66
38 55 66
35 51 62
38 55 66
37 53 64
38 55 66
36 51 62
31 47 57
38 54 65
33 48 59
35 50 61
36 53 64
35 50 61
36 52 62
38 55 67
39 55 66
39 56 68
34 50 60
37 54 65
34 51 62
34 49 60
38 54 64
35 51 61
37 54 65
35 52 63
35 50 60
37 54 65
37 54 65
39 56 68
35 52 63
35 51 61
36 52 63
35 52 63
36 54 66
33 49 59
38 54 65
34 50 61
36 52 63
39 56 68
35 51 62
38 56 67
36 53 65
40 57 68
33 49 59
34 50 61
39 55 67
35 51 61
39 56 67
33 48 59
40 56 67
38 53 64
37 53 63
33 49 59
36 52 63
35 50 60
35 51 61
37 53 63
35 52 62
38 54 65
35 51 62
35 51 62
35 51 61
36 53 64
32 47 57
38 54 65
33 48 58
36 51 61
34 49 60
32 48 59
31 45 54
37 57 70
36 56 69
36 55 69
39 60 74
38 58 71
42 65 80
40 63 78
38 60 75
38 59 72
39 61 76
39 63 78
43 68 85
39 60 75
40 63 79
43 67 83
45 70 87
38 61 76
45 69 85
43 69 86
41 67 84
44 70 87
43 69 86
46 74 93
46 72 90
47 75 94
47 75 95
46 73 90
47 75 93
47 74 92
45 70 87
47 73 91
48 75 93
44 71 88
46 75 94
47 72 89
44 70 88
46 74 93
45 71 89
46 75 94
46 73 91
46 75 94
47 75 94
47 77 97
52 81 101
48 79 100
48 79 99
48 77 96
47 76 94
46 75 94
49 78 97
47 77 97
47 76 96
48 78 98
48 78 97
48 78 98
48 79 100
47 76 95
50 80 100
52 83 104
50 80 100
49 80 101
49 79 99
51 82 102
47 78 98
49 80 101
50 80 99
49 80 101
51 82 102
49 78 98
50 81 101
49 80 100
50 81 102
50 81 101
49 80 100
51 82 103
51 82 102
49 80 100
51 81 102
51 82 102
51 82 103
49 79 99
50 81 101
51 82 103
50 81 102
50 81 101
51 81 101
50 83 104
53 84 104
54 83 103
51 83 105
51 82 103
53 85 105
52 83 104
52 83 103
53 83 103
51 82 103
51 82 103
53 83 104
51 83 104
52 84 106
51 83 104
50 81 102
52 83 103
50 82 103
49 81 101
50 82 103
51 83 105
51 84 105
53 85 106
52 84 104
51 83 104
51 83 105
52 83 104
51 84 106
51 82 103
54 84 104
51 82 103
50 82 103
51 83 105
52 83 103
52 84 105
51 83 104
50 82 103
52 83 104
53 84 105
50 83 105
53 84 104
54 85 106
52 83 104
53 85 106
53 85 106
53 84 105
52 84 105
51 83 104
52 84 106
50 82 103
54 85 106
53 85 106
51 83 104
51 84 105
53 84 105
52 84 105
51 83 105
50 83 105
53 85 106
54 85 106
52 84 105
51 83 104
53 85 106
54 85 106
51 83 105
53 85 106
52 84 105
53 84 105
51 82 103
53 84 105
51 83 104
52 84 105
51 83 104
53 84 105
51 83 104
53 85 106
52 84 105
52 84 105
53 85 106
54 85 105
52 83 105
54 84 104
53 85 106
54 85 106
52 84 106
53 85 106
51 83 104
52 83 105
51 83 105
52 84 105
53 84 105
53 84 105
53 85 105
53 84 106
53 84 105
53 85 106
52 84 105
53 85 106
52 83 104
53 84 105
53 84 105
54 85 106
52 84 105
51 83 103
50 83 105
52 84 105
54 85 106
52 83 103
53 85 106
51 84 106
51 82 103
51 82 103
51 84 105
53 84 105
52 84 104
54 85 106
53 84 104
52 83 104
52 82 103
51 82 103
52 84 105
51 83 104
50 81 102
52 84 105
50 81 102
52 83 104
53 85 106
53 83 103
51 83 103
53 85 106
51 83 105
50 82 104
52 83 105
51 83 104
50 82 104
49 80 100
51 83 104
50 82 103
53 85 106
51 83 104
49 79 99
53 82 102
50 80 100
53 85 106
51 84 105
53 83 103
50 80 100
51 82 102
49 79 99
51 81 101
52 83 104
50 80 100
51 81 101
49 81 102
48 80 102
50 82 103
51 82 103
49 78 97
51 81 102
52 82 102
50 82 103
52 84 105
50 80 100
51 81 101
51 83 103
49 79 100
50 80 100
51 81 102
51 81 102
50 79 99
48 78 98
48 79 100
52 81 101
49 78 98
51 82 102
48 78 97
50 80 100
46 74 93
49 79 99
50 81 101
44 73 92
49 80 100
52 81 100
47 76 96
49 78 97
48 78 99
49 77 96
49 79 98
45 73 91
46 76 96
47 74 93
47 75 94
49 78 97
47 76 95
48 75 93
51 80 99
48 76 94
44 71 89
44 70 88
48 77 96
47 76 95
47 74 93
46 73 91
45 73 91
43 69 87
47 73 91
46 73 91
45 71 89
40 64 80
44 70 88
43 69 87
44 68 84
44 69 86
44 70 87
45 70 86
44 69 86
41 65 81
41 65 81
42 67 84
43 67 84
44 68 84
40 62 77
36 56 69
43 69 86
36 57 71
38 60 74
42 65 80
41 62 76
39 60 74
42 63 77
38 59 73
39 59 73
39 60 75
37 55 67
32 50 62
30 44 54
36 52 63
32 48 58
34 49 60
34 50 60
34 49 59
36 52 63
32 46 55
33 49 59
34 49 59
38 54 64
37 53 63
33 47 57
35 51 61
36 51 61
37 52 63
37 54 65
35 50 61
38 55 66
33 49 59
34 49 60
36 53 64
33 49 59
33 48 58
39 55 66
32 48 58
38 55 67
34 48 58
31 46 56
32 46 56
38 54 65
38 54 65
35 50 61
33 49 59
38 54 64
33 49 60
37 53 64
34 49 59
36 52 62
36 53 63
37 53 63
32 48 59
36 52 63
39 56 68
38 54 65
35 51 62
37 53 64
37 53 64
36 52 63
32 47 58
35 51 62
34 50 61
37 54 65
36 53 64
39 56 67
34 50 61
32 46 56
35 52 63
36 51 62
34 49 59
38 54 65
33 48 58
31 46 56
37 54 64
31 46 57
32 47 57
33 49 60
31 45 55
35 50 61
32 48 58
37 53 63
34 50 61
36 52 62
35 51 61
37 52 63
34 49 59
31 45 55
30 43 51
33 48 58
38 58 71
35 55 68
37 57 70
38 59 73
36 56 68
37 58 72
33 50 62
40 60 74
40 62 77
35 55 68
40 61 75
39 61 76
40 62 77
42 65 81
44 66 81
40 64 80
42 66 82
45 71 89
43 68 84
44 71 88
45 69 86
44 70 88
47 73 91
47 72 90
45 70 87
44 70 88
44 70 88
45 72 90
43 69 86
46 72 90
43 69 86
46 72 90
45 72 90
49 78 97
46 75 93
48 76 95
48 76 94
50 80 99
47 77 96
50 79 99
47 74 93
47 77 96
48 78 98
48 77 97
47 77 96
46 75 95
47 75 94
48 77 96
48 79 99
47 77 97
48 76 96
50 79 99
48 79 100
49 79 99
50 81 101
49 80 101
48 79 99
50 80 100
50 81 101
47 76 96
48 77 96
50 80 100
49 80 101
49 80 100
50 80 100
49 80 101
51 81 101
49 79 99
53 82 102
52 81 101
52 83 104
53 84 106
49 78 98
50 81 102
49 80 100
52 83 103
52 83 103
50 81 102
50 82 103
51 83 104
53 84 105
50 82 103
51 83 104
49 80 101
50 81 102
49 81 102
50 81 102
49 81 102
49 80 100
50 81 101
51 84 105
52 83 104
51 83 104
51 83 104
51 82 103
52 82 102
52 83 104
52 83 103
50 82 102
51 83 105
50 81 102
50 81 102
54 86 107
53 84 105
55 85 106
50 82 103
50 82 103
53 85 106
52 82 102
52 85 106
52 83 104
51 83 105
50 83 104
51 83 104
52 84 105
53 84 105
53 84 105
53 85 106
51 83 104
51 82 103
53 84 105
52 83 104
49 80 100
53 84 104
50 82 103
51 82 103
52 84 105
50 81 101
52 84 105
53 84 104
50 83 105
50 83 105
51 82 104
53 84 105
53 84 105
50 82 104
50 82 103
52 83 104
52 84 105
51 83 104
52 84 105
51 83 103
53 85 105
52 83 104
53 85 106
51 84 105
51 84 105
52 84 105
51 83 105
51 84 105
50 82 102
54 85 105
52 83 104
52 84 105
52 83 104
51 83 105
54 85 106
53 85 106
53 85 106
53 85 106
51 83 105
53 84 105
52 84 105
52 84 105
54 85 106
52 84 106
51 84 105
51 84 105
51 83 105
51 83 105
54 86 107
53 84 105
51 83 105
53 84 105
53 85 105
52 83 104
52 84 105
51 84 105
53 84 105
54 85 106
53 84 106
54 85 106
52 83 104
50 82 104
54 85 105
52 84 106
54 85 105
54 85 106
50 82 103
52 83 103
51 82 103
53 83 104
50 82 103
53 84 104
52 83 103
52 83 105
50 82 104
53 85 106
53 84 105
52 84 105
50 82 104
52 83 104
50 81 102
51 83 104
51 83 104
53 84 105
49 81 103
51 83 105
53 84 105
51 81 102
52 83 104
52 83 104
53 84 105
51 82 102
51 83 104
51 84 106
53 83 103
51 83 104
50 83 104
54 84 105
52 83 103
48 79 99
50 81 102
51 84 105
54 85 105
51 82 103
50 82 103
50 82 103
48 80 101
48 79 100
51 83 104
51 82 103
50 81 102
50 81 102
50 81 102
50 80 101
50 80 100
52 83 104
49 79 100
52 84 105
49 80 101
51 83 105
53 82 101
50 81 102
49 81 102
47 78 98
50 82 104
48 79 99
50 81 103
51 82 103
51 83 104
51 81 102
48 79 100
51 82 102
49 79 98
47 77 96
51 81 100
50 80 100
50 79 99
49 79 99
49 79 100
51 80 100
50 80 100
47 77 96
47 76 96
51 80 100
48 78 98
48 77 97
50 79 98
50 79 99
48 77 96
48 77 96
47 75 95
48 78 98
50 80 100
48 77 97
48 78 98
47 77 97
46 75 94
50 79 98
49 79 99
47 76 96
43 71 89
47 74 92
46 74 92
45 73 91
46 76 96
47 74 92
49 77 96
46 73 91
45 72 90
49 75 93
43 71 89
45 71 88
45 71 89
41 65 81
45 72 90
45 72 89
46 73 90
42 68 85
46 73 91
45 71 89
37 60 75
43 69 86
44 68 85
42 65 81
39 60 74
47 71 88
41 64 80
41 64 79
39 58 71
41 64 79
40 61 75
38 59 73
38 57 70
38 58 71
37 56 69
34 53 66
36 54 66
36 55 67
33 49 61
34 51 63
33 49 59
30 43 52
34 49 59
34 50 60
31 46 55
33 49 59
32 47 56
36 52 62
35 50 60
32 48 58
35 50 61
33 48 59
34 50 61
34 50 62
34 50 60
35 49 59
34 48 58
31 46 55
36 51 61
36 51 61
34 50 61
34 50 61
33 48 58
37 54 65
38 54 64
35 50 60
32 48 58
34 51 62
35 50 61
32 48 58
39 55 66
33 49 59
35 51 61
35 51 62
34 51 61
36 52 62
32 48 58
35 50 61
36 52 63
36 53 63
33 49 59
34 50 61
37 53 64
37 52 62
34 50 61
33 49 60
38 55 65
34 50 60
36 52 63
35 50 61
33 49 59
34 50 60
34 50 60
34 50 61
36 51 62
34 51 62
33 49 59
34 49 59
32 47 57
38 54 65
34 51 62
33 48 58
33 48 59
37 54 65
36 53 64
35 51 61
32 46 55
31 46 56
35 50 60
35 50 61
35 50 60
31 46 56
32 47 57
31 45 55
28 40 49
34 50 61
34 52 64
37 56 69
36 56 69
36 56 69
37 56 69
39 59 72
38 59 72
40 62 76
36 54 67
41 63 78
40 61 76
43 67 83
43 67 84
38 60 75
44 66 81
39 62 77
38 62 78
41 63 78
45 68 84
41 66 83
41 65 82
42 66 81
45 71 88
47 73 91
41 64 79
45 73 91
43 68 85
44 71 89
46 72 90
46 73 90
45 71 89
43 70 87
47 74 91
43 70 88
46 73 91
47 75 93
49 77 96
45 73 93
48 77 96
45 73 91
45 72 90
46 76 96
49 78 98
48 78 98
45 75 95
48 77 97
47 75 93
48 77 97
48 76 96
48 77 97
49 78 98
46 74 93
46 75 95
50 79 99
46 75 94
50 80 100
50 79 99
47 79 100
48 79 99
47 76 96
50 80 99
48 78 98
47 78 99
48 77 97
50 81 101
50 80 100
50 81 102
51 81 101
49 78 98
47 77 98
50 80 101
49 79 100
50 82 103
48 78 98
49 80 101
49 80 101
50 80 100
50 82 103
51 82 102
51 82 103
49 80 101
51 80 100
51 80 100
49 79 100
50 80 100
51 82 103
50 80 101
50 81 101
50 80 101
51 83 104
52 83 103
48 79 99
51 82 103
50 81 102
50 81 101
53 84 105
51 82 102
54 84 105
52 83 104
52 83 104
51 82 103
52 81 100
52 83 103
52 84 105
51 82 102
49 79 100
50 83 105
52 83 104
50 82 104
52 83 104
52 83 104
52 83 104
51 83 104
53 84 104
49 81 102
54 85 105
51 82 103
51 83 105
53 84 104
51 83 105
52 83 103
50 82 103
50 82 102
51 84 105
50 82 102
52 84 105
52 84 105
52 83 104
53 84 105
53 84 105
51 82 104
51 83 104
51 83 104
51 83 105
52 83 105
51 83 104
52 84 104
52 84 105
52 83 104
54 85 106
51 83 104
51 82 103
51 82 102
53 84 105
52 84 106
51 82 103
52 83 104
51 83 104
51 83 105
52 83 104
53 84 104
52 84 105
50 82 104
51 84 106
54 85 106
52 84 105
52 84 106
52 84 105
50 82 103
53 85 106
51 83 104
54 85 106
53 85 106
53 85 105
50 81 102
52 84 105
51 83 104
53 85 106
53 84 105
52 84 105
53 84 105
51 83 105
52 84 105
53 84 104
52 84 105
51 82 104
54 85 105
52 84 105
52 84 104
51 83 104
52 83 104
51 83 104
51 84 105
51 83 105
49 81 102
52 84 106
51 83 104
52 84 105
52 84 105
52 84 105
53 83 104
53 84 105
54 85 105
54 85 105
53 85 106
52 84 105
51 83 104
52 84 105
50 81 102
53 84 105
51 83 104
52 83 105
51 82 103
51 83 104
53 85 106
53 84 105
53 85 106
52 84 106
51 83 104
51 83 105
51 82 103
50 81 103
49 82 103
53 84 104
52 83 104
49 82 104
49 81 103
50 81 101
50 82 103
52 82 102
50 82 103
50 81 102
50 82 103
51 83 104
52 83 103
52 83 104
48 81 103
51 82 102
49 80 100
51 84 105
50 81 101
52 83 103
51 82 103
50 82 104
50 81 101
50 81 101
49 78 98
49 80 101
52 83 104
49 80 102
51 81 102
48 79 100
50 81 101
49 81 102
50 81 101
51 83 103
49 80 100
51 82 102
53 83 104
48 78 99
48 78 98
50 81 102
50 81 101
49 79 99
50 80 100
49 79 99
50 78 97
49 81 101
48 79 99
48 76 95
50 80 100
49 81 102
51 82 102
47 76 96
47 76 95
48 78 98
48 77 97
49 79 99
49 78 98
46 75 95
47 74 93
48 75 94
50 80 100
47 77 96
48 76 95
48 76 95
45 75 95
51 80 100
49 76 95
48 78 97
48 78 97
46 74 93
47 77 97
47 76 95
49 77 96
45 73 91
48 78 97
47 74 92
45 72 91
43 69 87
45 71 89
45 72 90
44 71 89
45 71 88
43 69 86
45 70 87
43 69 87
44 68 85
40 64 80
46 71 88
40 63 78
43 67 82
44 68 85
41 64 79
42 66 81
44 68 85
38 61 77
41 63 78
39 61 76
40 62 78
40 62 76
37 58 72
38 60 74
39 61 75
37 58 72
42 65 80
36 54 66
36 55 67
37 56 69
37 56 68
32 48 59
38 56 68
39 59 72
33 51 62
28 42 51
31 47 57
31 46 56
29 42 51
30 45 55
34 49 59
35 51 62
35 50 60
37 52 62
30 44 53
33 49 59
34 49 60
36 52 62
31 46 56
33 48 58
35 50 61
37 52 63
31 45 55
36 53 64
33 47 57
35 50 61
31 46 55
34 51 61
36 52 63
30 45 55
30 44 54
33 49 60
37 53 64
35 51 62
37 53 65
29 45 55
35 50 60
34 50 61
31 45 55
33 49 60
39 56 67
34 49 60
32 47 57
32 47 57
37 52 63
39 56 67
36 52 62
36 52 63
34 49 58
38 54 65
35 51 62
33 49 59
37 53 64
33 49 60
38 54 65
36 51 62
31 46 56
36 52 63
36 51 62
35 51 62
33 48 58
36 51 61
33 47 57
32 47 56
31 47 57
34 50 60
34 50 60
30 45 55
34 50 61
34 49 59
32 47 57
34 49 60
30 46 56
32 47 57
32 47 57
34 48 58
33 47 57
35 50 61
28 42 51
30 43 53
30 45 55
37 56 69
33 50 61
35 53 65
33 51 63
32 49 60
39 58 71
39 58 71
39 59 72
40 62 77
40 63 78
40 61 75
41 64 80
39 62 77
43 68 85
43 65 80
42 67 83
41 63 78
43 67 82
44 69 85
46 72 89
42 66 82
41 64 79
44 68 85
40 66 83
45 70 87
42 67 84
46 73 92
43 70 88
43 69 86
43 69 86
42 67 84
44 72 90
47 75 94
45 71 89
46 74 93
46 74 93
47 75 94
47 73 91
44 72 90
48 78 97
48 76 94
47 75 93
46 75 93
47 75 95
49 77 96
47 74 92
48 76 94
47 76 95
48 77 97
47 77 98
47 74 91
47 77 96
49 78 97
48 78 98
46 74 93
50 81 101
47 76 95
47 77 97
50 79 99
49 79 100
51 81 102
50 79 98
49 78 98
50 80 100
49 77 96
50 82 103
50 81 101
48 76 95
50 80 100
48 79 99
52 83 103
51 81 102
51 82 102
49 80 101
48 79 100
50 80 99
49 79 99
51 81 102
50 81 102
50 83 104
51 81 101
50 81 102
49 81 102
50 81 101
48 79 100
49 80 101
52 81 101
52 83 103
52 83 103
53 83 103
50 82 103
50 81 102
52 82 102
49 80 101
52 83 104
51 81 102
52 84 105
50 81 103
50 82 103
50 82 103
48 79 99
51 83 104
50 82 103
51 82 103
51 82 103
51 82 103
51 83 105
51 83 105
53 84 105
50 81 102
53 85 106
51 82 103
51 81 102
53 84 104
53 84 104
51 83 105
52 84 105
50 82 103
53 84 105
51 82 103
52 83 103
52 84 105
50 82 103
52 83 104
51 82 103
48 80 101
51 82 103
52 84 105
51 83 104
50 83 105
53 84 105
53 85 106
53 85 106
50 82 103
51 82 103
50 83 105
51 84 106
53 85 106
51 83 105
51 84 105
52 83 104
52 84 105
55 86 106
52 84 105
52 84 105
54 85 106
52 83 103
53 85 106
50 83 105
51 83 104
51 82 103
53 84 105
52 84 105
52 84 105
51 84 105
50 83 105
53 85 106
52 84 105
54 85 106
54 85 106
52 83 104
51 83 105
52 82 103
51 83 104
54 85 106
52 83 103
51 83 104
53 85 106
52 84 106
50 82 103
52 84 105
52 84 105
53 85 106
50 82 104
51 82 104
51 83 104
52 83 104
53 85 106
51 83 105
52 84 105
53 85 106
52 84 105
51 82 103
50 82 104
50 83 104
50 81 102
52 83 105
53 84 104
51 83 104
52 84 105
53 84 104
50 81 102
52 83 103
50 83 105
51 83 104
52 84 105
51 83 104
51 82 103
53 85 106
51 82 103
50 81 101
52 84 105
54 85 105
50 82 104
52 84 106
52 83 105
52 84 105
51 83 105
52 84 105
52 82 103
51 83 104
51 83 105
51 83 103
53 85 106
52 82 101
49 81 102
50 80 100
52 83 104
51 83 104
53 85 106
51 82 102
50 82 104
54 85 105
50 81 102
53 84 105
50 81 102
50 82 103
52 83 104
54 84 104
51 82 102
52 82 103
48 79 100
53 84 105
52 81 101
51 82 102
48 78 98
50 81 101
52 82 102
50 81 102
51 83 104
49 81 101
50 81 102
51 82 103
52 83 104
48 77 97
49 81 103
52 82 102
48 78 99
49 78 98
49 78 98
47 77 97
50 80 100
49 80 101
49 79 98
51 81 101
48 77 97
48 78 98
50 79 99
47 77 97
52 81 101
48 80 102
50 81 101
47 79 99
49 80 101
46 75 95
50 79 99
48 76 95
50 80 100
47 76 95
47 77 97
49 79 99
49 78 98
47 75 93
47 75 94
48 77 96
47 77 96
48 76 95
49 78 97
49 77 96
51 81 100
49 78 97
49 77 95
44 70 87
46 73 91
45 73 92
49 77 95
44 70 87
48 75 93
45 72 90
45 72 91
45 71 89
45 71 89
42 69 87
45 72 90
47 73 90
44 69 86
43 69 87
43 67 83
43 69 86
42 68 85
44 70 86
42 67 83
41 63 79
42 67 83
44 67 82
40 64 79
43 66 81
41 66 83
39 61 75
39 60 74
40 63 78
40 61 75
40 61 76
37 58 72
39 61 76
42 65 80
36 55 68
34 52 64
34 52 64
38 57 70
33 50 62
34 52 64
35 52 64
28 42 51
35 53 64
25 39 48
31 48 59
31 46 57
26 40 49
32 46 55
34 49 59
30 43 53
33 49 59
35 51 61
34 50 60
32 47 56
34 48 58
30 45 54
33 48 58
32 47 57
31 44 53
34 50 60
33 48 58
29 43 52
32 47 57
34 49 59
35 50 61
34 49 59
33 49 60
31 46 56
36 51 62
36 53 64
32 48 58
32 47 57
33 48 58
34 49 58
35 50 60
30 44 54
36 52 63
34 49 59
34 49 59
35 51 62
32 47 57
34 50 60
35 52 62
36 53 64
31 46 56
34 50 61
31 45 55
35 51 61
33 49 59
33 48 58
33 48 58
34 49 59
31 45 55
34 50 60
37 53 63
31 46 55
33 49 60
33 47 57
34 49 59
30 45 54
32 47 57
32 48 58
35 50 60
33 48 59
36 51 61
36 52 62
34 48 58
32 47 57
34 48 58
33 47 56
32 46 56
30 44 53
32 46 55
33 47 56
29 42 51
28 43 53
31 45 55
34 52 64
39 58 70
33 49 59
36 55 67
35 52 63
37 56 69
38 58 72
38 59 73
35 54 66
40 61 75
36 55 67
38 59 73
36 56 70
39 60 74
37 58 72
40 63 79
47 72 88
39 60 75
37 58 72
41 63 78
42 66 81
38 58 72
44 68 85
44 69 85
44 67 83
43 68 85
42 68 85
43 68 85
46 74 93
45 72 89
47 73 91
45 71 88
46 73 91
44 72 91
45 71 89
46 74 92
47 72 90
44 70 88
46 74 93
46 72 90
48 77 95
45 72 90
47 77 98
45 73 91
46 73 92
47 76 95
47 76 95
47 77 96
45 74 94
49 79 99
47 77 98
45 73 91
47 75 94
51 80 100
49 77 96
48 77 96
49 79 99
50 80 100
48 76 95
49 79 99
51 80 100
49 81 101
51 82 103
48 78 97
48 79 99
51 80 100
49 79 99
49 79 100
52 82 102
51 81 101
50 79 99
48 78 98
50 80 100
50 79 99
50 80 100
49 80 100
49 80 100
51 82 102
49 80 100
51 82 103
47 77 97
51 81 100
51 82 102
51 82 103
50 82 103
54 84 104
49 79 99
51 81 101
50 82 102
49 80 100
51 82 103
51 81 102
50 80 100
53 83 104
49 80 101
50 80 100
50 82 103
51 82 103
53 85 106
51 83 104
50 82 103
50 80 101
52 82 103
51 82 103
53 84 105
50 82 103
51 83 105
52 83 103
52 83 103
52 82 103
50 82 104
50 82 104
50 80 100
51 83 104
52 84 106
54 85 105
52 83 103
51 82 103
51 83 104
52 84 105
51 82 103
50 81 102
52 83 104
52 84 104
53 84 105
54 85 106
51 83 104
52 84 105
49 82 103
52 83 104
50 82 103
52 84 105
51 84 105
53 85 105
52 84 105
52 84 105
52 83 104
54 85 106
53 83 104
52 85 106
50 83 104
52 84 105
53 84 105
51 83 104
52 84 105
50 82 104
52 84 105
52 84 105
51 82 103
50 82 103
50 82 103
51 82 103
52 84 105
52 84 105
53 84 104
54 85 106
53 84 106
51 84 106
50 83 105
52 84 105
52 84 106
54 85 106
50 82 104
52 83 104
53 85 106
51 83 104
50 82 103
51 82 102
53 84 106
51 83 104
49 82 103
52 84 105
51 83 105
53 85 106
53 83 104
51 81 102
53 84 106
51 84 106
51 84 105
52 84 105
52 83 104
52 84 105
52 84 105
50 82 104
51 82 103
49 81 103
51 83 105
51 81 102
54 85 105
52 84 104
51 83 104
50 83 104
51 82 102
52 84 105
51 83 104
51 83 104
52 84 105
53 84 105
52 83 104
50 81 102
52 84 104
51 83 105
51 82 103
52 83 104
52 84 105
51 83 104
52 84 106
51 82 103
54 85 106
52 83 103
51 83 103
50 81 102
51 81 101
54 85 106
52 84 105
54 84 104
50 81 101
53 83 103
52 82 103
50 83 105
47 79 100
51 84 105
51 83 104
49 81 103
51 82 102
50 81 101
52 82 103
49 80 101
51 81 101
51 83 104
50 81 102
49 79 99
51 82 103
52 82 103
52 83 103
49 80 101
52 83 104
51 83 104
51 82 103
51 81 101
50 81 101
50 82 103
49 78 97
51 81 101
48 76 95
50 82 103
51 81 101
50 81 103
51 80 100
49 78 98
48 78 98
51 81 100
49 78 98
52 82 103
49 78 98
51 83 104
49 78 97
47 77 96
49 80 101
46 74 93
49 79 99
48 78 98
48 77 97
49 79 99
50 80 100
49 79 100
48 77 96
49 79 99
51 81 101
49 80 100
47 76 96
48 78 98
50 78 97
48 77 96
46 74 92
48 77 96
46 75 94
47 75 93
46 76 96
47 76 96
47 76 95
44 72 91
45 73 91
45 73 91
45 73 91
46 74 92
47 75 94
43 69 87
47 75 94
48 75 93
41 64 80
47 74 92
43 68 85
45 69 85
47 76 94
46 70 87
46 74 92
45 71 88
41 66 82
45 71 89
42 68 85
43 67 83
36 58 73
41 64 80
41 64 79
41 64 79
39 63 78
41 66 83
41 65 80
38 60 74
39 60 74
39 60 74
39 60 75
36 54 66
36 55 68
38 59 73
40 62 76
35 53 65
36 55 68
39 59 72
29 45 56
37 56 69
34 52 63
34 50 61
32 47 57
31 47 58
35 52 64
32 48 59
31 46 57
31 46 56
26 39 47
31 45 55
30 44 54
28 40 49
32 46 55
30 45 54
30 44 53
31 45 55
31 46 55
32 46 56
33 48 57
35 51 61
30 44 54
32 47 58
36 51 61
29 42 52
35 50 60
33 48 59
32 47 57
31 46 55
36 52 64
36 51 61
32 47 57
30 45 55
34 49 59
36 52 62
37 53 63
31 46 56
28 43 53
36 51 62
34 50 61
37 53 64
38 54 65
31 46 55
35 51 61
38 55 65
38 55 66
34 50 61
34 49 60
36 52 62
32 48 58
34 50 61
35 51 62
34 48 58
34 49 58
34 49 58
33 48 58
34 49 59
30 44 54
34 49 60
32 47 57
37 52 62
34 49 60
32 47 57
34 50 60
34 49 59
28 42 51
32 47 56
32 47 56
27 40 48
30 44 53
32 46 55
31 45 54
30 44 53
32 46 55
28 40 49
29 43 52
34 49 60
27 40 49
32 48 58
33 49 60
32 47 57
31 45 55
27 40 50
40 60 74
37 58 72
35 53 65
35 54 67
34 52 64
38 59 73
42 65 80
37 59 74
35 55 68
40 62 77
40 61 75
39 60 74
43 66 82
42 64 79
39 61 75
44 66 81
42 65 81
41 65 81
42 67 83
42 66 82
40 63 78
44 68 85
44 69 85
44 70 88
45 70 87
44 71 88
42 68 85
47 75 93
45 73 92
41 67 84
44 70 87
47 74 92
46 74 93
47 74 92
46 74 93
45 71 88
46 73 92
43 69 87
46 76 96
46 74 93
47 74 93
46 74 93
45 74 93
45 73 91
48 74 91
46 76 96
45 74 93
50 79 99
49 79 98
46 75 94
47 77 97
49 80 101
46 75 94
49 77 97
48 76 95
47 77 96
51 81 101
51 81 101
46 76 96
47 78 99
49 80 100
51 80 100
50 81 102
49 79 99
51 80 99
47 77 97
49 79 99
48 78 98
49 79 99
50 81 102
48 78 97
50 81 102
51 81 101
48 78 98
48 77 97
50 80 100
50 81 102
51 82 102
52 82 103
50 81 102
49 81 102
49 80 101
53 84 105
52 83 103
52 83 103
52 82 102
51 82 102
50 82 103
51 82 104
48 79 100
52 83 104
52 83 104
48 80 101
51 84 105
53 83 104
50 80 100
50 80 101
51 83 104
52 83 104
53 83 103
51 81 101
53 84 105
51 81 101
51 83 104
51 83 104
52 83 104
50 82 103
52 83 104
51 82 103
52 83 104
51 82 103
51 81 101
53 84 104
52 83 103
51 83 104
52 82 102
52 83 104
50 81 102
51 83 105
52 83 105
52 83 103
48 80 102
52 83 104
52 84 105
53 83 104
52 84 105
52 84 105
52 84 105
53 84 104
53 85 106
50 81 101
52 84 105
50 82 104
50 83 105
53 85 106
51 82 103
51 83 104
50 82 104
51 84 105
51 83 104
51 83 104
51 83 105
51 83 103
53 84 105
52 83 104
52 83 104
49 80 101
52 83 103
51 82 103
53 85 106
53 85 106
51 83 105
51 84 106
50 83 104
52 84 106
53 85 106
51 83 105
51 83 104
53 85 106
52 85 106
51 84 106
51 83 104
52 84 105
54 85 106
52 83 105
53 84 105
51 83 104
52 84 105
52 84 105
53 84 105
54 85 106
51 83 105
51 84 105
50 83 104
52 83 104
51 84 106
51 83 105
50 82 104
52 83 105
51 82 103
51 83 104
51 84 105
49 82 104
54 85 105
54 85 106
53 84 105
53 84 105
51 82 103
51 83 105
50 82 103
52 83 104
52 83 104
52 83 104
51 84 106
52 84 105
51 83 105
52 84 105
52 83 104
51 83 104
50 81 102
51 83 104
52 82 102
52 83 104
51 83 105
49 81 103
51 83 104
51 83 104
51 84 105
52 83 104
53 83 104
49 79 98
53 84 105
50 82 103
50 81 101
52 83 103
51 82 103
49 80 101
52 83 104
50 82 102
51 82 103
50 80 100
53 85 106
50 80 101
53 84 105
50 82 103
52 82 102
51 82 103
47 77 96
49 81 102
51 82 103
50 80 100
52 82 103
51 82 102
51 82 103
49 79 99
50 82 103
49 81 102
50 81 102
50 81 102
50 80 101
49 79 99
50 81 102
52 82 101
49 79 99
50 80 100
49 80 100
48 77 97
50 80 100
50 80 101
52 82 102
49 78 97
51 81 101
51 80 99
51 81 101
48 77 97
50 79 99
47 76 96
50 78 98
48 78 98
49 78 97
46 74 93
47 76 96
47 76 96
48 76 94
47 76 96
48 78 97
46 75 94
49 77 96
48 77 97
51 80 99
48 77 96
47 75 94
47 75 94
48 77 97
50 80 100
49 78 97
48 77 96
48 77 96
43 71 89
49 78 97
44 70 87
49 78 96
47 74 93
45 72 90
45 72 90
47 75 94
45 72 89
45 72 91
42 68 86
44 69 86
45 71 88
46 71 89
46 71 87
42 64 79
41 65 81
42 66 81
42 65 81
42 67 84
41 65 81
45 70 87
43 69 86
35 57 71
40 61 76
38 60 75
38 58 72
39 61 75
41 62 77
40 63 77
36 55 69
40 60 73
37 57 71
36 57 71
36 56 69
34 51 62
34 53 65
41 63 77
36 54 66
41 61 75
32 48 58
31 47 57
30 45 55
33 49 60
28 43 53
25 37 45
27 40 48
25 38 47
26 39 47
28 41 49
25 37 45
28 40 49
29 43 52
31 45 54
30 44 54
35 50 60
28 42 51
31 45 53
32 46 56
33 47 57
31 45 55
34 49 59
35 51 61
31 45 54
29 43 52
34 49 59
31 45 55
38 55 66
36 51 62
31 46 55
33 47 57
33 49 59
31 45 55
36 52 62
32 47 56
35 50 61
30 44 54
36 53 63
29 43 52
35 49 59
37 52 63
33 47 57
32 48 58
36 53 64
32 46 56
34 50 60
35 51 61
30 44 54
36 50 60
33 48 57
35 51 62
31 44 53
33 48 58
35 50 61
24 37 45
31 45 54
34 50 60
34 49 59
33 47 57
33 47 57
35 50 60
33 48 58
32 47 57
31 46 56
34 49 60
31 45 54
32 47 56
29 42 52
33 48 57
27 41 50
28 42 51
33 47 57
22 33 40
29 42 51
29 43 52
27 41 49
29 45 55
30 45 55
32 48 58
32 48 58
31 46 56
37 55 68
31 47 58
34 51 62
35 52 64
37 56 70
39 60 73
39 58 72
38 59 73
37 56 69
40 60 74
33 52 65
40 62 77
39 62 77
39 61 76
37 57 71
37 59 74
40 61 75
43 66 82
42 64 79
42 67 83
41 65 81
44 69 86
39 61 76
44 70 87
44 71 88
42 66 82
47 74 92
47 75 93
44 71 89
43 71 89
45 72 90
45 70 87
44 72 90
45 71 88
44 71 89
45 74 94
43 68 84
46 75 94
45 71 89
46 75 94
43 70 87
49 78 97
45 71 88
48 78 97
46 76 95
48 75 93
47 76 95
47 77 96
50 78 97
48 77 97
47 76 95
46 74 92
49 78 97
49 77 96
49 76 94
48 77 97
48 78 98
48 78 97
50 78 97
48 76 95
49 79 99
48 78 98
50 81 102
50 80 100
51 81 101
46 75 95
49 79 100
46 75 94
51 81 102
49 79 99
50 80 100
47 76 96
49 80 101
49 80 101
50 80 99
50 80 99
51 81 101
50 80 100
47 78 99
50 80 100
51 82 103
51 82 103
51 82 102
46 76 96
48 80 101
50 80 100
51 83 104
52 82 102
52 82 101
50 81 101
50 82 102
50 79 99
50 80 101
51 82 102
51 82 102
51 82 103
52 84 105
51 82 103
52 83 104
50 80 100
49 79 99
50 82 102
50 81 102
49 81 102
50 82 103
50 81 101
49 81 102
52 83 103
52 83 104
52 83 103
52 83 105
52 83 103
51 81 101
50 82 104
51 82 102
52 83 103
52 83 103
52 84 105
52 82 103
52 82 102
52 82 102
50 81 102
50 82 104
51 83 104
52 84 105
53 84 105
50 82 103
52 84 105
52 83 104
53 84 105
54 85 106
51 83 104
54 86 107
52 84 105
53 83 104
52 83 103
53 84 105
51 83 105
50 83 105
52 85 106
52 84 106
52 84 104
52 83 104
52 83 104
52 84 105
52 84 106
50 83 105
52 84 106
52 84 105
51 83 105
53 84 105
52 84 106
55 86 107
53 84 105
52 84 106
52 84 105
51 83 105
53 84 105
51 83 105
52 85 106
51 84 105
52 84 106
51 83 104
51 84 105
52 84 105
49 82 103
53 84 105
48 80 101
51 83 104
53 84 105
53 84 105
52 83 104
50 83 105
52 84 105
51 83 104
52 84 105
50 82 103
52 84 104
53 84 105
53 84 106
50 82 103
53 84 104
54 85 106
51 83 104
52 84 106
52 84 105
51 83 104
50 82 104
53 83 103
51 83 104
51 84 105
53 84 104
52 84 105
50 82 103
51 82 103
52 83 104
50 81 102
53 84 104
52 84 105
51 81 101
53 84 105
51 82 103
51 83 104
49 81 102
51 83 105
54 85 106
51 82 103
50 81 102
48 78 98
50 81 102
52 83 104
53 84 104
51 81 101
49 81 102
51 81 100
48 79 99
50 81 102
52 83 104
51 83 105
52 82 102
51 82 103
53 84 105
49 79 100
53 83 103
50 82 104
51 82 103
49 80 101
52 82 101
51 83 104
50 80 101
50 80 99
50 79 99
50 81 101
52 81 101
50 81 101
50 81 102
50 81 102
51 80 100
46 75 95
49 80 101
49 78 98
49 79 99
47 77 97
50 82 103
49 79 99
48 79 99
50 79 98
49 80 100
47 77 96
50 81 102
50 79 98
49 78 97
51 81 101
48 78 98
52 82 102
49 80 100
46 76 96
47 75 94
52 82 102
46 75 94
49 79 98
50 80 100
48 76 96
46 76 96
48 78 98
48 77 97
45 73 92
47 74 93
47 78 98
48 77 97
49 78 96
48 77 96
49 78 98
47 76 96
50 77 96
45 71 88
45 72 90
46 72 90
46 73 91
48 76 95
47 75 94
43 68 85
45 72 90
44 70 88
44 69 86
45 73 92
45 71 89
49 78 96
44 71 89
46 72 90
47 72 89
42 68 85
42 67 83
44 70 88
42 67 84
44 68 85
45 72 91
42 65 81
42 66 83
40 64 81
41 64 79
37 58 72
38 60 75
41 64 80
39 62 77
46 70 86
36 57 70
37 57 70
43 66 81
35 54 67
42 62 76
36 56 69
34 52 64
36 57 70
35 54 66
33 51 64
39 59 72
35 52 64
33 50 61
32 48 59
33 49 60
28 42 51
33 49 59
28 42 52
32 48 59
24 36 44
35 50 60
27 39 47
32 46 56
23 34 41
25 36 44
25 36 43
30 44 53
29 42 51
28 41 50
29 43 53
27 41 50
33 48 58
30 44 53
32 46 55
30 44 53
29 43 52
32 46 55
35 49 59
31 45 54
35 50 60
33 48 58
28 41 50
31 46 56
28 41 50
33 47 57
30 44 53
30 44 53
37 53 64
36 50 60
32 48 58
27 41 50
32 46 56
27 41 50
31 47 57
31 46 57
32 47 57
29 43 53
33 48 59
32 46 56
30 45 54
30 44 54
28 41 50
29 43 52
34 48 58
33 47 56
32 47 57
31 47 57
29 43 52
32 46 55
32 47 57
31 46 56
34 49 60
35 51 61
32 47 56
36 51 62
29 43 52
30 43 52
34 49 59
34 48 57
33 48 58
26 38 46
27 41 50
28 40 49
19 28 33
25 37 45
24 35 42
26 39 47
31 46 57
26 40 49
29 42 51
32 47 57
29 42 51
34 50 60
34 52 64
33 50 62
34 52 64
36 54 66
36 55 68
37 56 68
33 51 62
37 57 71
34 52 65
39 61 75
38 58 72
34 51 63
34 53 66
43 66 82
41 64 79
38 60 74
41 62 77
39 61 76
41 65 82
41 65 81
39 62 78
41 64 79
42 67 84
42 66 82
45 69 85
42 67 83
43 69 86
48 75 93
42 66 82
45 71 88
47 72 90
44 70 87
44 71 89
44 71 88
46 71 88
48 78 99
42 69 87
46 74 93
48 75 93
47 76 95
49 77 95
48 77 97
47 76 95
46 75 95
47 76 95
47 75 94
49 78 98
47 74 93
46 76 96
47 75 93
46 75 95
46 74 92
49 78 98
46 76 95
48 77 96
47 75 93
48 76 95
47 74 92
48 77 96
51 80 99
50 81 101
49 79 99
49 77 96
46 77 97
48 79 99
49 80 101
50 81 101
49 79 98
49 77 97
49 79 100
48 78 99
50 80 101
46 75 95
50 81 102
46 75 95
50 80 100
50 82 103
51 82 102
51 82 103
48 78 98
50 80 100
50 81 102
51 82 102
50 80 100
50 80 99
47 78 99
49 80 101
49 78 97
51 83 103
48 79 99
50 79 99
49 80 100
52 83 104
51 82 103
51 82 102
50 80 101
52 83 104
53 84 104
52 82 103
50 83 104
51 83 104
51 83 103
48 79 99
51 82 102
50 81 101
49 80 100
53 83 104
49 81 102
52 84 104
52 83 103
51 82 103
50 82 103
51 82 103
51 82 104
53 84 104
53 84 105
51 84 105
52 83 103
52 84 106
50 81 101
53 84 105
51 82 102
49 82 103
51 82 103
51 83 104
51 82 103
53 84 105
50 82 103
52 82 103
51 83 105
53 85 106
51 83 104
51 83 105
53 84 105
51 83 105
52 83 104
52 84 105
51 84 105
53 85 106
51 83 104
52 84 105
51 83 104
53 84 106
51 82 103
53 84 105
53 84 105
50 83 105
51 83 104
52 84 105
51 82 102
50 82 104
53 84 105
53 85 106
50 82 104
52 84 105
49 82 103
52 85 106
51 83 105
52 84 105
51 83 105
54 85 105
52 84 105
50 82 103
52 84 105
52 83 103
52 84 105
51 82 103
52 84 105
51 82 104
52 82 103
52 84 105
51 83 104
52 83 104
51 82 103
54 84 104
51 84 105
50 83 104
52 83 104
51 82 103
50 82 103
53 84 105
51 83 104
52 83 104
52 84 105
52 84 105
51 83 104
52 84 105
52 84 105
49 81 102
52 82 103
53 84 105
53 85 106
51 83 104
53 85 106
51 82 102
51 82 103
53 84 105
51 82 103
52 84 105
49 81 103
52 84 105
51 82 102
51 83 104
49 81 103
51 82 103
52 84 105
50 81 102
48 79 100
50 81 102
52 83 104
52 82 103
51 82 103
50 82 104
51 82 102
51 81 100
51 82 102
52 84 105
50 81 101
52 83 103
51 83 104
48 79 100
52 82 102
51 82 103
50 81 102
50 81 101
51 83 104
49 79 99
51 82 103
51 82 102
52 82 102
48 78 98
49 78 97
51 81 101
50 80 100
51 82 103
52 82 101
50 80 100
50 80 100
47 77 96
49 79 99
48 79 100
50 81 101
50 79 98
50 81 102
48 78 98
50 82 103
52 82 101
50 80 100
49 79 98
50 80 101
46 77 97
50 80 100
49 78 97
50 80 100
49 77 96
49 77 95
46 75 94
50 78 97
50 81 102
48 78 99
47 76 96
50 80 100
45 73 92
48 77 97
48 78 98
47 75 94
50 80 101
48 77 96
47 76 95
50 79 99
48 76 95
49 78 97
48 77 97
46 73 91
46 74 92
48 76 94
47 75 94
48 77 96
48 76 95
46 73 91
45 72 90
46 73 91
46 72 90
47 75 94
43 68 85
46 74 92
44 70 86
42 69 86
47 74 92
43 69 86
45 72 90
46 73 91
43 70 87
41 67 83
44 70 87
44 70 87
42 65 81
41 64 80
41 67 84
44 68 85
40 63 78
45 69 86
40 63 79
42 67 83
39 62 77
38 59 73
38 59 73
36 58 73
38 58 72
40 62 76
34 52 64
40 61 76
37 58 72
39 61 76
32 50 63
34 52 63
34 51 62
33 51 63
36 54 66
37 56 68
33 50 62
35 52 63
33 49 60
29 44 55
28 41 50
29 45 55
28 43 53
31 46 56
28 40 49
22 32 39
24 34 40
26 38 47
25 37 44
25 36 43
24 35 43
31 45 54
28 41 50
32 47 57
29 42 51
28 41 50
29 42 50
32 46 55
38 53 63
31 46 55
29 42 50
24 36 44
33 48 58
30 43 53
32 47 56
31 46 55
29 43 52
33 47 57
33 47 56
37 52 63
30 44 53
32 47 57
33 47 57
31 46 56
34 50 60
30 44 53
34 49 59
36 52 63
34 49 60
30 44 54
29 43 52
31 44 53
31 45 55
28 41 50
29 42 51
30 44 53
30 43 52
31 45 55
29 43 53
33 48 58
34 50 60
31 45 54
31 45 54
32 47 56
35 49 59
30 43 52
32 46 55
31 46 56
28 42 51
30 43 52
26 39 47
28 41 50
27 40 49
27 39 46
20 30 36
26 37 45
25 37 45
28 42 50
32 46 55
25 35 43
29 42 51
33 48 59
31 45 54
29 43 53
28 42 51
31 45 55
32 48 59
33 51 62
34 51 62
34 51 62
34 51 63
37 56 69
39 59 73
33 50 61
33 51 62
34 53 66
35 54 67
38 59 73
37 57 70
40 62 76
40 61 76
36 57 71
41 63 77
38 59 74
42 65 80
43 67 84
43 68 84
42 65 80
37 59 74
45 70 87
44 71 88
43 68 85
41 65 81
46 72 89
44 70 86
43 67 83
46 74 92
46 73 91
42 68 85
45 71 89
45 70 87
44 70 87
48 74 91
47 74 92
43 71 90
45 73 91
49 78 97
43 71 90
48 75 93
49 77 96
47 75 93
47 75 93
49 80 100
46 73 92
47 75 94
46 75 94
48 78 98
50 79 98
46 75 94
48 78 97
48 76 95
45 73 92
48 77 96
47 76 96
48 78 98
48 77 97
48 77 96
47 77 97
48 78 98
49 77 96
47 76 95
51 81 101
51 80 100
46 76 96
53 81 101
49 78 97
50 80 100
47 76 95
51 81 101
49 79 98
48 79 100
48 77 96
51 82 103
50 81 102
51 81 101
48 79 101
48 77 96
50 81 101
49 79 99
51 82 103
51 81 102
51 82 102
48 78 98
50 81 102
49 80 101
49 80 100
51 83 104
52 82 102
48 78 98
48 80 101
50 82 103
47 79 100
53 84 105
49 80 100
51 81 102
50 82 103
49 80 101
49 79 99
51 83 104
52 82 102
52 83 104
52 83 103
51 82 102
52 83 104
52 83 104
51 81 101
49 80 101
53 84 104
51 83 104
51 82 103
50 81 102
50 81 101
52 83 104
50 82 103
50 81 102
49 81 102
50 81 102
49 81 102
51 82 103
50 82 103
51 82 103
50 82 103
50 81 102
51 82 104
51 83 105
54 84 105
53 85 106
51 83 105
51 82 102
51 83 105
50 81 102
51 83 105
52 83 104
50 82 104
54 85 106
51 83 104
52 84 105
52 84 105
52 84 105
51 83 104
53 84 106
52 83 105
53 84 105
51 83 104
54 84 104
52 84 106
51 83 104
53 84 104
51 83 104
51 84 106
52 84 105
53 84 105
51 83 105
52 83 104
52 84 105
51 83 104
52 84 105
51 84 105
50 83 104
53 84 106
54 85 106
50 81 102
52 84 106
52 84 105
52 84 105
53 84 105
51 84 105
50 81 102
52 84 105
52 84 105
51 83 104
53 85 106
54 85 106
51 83 104
52 84 106
54 85 106
49 81 102
51 83 104
52 84 106
53 84 106
53 84 105
51 82 102
54 85 106
52 83 103
51 84 106
53 84 104
52 84 105
49 81 102
50 81 102
51 83 104
53 85 106
49 80 101
52 83 105
50 81 102
51 83 104
52 83 103
51 83 103
50 80 101
48 79 100
50 82 103
51 82 103
53 84 106
52 83 104
51 82 103
50 80 101
50 82 102
46 78 99
53 84 105
50 80 101
52 84 105
48 80 101
53 84 104
51 82 103
50 81 103
52 83 105
49 80 101
49 81 102
49 80 101
51 82 103
51 82 102
51 83 104
52 84 105
51 83 104
51 81 101
52 84 105
50 82 103
50 80 100
51 82 102
49 79 99
50 81 102
52 82 103
50 80 101
51 83 103
50 82 103
51 81 102
50 80 100
50 80 100
49 77 96
49 80 100
50 81 101
47 78 99
49 77 95
49 78 98
49 80 100
49 79 100
47 77 97
49 79 100
46 76 95
50 80 100
48 79 99
47 78 98
47 76 95
50 81 102
47 77 96
49 80 100
48 76 95
50 80 100
48 78 98
46 77 97
49 78 97
48 78 98
48 76 95
49 77 96
45 73 91
48 76 94
47 77 98
48 74 92
47 76 95
45 74 93
49 78 97
45 72 90
45 73 92
45 72 90
46 73 91
46 72 89
47 75 93
50 79 98
47 75 93
44 72 90
46 74 92
39 65 82
45 70 86
44 70 87
45 71 88
43 69 86
45 70 86
41 65 81
40 64 80
38 61 77
44 69 85
43 66 82
43 67 83
40 62 76
45 70 86
45 68 84
45 70 87
42 65 79
44 67 82
45 70 87
39 61 77
41 63 77
42 66 82
40 61 76
40 62 76
36 56 69
39 60 75
33 52 64
35 53 66
37 57 70
35 52 63
37 56 69
32 51 63
37 55 67
32 47 57
32 49 60
33 49 60
34 51 62
35 52 64
31 46 56
31 46 56
28 42 52
30 44 54
26 38 47
27 40 49
23 34 42
21 31 37
29 42 50
22 33 40
25 36 43
25 37 44
16 22 27
17 24 29
28 39 46
26 37 45
31 45 54
24 36 44
31 44 53
24 37 46
29 42 50
30 44 54
30 42 51
33 47 57
33 47 56
30 43 52
30 44 54
29 42 51
31 45 54
29 43 53
30 43 52
30 44 53
33 47 56
33 47 57
31 46 55
31 44 53
27 40 48
33 47 56
35 50 60
32 46 56
30 45 55
33 47 57
31 45 54
31 45 54
31 46 56
32 46 55
28 42 51
32 46 55
31 46 55
30 44 54
29 43 51
28 41 50
31 46 55
34 48 56
32 46 56
31 44 54
29 42 51
27 40 49
30 42 51
29 43 51
31 45 54
27 40 49
24 36 44
21 30 37
19 28 34
21 30 37
24 34 41
21 31 37
25 37 44
24 36 43
26 37 45
27 40 48
28 41 50
28 42 51
30 45 55
30 44 54
32 47 57
27 41 50
33 49 60
34 52 64
31 46 56
31 48 59
33 51 63
38 58 71
36 55 68
38 57 70
40 59 72
37 58 71
35 54 67
37 58 72
41 63 77
40 63 79
39 61 75
38 59 73
41 62 75
44 67 83
41 65 80
39 61 76
40 63 78
40 63 78
44 68 84
41 65 81
42 67 83
39 62 77
41 63 79
41 67 84
46 72 90
41 65 81
43 69 85
45 72 90
40 64 80
46 71 88
47 74 92
45 70 87
43 68 85
45 71 88
45 72 90
46 74 92
47 75 93
46 72 90
46 74 92
48 76 95
44 71 89
43 70 88
48 75 93
46 74 93
47 76 95
47 75 95
48 76 95
49 77 96
45 73 92
45 72 90
47 75 94
47 77 97
48 75 93
46 75 94
45 74 93
48 77 97
51 82 102
50 81 102
49 79 99
49 79 99
46 75 94
48 76 94
48 77 97
47 76 95
47 77 96
49 79 99
49 79 99
48 77 97
49 79 98
51 80 99
50 80 100
48 79 100
49 79 100
49 78 97
48 78 98
48 80 101
51 82 102
49 81 102
50 79 99
51 80 100
48 78 97
48 78 98
53 84 104
50 80 101
49 80 100
50 80 100
49 80 100
49 81 102
49 80 100
49 80 101
51 81 100
51 82 103
51 82 103
53 83 104
50 80 100
48 78 98
50 82 103
50 83 104
49 80 102
53 83 104
50 82 103
52 83 104
53 84 105
53 84 105
51 83 104
50 81 102
52 82 102
52 83 104
51 82 103
52 82 103
48 80 100
51 83 104
55 85 105
50 83 104
51 83 105
53 84 104
52 84 105
50 82 104
50 81 102
51 82 103
52 83 104
51 82 104
53 85 106
53 84 104
52 83 103
50 82 104
50 82 103
52 83 104
50 82 104
52 84 105
51 82 103
51 84 106
50 83 104
53 84 105
54 84 104
53 84 105
55 85 106
49 81 102
52 83 104
51 83 105
53 83 103
51 83 104
52 83 105
50 82 103
50 82 103
53 84 105
52 84 106
52 84 105
53 84 105
53 84 105
52 84 106
52 84 106
52 84 105
53 84 105
54 84 105
51 82 103
52 84 105
52 84 105
54 85 106
52 84 105
51 83 105
53 85 106
51 83 104
53 84 106
50 82 104
52 84 105
52 83 104
51 81 102
52 84 105
53 84 105
54 85 106
51 83 104
51 82 104
54 85 106
52 84 105
51 83 105
51 83 105
52 83 103
54 85 106
55 86 106
50 82 103
51 82 104
50 82 103
50 82 103
52 83 103
51 83 103
53 84 105
52 83 104
52 84 105
52 83 104
51 82 103
54 85 106
52 82 103
51 81 102
53 84 105
51 82 103
52 83 104
48 81 103
51 82 102
51 83 105
50 81 102
49 80 101
50 80 101
50 80 100
50 81 102
52 83 103
48 78 98
51 82 103
52 83 104
51 82 103
52 81 100
51 82 103
53 84 106
50 81 102
51 82 103
49 79 99
50 81 101
50 82 103
49 79 98
52 83 103
51 82 103
51 82 102
52 83 104
50 80 100
49 80 101
50 80 100
51 83 103
51 81 101
51 82 102
51 82 104
50 81 102
49 80 101
48 78 99
48 80 101
50 80 100
47 76 94
52 81 101
49 78 98
50 79 99
47 76 95
50 79 98
47 77 97
50 81 101
48 79 99
47 77 97
50 82 103
46 76 96
49 79 99
50 80 100
49 78 98
51 79 98
50 79 99
49 77 95
49 80 101
49 77 97
48 78 97
50 78 97
47 76 95
49 80 100
50 80 101
48 78 98
47 75 94
47 75 93
45 71 89
46 74 93
47 77 96
46 74 92
47 76 95
45 72 90
46 74 93
48 77 96
46 74 93
50 77 96
48 75 93
45 72 90
45 72 90
46 72 89
50 78 97
43 68 85
45 72 91
44 69 86
42 67 84
49 77 96
43 69 86
46 71 88
43 70 88
43 69 86
46 72 90
43 69 87
42 66 83
45 69 86
41 65 82
40 64 80
40 63 78
42 67 84
42 67 83
41 64 79
39 60 75
38 60 74
46 70 85
40 62 77
39 60 74
38 60 74
39 61 75
39 59 72
39 59 72
40 60 74
34 52 65
35 53 65
35 54 66
37 57 70
36 54 66
38 57 70
37 56 69
35 52 63
35 51 62
33 51 63
30 46 57
29 43 52
30 46 56
32 47 57
30 43 53
25 38 46
32 46 55
23 34 42
27 39 47
27 38 46
24 35 42
22 32 38
20 29 35
19 27 33
21 30 36
19 28 33
16 23 27
24 34 41
24 34 41
26 37 45
28 41 50
25 36 44
29 42 51
25 37 44
34 47 56
27 40 49
32 45 54
27 41 50
30 42 50
32 46 56
28 42 50
29 43 52
30 44 53
31 44 53
29 43 52
28 40 49
34 49 58
30 44 53
30 43 52
32 45 54
29 41 49
25 37 45
32 46 55
34 48 57
27 39 48
26 39 48
35 49 58
31 45 54
27 39 47
32 47 57
27 40 49
30 44 53
29 42 51
24 36 43
31 44 53
27 40 48
28 41 50
30 42 50
27 40 48
30 43 52
27 39 47
27 38 45
20 28 34
21 31 37
21 31 37
26 38 46
18 26 31
24 35 42
22 32 39
26 39 47
25 36 43
24 36 45
24 36 44
28 41 50
24 36 44
27 40 49
28 41 49
29 43 52
30 44 53
32 47 58
33 50 62
31 47 57
34 51 62
31 47 58
32 48 59
34 52 64
35 53 66
32 48 59
36 55 68
40 61 75
39 61 75
39 61 75
39 61 75
39 61 75
37 57 70
37 57 70
39 59 72
39 61 75
37 58 72
40 64 80
43 68 84
46 72 89
40 62 77
40 63 78
42 65 81
40 63 79
44 69 86
42 68 85
42 64 78
41 66 82
41 65 81
45 71 89
46 73 90
40 67 84
43 68 85
45 72 89
44 71 88
47 74 92
47 74 92
45 71 88
46 75 94
44 71 88
45 71 89
47 74 92
47 76 95
47 73 91
45 73 91
47 76 95
46 75 94
50 79 98
47 75 94
45 73 91
45 72 91
46 76 96
48 77 96
45 73 92
49 79 99
47 75 94
50 80 101
50 80 100
46 75 94
46 74 93
48 77 96
49 77 97
51 81 101
48 77 96
49 79 99
50 79 99
50 80 101
48 78 98
50 82 102
48 79 100
49 80 100
47 75 93
48 78 98
55 85 106
49 80 100
50 79 99
50 79 99
50 79 99
50 80 100
51 82 102
49 80 100
50 81 101
48 78 97
48 78 97
49 79 98
52 82 102
51 81 101
49 79 98
49 79 98
51 81 101
50 80 99
48 79 100
51 81 102
50 80 100
51 82 103
51 81 101
51 82 102
49 81 102
50 81 102
51 82 102
50 82 102
49 80 101
49 81 102
52 84 105
52 84 105
50 81 103
52 82 103
52 84 104
50 81 102
53 84 105
52 84 105
50 82 103
50 81 101
51 82 102
50 81 102
51 82 103
51 83 105
51 83 104
50 81 102
50 82 104
53 83 103
52 83 104
52 83 103
50 81 102
51 83 103
51 83 104
51 83 104
51 82 103
53 84 105
50 82 103
52 84 105
51 83 104
51 82 104
52 83 104
51 81 102
51 83 104
51 82 102
52 83 104
51 83 104
50 83 104
51 82 103
51 82 103
52 84 106
51 82 103
52 83 104
51 83 104
49 82 103
53 83 103
54 84 105
51 83 104
52 83 104
52 83 104
51 84 105
50 82 103
51 84 106
55 85 106
52 84 105
51 84 105
51 82 103
54 85 105
52 83 105
52 84 105
52 84 106
51 83 105
51 83 105
52 83 104
53 85 106
51 83 105
51 82 103
49 82 103
53 84 105
51 83 104
52 84 105
51 83 104
52 84 106
53 84 105
52 84 105
52 83 103
52 84 106
52 84 105
52 84 105
51 82 103
53 83 104
53 84 104
52 82 102
49 81 102
51 83 104
51 82 103
52 83 103
52 82 103
51 82 103
50 82 104
51 83 104
50 82 103
51 82 103
52 83 103
51 83 103
52 84 105
51 83 103
52 83 104
51 83 103
47 79 100
51 82 103
49 81 102
50 83 104
51 81 101
49 81 103
52 82 101
51 83 104
51 81 100
50 83 105
50 80 100
52 84 105
48 81 102
51 81 102
48 77 97
52 82 103
49 79 99
49 80 101
51 82 102
51 83 104
50 82 103
50 81 101
47 77 97
48 80 101
51 81 101
53 83 102
51 82 103
51 81 101
49 78 98
47 77 97
48 76 95
49 79 99
49 80 101
47 77 97
51 82 102
49 79 99
51 82 103
50 79 98
51 80 100
51 80 100
49 79 98
49 81 102
49 79 100
49 79 99
49 78 98
50 78 97
47 75 94
47 78 99
48 78 97
47 75 93
51 80 99
48 76 95
46 76 96
47 76 95
46 74 92
46 75 95
51 81 101
47 75 94
47 77 97
47 76 95
47 76 96
49 79 98
49 77 96
48 77 96
48 76 95
47 74 92
46 73 91
50 78 96
45 73 93
46 73 92
47 75 94
48 75 93
45 72 91
47 75 94
51 79 97
43 71 90
44 70 88
46 72 90
46 72 90
44 72 90
42 68 85
43 69 86
45 71 89
42 67 83
45 71 88
48 75 93
46 73 90
41 65 80
44 70 88
45 71 88
43 69 87
41 66 82
42 66 81
42 66 81
41 64 79
43 68 86
36 57 71
39 61 76
38 60 76
43 66 81
36 57 70
41 63 78
40 62 77
39 59 73
34 54 68
39 60 74
39 61 75
37 58 72
38 57 70
36 54 66
32 49 61
37 57 70
35 54 66
33 50 61
33 49 60
33 49 60
37 54 66
35 53 64
32 48 58
34 50 61
30 45 55
31 46 56
28 42 50
27 40 49
27 40 48
26 38 46
30 44 53
27 39 47
27 39 47
22 33 40
29 41 50
18 26 31
19 28 34
18 25 30
19 27 32
19 27 33
18 25 30
25 35 42
23 32 38
26 38 46
26 39 47
31 43 51
27 39 47
28 40 48
24 37 46
27 40 49
26 38 46
25 38 47
30 43 52
29 41 50
28 41 49
26 39 48
27 40 48
27 40 49
30 43 52
27 40 49
27 40 49
26 38 46
29 42 50
30 43 51
31 45 54
29 43 52
24 35 43
25 38 47
30 43 52
28 41 50
31 44 53
32 46 55
28 40 49
30 42 50
25 36 44
25 37 45
30 44 53
27 39 47
26 37 45
27 38 45
15 22 27
15 21 25
16 22 27
17 25 30
22 31 37
18 26 31
20 29 35
20 30 37
25 37 44
23 32 39
26 38 45
28 41 49
29 45 55
30 43 52
24 36 44
28 42 51
27 39 48
32 48 58
32 47 56
30 45 56
31 47 57
37 54 66
31 47 57
33 48 59
33 52 64
34 50 61
32 49 60
33 50 61
36 55 68
40 61 75
40 61 74
37 57 70
37 58 72
39 59 73
40 60 73
39 61 75
38 59 73
39 60 74
39 61 76
40 63 79
42 66 82
41 64 80
41 65 80
40 64 80
40 63 79
42 66 82
41 63 78
41 64 80
40 64 80
40 62 77
42 66 82
46 72 89
40 63 78
44 69 85
44 69 85
45 71 88
45 73 91
45 70 86
47 74 92
41 67 84
47 73 91
48 76 95
44 71 89
42 67 84
49 78 97
48 78 98
47 75 93
47 73 90
47 75 94
48 75 93
48 77 96
44 70 88
45 72 90
47 75 94
47 75 94
48 76 95
45 74 94
49 78 98
48 77 96
46 76 97
47 77 96
49 78 98
47 76 95
50 77 95
50 79 98
49 80 101
48 78 99
48 77 96
47 76 96
48 78 97
47 79 100
50 81 101
49 79 99
49 78 98
49 78 98
48 76 95
49 80 100
49 79 99
50 81 101
49 80 100
52 82 103
51 81 101
49 78 98
49 81 101
53 83 103
48 78 98
49 79 99
50 81 101
47 77 96
49 78 97
46 77 97
49 79 99
52 82 102
53 82 102
48 79 99
48 77 97
51 82 102
50 81 101
50 80 100
51 82 103
49 80 100
51 82 102
52 82 102
49 80 101
49 80 100
50 82 103
52 82 103
52 83 103
50 82 103
51 83 104
52 84 106
51 82 103
51 83 104
51 82 102
52 83 103
50 81 102
51 82 103
51 83 104
50 82 103
53 83 103
50 82 103
50 81 102
51 83 105
49 81 102
51 82 103
55 86 106
53 84 106
51 84 105
51 82 103
51 83 103
52 83 103
49 81 102
50 82 103
51 83 104
52 83 104
51 83 104
53 84 105
52 84 105
52 84 106
51 83 103
50 82 103
51 83 104
51 82 102
52 83 103
52 84 105
50 81 102
52 84 105
53 84 105
50 82 103
52 83 105
53 83 104
51 82 102
50 81 103
52 84 105
52 84 106
52 84 105
52 83 103
52 84 105
49 81 101
55 85 106
51 82 104
52 83 104
53 85 106
51 83 104
51 82 102
50 83 105
55 85 106
51 82 103
51 83 104
53 84 104
52 84 104
52 84 105
52 83 104
53 84 105
52 83 104
52 83 105
51 83 104
53 83 104
52 84 105
52 83 103
54 85 105
51 83 104
53 83 104
50 81 102
52 84 105
51 80 100
52 84 105
50 81 102
52 82 103
50 83 105
51 83 104
52 84 106
53 84 104
51 82 102
53 84 105
50 82 103
51 83 104
51 82 102
51 82 102
50 82 103
51 83 105
53 85 106
51 83 104
50 82 103
52 84 105
49 81 102
50 83 104
51 82 102
51 81 102
52 83 104
49 79 100
53 84 104
52 83 104
49 80 101
51 83 104
52 83 104
51 82 103
50 82 104
51 82 104
50 81 101
52 83 103
50 80 101
49 80 100
51 82 103
51 82 103
50 81 101
50 82 103
50 82 103
50 81 102
51 82 102
50 81 101
49 79 99
49 81 101
53 82 102
51 80 100
48 79 99
49 80 101
48 78 98
49 82 103
46 76 95
48 78 98
51 80 100
52 81 101
50 78 97
51 82 102
48 76 95
51 80 99
49 79 99
45 75 95
49 77 95
49 79 98
47 77 97
51 80 99
50 78 97
48 77 97
47 76 96
47 73 91
46 76 96
48 77 96
46 76 96
50 77 95
48 75 93
46 76 96
47 76 95
46 74 93
47 75 93
49 77 95
48 77 96
49 77 96
44 71 89
43 69 86
44 72 90
45 73 92
46 73 91
50 79 99
45 72 89
47 74 92
44 71 90
46 74 92
43 67 83
43 70 87
44 71 89
41 64 80
46 72 89
42 67 83
43 71 90
44 69 86
47 72 88
42 67 84
37 59 74
44 71 90
44 70 87
44 69 86
42 67 83
44 70 87
41 65 81
42 67 83
42 67 83
38 59 74
43 68 85
42 65 81
37 59 73
39 62 77
42 64 79
41 66 82
42 64 79
41 63 78
42 65 81
37 56 69
36 56 69
35 55 68
37 57 70
40 61 74
31 49 61
38 59 73
34 51 62
36 54 66
36 54 66
34 51 62
34 53 66
30 45 55
35 52 63
29 44 54
27 40 49
31 46 56
28 42 51
30 44 54
28 43 52
28 41 50
24 35 43
26 38 46
24 35 42
20 28 33
27 39 48
20 29 35
25 35 42
22 32 38
20 28 33
18 26 31
19 27 32
15 21 25
12 17 20
16 22 27
16 22 27
24 33 39
21 29 35
22 32 39
24 36 43
22 32 39
21 32 39
24 36 43
22 33 40
25 36 44
26 38 46
26 38 47
25 37 45
28 40 48
27 40 49
26 38 45
25 37 45
26 39 47
32 46 55
25 37 45
26 38 46
28 41 49
28 40 48
27 38 46
27 39 48
27 38 46
24 37 46
25 37 45
27 38 45
25 37 45
26 36 43
26 38 46
20 30 37
18 26 31
16 22 27
13 19 23
17 24 29
19 27 32
15 21 26
19 27 32
16 23 28
22 32 38
16 23 27
19 28 34
22 32 38
27 39 47
26 38 46
22 32 39
22 33 39
28 40 48
22 32 39
26 38 45
30 44 53
29 44 53
33 49 60
34 51 63
27 41 50
33 49 61
27 41 50
35 53 65
35 53 65
34 51 63
32 49 60
34 52 64
32 47 57
35 55 68
35 54 66
39 59 73
38 57 71
41 63 77
37 57 70
39 59 73
39 60 73
39 60 75
39 62 77
40 62 77
38 61 77
42 65 80
41 65 81
45 71 89
45 70 86
41 66 83
43 66 81
46 70 85
43 66 82
39 61 75
44 70 87
42 68 85
42 68 86
43 68 84
39 64 81
43 68 84
45 72 89
43 67 83
41 65 81
42 67 84
43 68 85
47 74 91
50 78 97
47 75 93
44 72 90
43 68 85
43 68 85
47 76 95
43 70 89
45 73 91
45 73 92
47 75 94
46 74 92
45 73 92
49 78 97
47 75 94
50 79 98
47 77 97
49 77 96
48 78 98
45 73 92
48 78 98
49 77 96
47 78 99
43 70 88
47 77 96
47 76 96
48 77 96
47 76 95
50 79 98
46 75 94
50 79 98
48 78 98
49 79 98
48 78 98
49 79 99
50 80 100
51 83 104
48 78 98
51 81 101
51 82 102
53 83 104
51 81 101
49 79 99
52 82 102
47 78 98
51 82 102
48 79 99
48 78 98
48 79 99
50 80 100
51 82 102
48 77 96
50 82 104
51 81 101
51 82 102
49 79 99
52 83 103
49 81 102
50 82 103
53 84 105
50 82 103
52 82 102
49 80 101
50 82 102
49 81 102
50 82 104
50 82 103
51 81 101
51 82 102
51 82 103
51 82 102
51 81 100
52 83 104
51 81 102
51 82 103
50 79 99
51 84 105
50 81 102
49 79 99
50 81 102
54 84 105
50 81 102
51 82 103
52 83 103
49 80 101
49 80 101
52 83 104
50 81 102
51 83 104
52 84 105
50 82 103
51 82 103
51 83 104
53 85 105
51 82 103
52 84 106
54 85 106
54 85 105
50 82 102
52 82 102
51 83 105
50 82 104
50 81 101
52 84 105
52 83 104
51 82 102
52 83 105
52 84 105
49 81 102
53 84 104
52 83 104
51 83 104
53 85 106
52 83 104
53 85 106
52 83 103
50 83 104
50 82 103
53 85 106
49 82 103
53 84 105
53 85 106
51 83 104
51 84 105
52 83 103
50 82 102
51 82 103
51 82 103
49 82 103
51 83 103
52 83 104
52 84 104
52 84 104
51 83 104
51 82 103
52 83 104
51 82 103
51 82 103
53 84 106
50 81 102
49 81 102
51 83 103
49 81 103
52 83 103
52 83 103
53 84 105
52 84 105
50 81 102
52 84 105
52 84 104
50 81 102
52 83 104
53 84 104
51 83 104
49 80 100
51 82 102
52 83 104
51 84 105
53 83 104
52 82 103
49 82 104
49 82 104
50 82 103
51 82 103
51 83 104
53 84 105
51 83 104
49 79 99
50 82 102
50 81 101
52 84 106
52 83 103
52 83 104
50 82 103
51 82 103
48 78 98
49 80 100
49 79 100
51 83 104
51 81 101
52 83 104
50 80 101
50 81 101
47 77 97
50 81 101
50 80 100
51 81 101
49 80 100
51 83 104
50 81 102
49 80 100
50 81 101
51 82 102
48 78 98
51 82 103
46 76 95
49 79 99
50 80 101
49 78 97
51 82 102
51 81 101
48 78 98
47 76 95
51 81 101
50 79 99
47 76 96
49 79 98
49 79 98
46 74 93
47 76 96
48 77 96
49 79 98
48 77 96
48 77 96
50 79 98
49 78 98
51 79 98
47 76 96
45 74 93
45 75 96
46 75 95
48 78 97
48 78 98
47 74 92
47 76 95
47 77 97
44 72 91
48 75 94
44 71 89
47 74 92
48 77 96
46 74 93
44 70 88
45 75 94
44 71 89
47 74 93
46 73 91
43 69 86
49 78 97
46 73 91
44 71 89
44 70 87
46 74 93
43 69 87
45 70 86
42 66 82
43 68 85
44 69 86
45 71 88
40 64 79
44 70 88
39 62 77
43 69 86
43 66 82
42 66 81
40 62 77
45 67 83
41 64 80
43 67 84
38 60 74
38 59 74
39 61 76
38 58 71
39 60 74
40 62 77
38 59 72
40 62 77
38 58 71
36 56 69
36 56 70
40 60 73
37 55 68
34 52 64
35 53 66
36 54 66
35 54 66
32 48 58
34 52 64
31 47 58
34 52 63
34 51 62
25 37 45
34 50 62
28 42 51
28 43 52
29 44 53
31 45 54
30 45 54
25 37 45
28 41 49
29 42 51
21 31 37
21 31 38
20 30 36
21 31 37
24 35 42
17 25 30
24 34 41
22 31 37
17 25 30
20 28 34
19 27 32
11 15 19
18 25 29
16 22 27
16 23 27
13 19 22
14 19 22
17 23 28
21 30 37
21 29 35
20 29 34
23 33 39
25 36 44
28 40 49
27 38 46
23 35 42
22 32 39
31 44 53
27 39 47
25 37 44
24 34 41
26 37 45
27 39 47
24 36 43
28 39 47
24 35 42
20 30 37
22 31 38
20 30 36
19 28 34
18 25 30
19 27 32
13 18 22
14 19 22
9 13 16
15 21 25
16 23 27
21 29 35
17 24 29
20 28 34
21 30 36
21 30 36
21 30 36
25 35 43
21 30 36
26 38 46
22 32 38
23 33 41
22 32 39
26 37 45
26 37 45
25 38 46
28 41 50
23 34 41
27 40 48
30 45 55
25 37 46
29 43 53
27 40 49
30 46 56
36 54 66
28 42 52
36 54 66
37 56 68
34 52 64
33 51 62
34 51 63
34 52 63
33 51 63
41 63 77
39 60 74
35 52 63
36 56 69
34 53 66
40 62 77
41 63 77
38 59 74
35 54 67
40 63 78
41 64 80
45 69 86
40 62 77
42 65 80
40 65 81
38 61 76
45 71 88
45 71 88
41 66 82
46 72 90
39 63 79
41 64 80
42 67 84
41 65 82
48 74 92
45 71 89
44 69 86
42 66 83
46 74 92
42 68 86
40 65 82
47 73 91
45 71 89
44 70 88
45 72 89
43 69 87
45 72 90
48 75 93
46 75 94
48 77 96
44 72 90
45 74 93
46 74 93
46 74 93
46 73 91
48 76 95
45 72 90
49 78 97
47 76 95
48 78 98
47 76 95
46 77 98
50 81 102
51 81 101
50 79 99
46 75 94
48 77 96
46 76 95
49 79 99
52 82 102
48 75 93
51 81 101
48 76 95
50 80 100
48 78 99
46 75 94
47 77 97
45 74 93
50 80 99
45 75 94
49 80 100
50 80 101
49 78 98
48 78 98
51 81 101
49 79 99
48 79 99
50 80 100
49 80 100
49 78 98
49 80 101
50 79 99
51 81 101
49 80 101
49 79 100
46 76 95
50 82 103
49 79 99
53 83 103
50 81 102
48 80 102
51 81 101
50 81 101
52 82 102
50 80 100
50 81 102
51 82 103
51 83 105
51 82 103
49 81 102
50 80 100
53 85 106
50 82 103
50 82 103
50 82 102
51 82 103
51 83 104
51 82 102
50 82 103
49 80 100
51 83 104
51 83 104
50 81 103
52 82 103
49 81 103
51 82 103
52 83 104
52 83 104
52 84 105
50 82 103
51 82 103
51 82 103
53 84 105
51 83 105
52 82 103
52 83 104
49 82 104
51 81 102
50 81 101
51 83 104
52 82 102
49 81 102
55 86 106
53 83 104
53 84 105
53 84 104
52 83 104
50 83 105
54 85 106
52 84 105
51 83 104
50 82 103
52 83 104
51 82 103
52 84 106
51 84 106
53 84 105
48 79 100
52 84 105
52 82 103
52 84 106
54 85 105
54 85 106
51 84 105
51 83 105
52 84 105
51 83 104
54 84 105
52 84 105
53 84 104
50 81 103
49 80 100
52 84 105
52 83 104
52 83 104
50 82 104
52 83 103
50 81 102
51 83 103
52 83 104
49 82 104
49 81 103
52 83 104
51 83 104
52 83 104
52 83 104
51 83 103
49 82 103
52 84 106
50 81 102
52 83 103
50 81 102
50 80 100
53 84 104
52 83 104
50 82 103
51 83 104
52 82 102
53 84 104
51 83 104
51 82 103
50 82 103
52 83 104
47 76 96
50 81 101
52 83 104
52 84 105
50 81 102
50 81 102
50 81 101
50 82 103
52 82 102
49 81 102
50 80 100
50 81 102
51 82 102
50 82 103
51 81 100
51 82 103
49 80 101
49 80 100
51 82 104
51 81 102
48 79 100
49 80 101
50 81 101
50 80 100
50 79 99
50 81 101
51 81 101
50 80 101
47 78 99
51 81 101
49 80 101
52 81 101
50 82 103
49 79 98
49 78 97
51 81 101
50 78 97
48 77 97
50 81 101
50 80 100
48 79 99
51 79 98
49 78 97
50 80 100
49 79 98
48 77 96
49 79 99
47 75 93
49 78 97
48 79 99
47 77 97
49 80 100
47 75 93
48 78 97
47 77 96
51 80 100
48 75 94
47 76 95
46 75 94
46 74 92
47 74 91
46 74 92
46 74 93
48 76 94
46 73 91
47 77 96
45 75 94
47 74 92
48 74 92
46 73 90
44 71 89
45 72 90
46 73 91
45 73 92
46 73 91
45 70 87
43 68 84
45 71 89
45 70 87
43 69 87
43 68 85
46 73 90
49 77 95
48 76 94
46 71 88
41 66 83
44 69 85
45 70 87
45 70 87
43 68 84
45 70 87
43 68 85
41 63 78
47 72 89
41 64 80
37 57 71
42 65 81
37 56 69
41 63 78
40 62 76
40 62 77
39 62 77
42 64 79
41 64 78
36 56 69
38 57 70
38 58 72
35 53 65
34 52 64
33 51 63
38 57 69
34 53 65
36 54 67
33 49 60
35 53 65
31 47 58
33 51 62
28 43 53
36 52 63
33 49 60
28 42 51
34 49 59
25 38 46
29 42 51
26 38 46
27 40 48
28 41 49
27 40 48
29 41 50
24 35 42
23 34 41
28 39 47
22 32 39
22 31 37
27 39 46
21 30 36
19 27 33
17 24 29
21 30 36
25 36 43
19 27 33
18 25 30
10 14 17
18 25 30
14 19 23
15 21 25
14 19 22
10 14 17
11 16 18
10 14 17
14 20 23
13 18 21
18 25 29
15 22 26
15 21 26
16 22 27
17 25 30
21 29 35
13 19 23
16 23 27
15 21 25
17 24 29
14 19 23
16 22 26
15 20 23
15 20 23
8 12 14
7 10 12
12 17 20
12 17 20
15 22 26
13 18 21
12 18 21
15 21 25
16 22 26
14 20 23
16 23 28
21 29 35
15 21 25
18 25 31
16 23 28
19 27 33
23 33 39
24 35 42
26 37 44
21 29 35
24 36 43
26 39 47
26 39 47
25 37 45
27 40 48
32 46 55
33 50 60
31 46 56
27 41 51
32 48 58
35 52 64
31 45 55
34 50 61
35 53 64
36 53 65
33 49 60
37 58 71
34 51 62
37 57 70
33 51 62
38 57 71
35 54 66
33 50 62
41 62 76
35 54 66
40 62 76
35 55 69
41 64 79
39 60 74
42 66 81
39 61 75
41 65 81
46 70 86
41 65 81
40 65 82
44 69 86
44 69 86
42 67 83
42 66 82
44 69 85
36 58 73
40 63 77
47 74 91
47 74 92
45 69 86
42 67 84
44 70 86
44 70 87
45 73 92
47 74 91
47 74 93
42 69 86
48 75 94
48 77 96
48 74 92
47 74 93
45 72 90
45 72 90
46 72 90
45 74 93
46 74 92
45 72 91
45 71 89
46 74 93
48 76 94
47 75 94
44 71 89
47 74 92
44 72 91
47 76 95
48 78 97
50 78 97
47 75 94
46 76 96
47 76 96
51 80 99
48 77 96
50 80 100
47 77 97
49 79 99
47 76 95
48 77 96
48 78 97
49 79 99
48 79 99
48 77 97
49 80 101
49 80 100
50 80 99
47 77 97
49 77 95
50 80 99
50 80 101
50 80 100
50 79 99
48 78 97
49 79 99
50 81 102
49 80 100
49 80 100
50 81 102
49 80 101
49 81 101
48 78 98
49 79 99
50 81 101
50 79 99
50 80 100
50 80 100
50 82 103
51 82 103
49 80 101
49 79 100
51 83 104
52 84 105
51 82 103
51 82 102
52 82 103
49 77 97
51 82 103
50 81 102
49 81 101
50 81 102
50 80 101
51 80 100
51 82 103
50 81 101
51 82 103
50 80 101
50 80 100
52 83 104
51 81 102
50 81 101
52 84 104
49 79 99
50 81 101
50 82 104
51 83 104
50 81 103
52 83 103
52 83 104
51 82 104
50 81 102
52 83 104
52 83 104
48 80 101
52 83 104
47 79 100
52 82 102
51 82 103
53 84 105
50 82 103
50 82 103
51 83 105
51 83 104
52 83 104
54 84 104
49 79 99
51 82 102
51 84 105
52 82 103
52 85 106
51 83 104
51 84 105
50 82 104
52 84 105
53 84 105
52 84 105
50 82 104
49 81 102
51 84 105
52 84 105
51 83 104
52 83 104
54 85 106
53 84 104
52 83 104
51 83 105
51 83 104
50 81 101
51 83 105
51 82 103
53 84 105
50 81 101
52 82 103
51 83 105
51 82 103
53 84 105
51 83 104
52 83 104
50 83 104
53 83 102
50 82 103
54 85 106
49 79 100
50 81 103
50 83 105
49 81 102
51 83 104
51 81 101
49 81 102
51 82 102
49 82 103
51 82 102
50 82 104
50 82 103
49 81 102
50 81 102
51 83 104
51 83 104
50 82 103
50 81 101
52 81 101
51 81 102
51 82 103
52 82 103
51 83 104
50 81 101
49 79 99
50 80 101
51 82 103
51 81 102
50 80 100
50 81 101
53 84 105
51 81 101
51 82 103
53 83 103
51 83 104
49 79 98
51 81 101
52 83 104
49 79 100
50 80 100
50 80 100
51 83 104
51 81 101
50 81 102
48 77 97
49 78 98
52 82 102
51 81 101
50 80 99
48 78 98
48 79 99
48 79 99
50 80 101
49 79 99
50 80 100
52 82 103
47 77 97
47 77 98
49 79 99
48 78 98
50 83 104
49 79 100
47 76 94
50 79 99
48 78 98
48 78 97
48 79 99
46 74 93
50 79 99
46 74 93
47 76 96
48 77 97
48 78 98
45 72 89
49 77 96
47 77 96
47 78 98
46 75 95
46 75 95
46 73 91
46 74 92
48 79 99
46 74 92
49 77 96
50 78 98
47 74 91
45 72 90
45 71 88
48 75 93
43 70 88
49 76 95
43 69 87
48 76 95
46 73 91
45 71 88
42 67 84
42 67 84
44 72 90
43 67 84
46 73 91
45 69 85
47 73 90
44 70 87
43 70 88
41 65 81
44 68 85
45 71 87
41 66 83
41 64 78
38 59 73
43 67 84
41 66 82
44 67 83
42 65 80
38 62 77
42 64 79
40 63 78
40 61 74
40 62 76
42 64 78
39 60 75
36 56 70
42 64 79
38 58 71
36 56 70
41 61 75
38 58 71
40 61 75
41 62 76
34 53 65
35 54 67
39 61 76
33 50 61
34 50 61
32 48 60
28 43 53
35 53 65
31 48 58
32 49 59
32 48 58
29 44 55
32 47 58
33 50 61
31 46 55
24 36 44
29 43 52
27 40 48
27 40 49
27 38 46
25 36 43
23 33 40
24 35 42
26 38 46
28 40 48
22 32 38
22 31 36
18 26 31
21 31 37
15 22 27
15 22 26
21 29 34
17 24 28
19 27 32
19 26 31
16 23 27
20 28 33
17 24 29
13 18 22
16 23 27
13 18 22
13 18 22
11 15 18
13 18 21
7 10 12
11 15 18
12 17 20
15 21 25
11 15 17
10 14 17
10 14 17
9 13 15
17 24 28
9 13 15
13 18 22
13 18 21
12 17 20
13 18 21
14 20 23
16 21 25
17 23 27
14 21 25
15 22 26
15 21 26
15 21 25
17 23 28
16 23 27
17 24 28
20 29 35
14 21 25
24 34 41
20 28 34
25 36 44
22 31 37
23 33 40
28 41 49
24 36 43
26 39 47
23 34 41
27 41 49
26 38 46
29 42 51
27 39 47
29 43 53
28 42 51
30 46 56
33 49 59
28 41 50
30 45 55
32 47 58
34 51 62
33 51 62
32 48 58
33 51 63
36 54 65
31 48 60
38 58 71
36 55 67
34 55 68
34 52 63
40 61 75
40 61 76
37 57 71
35 55 68
38 58 71
35 55 68
46 72 89
39 61 75
42 65 80
42 65 80
35 56 70
38 58 71
43 69 86
39 63 79
43 68 84
43 67 83
42 66 81
38 59 73
45 71 89
40 65 81
42 66 82
45 70 86
43 69 86
44 68 84
44 72 90
44 68 85
45 71 87
43 68 84
46 73 91
43 68 86
44 70 88
45 71 88
45 72 90
46 74 93
44 71 89
44 71 89
44 71 88
45 71 88
45 73 92
44 70 88
45 71 89
47 77 97
47 74 92
48 76 95
49 78 98
48 77 95
43 69 87
46 74 93
48 77 97
47 76 95
45 73 92
45 74 93
46 74 93
46 74 93
51 80 99
48 77 96
49 77 97
50 78 97
49 78 98
48 77 96
47 75 94
49 79 99
48 79 99
51 81 101
47 77 96
49 77 96
49 78 97
50 79 99
48 77 97
50 81 102
50 78 97
50 80 100
51 81 101
48 78 98
49 81 101
50 80 100
48 78 98
47 77 96
49 80 100
48 77 97
49 79 99
51 82 102
51 81 102
49 80 101
52 82 102
51 81 101
50 80 101
50 80 101
53 82 102
50 80 100
50 81 102
51 84 105
48 79 99
52 83 104
51 81 102
48 78 98
50 81 101
51 82 103
48 78 98
48 79 100
51 82 103
49 80 101
50 80 101
48 79 99
50 80 99
52 83 104
51 82 104
50 81 102
50 81 102
51 82 102
50 81 102
51 83 105
49 82 104
51 83 104
51 82 103
50 82 103
50 81 102
53 84 105
53 84 105
49 81 102
53 84 105
51 82 103
53 84 105
52 83 104
53 85 106
53 84 104
49 81 102
52 83 103
52 82 102
51 81 101
51 83 104
50 82 104
52 84 105
51 83 104
52 84 106
51 83 104
53 84 104
52 84 104
51 83 104
53 85 106
51 83 104
52 83 104
51 83 104
51 83 104
52 83 104
51 84 105
52 84 105
51 83 103
50 82 103
52 83 104
50 82 104
51 83 104
51 82 103
52 83 103
51 82 103
51 82 103
52 82 102
53 84 105
50 82 103
53 84 105
52 84 105
48 79 100
50 83 104
52 83 104
52 84 105
49 82 104
50 82 103
51 83 104
49 80 100
48 80 101
53 84 104
49 79 99
52 83 104
52 84 105
51 83 105
51 80 99
52 83 104
49 81 102
52 83 103
51 82 103
50 81 101
52 83 103
51 82 103
50 81 102
50 80 101
47 78 98
50 81 102
53 83 104
51 82 103
50 81 102
51 82 102
52 83 103
51 82 102
47 77 97
52 83 103
52 82 102
50 81 101
51 81 101
52 83 104
50 81 102
49 80 101
49 81 102
50 82 103
50 81 102
51 82 103
50 80 99
50 81 101
49 80 100
51 82 103
49 79 98
49 80 100
48 78 97
48 78 98
49 79 100
49 80 100
52 83 104
50 80 100
47 78 99
51 83 104
50 81 102
49 80 101
50 78 98
48 78 99
49 79 99
50 79 98
48 78 97
50 80 100
50 80 101
48 78 97
49 78 98
47 76 95
48 76 96
49 78 97
49 78 98
48 76 95
48 78 99
49 78 97
49 79 99
46 76 95
48 76 95
47 75 94
47 76 96
49 82 104
48 78 98
46 74 93
48 78 98
44 72 91
47 75 95
45 73 91
47 76 95
47 75 94
48 77 96
44 72 90
48 76 95
47 74 91
46 74 93
47 75 94
43 70 87
45 73 91
47 76 95
48 75 93
48 73 91
44 72 91
45 72 90
49 77 97
44 70 88
42 65 81
43 69 86
44 72 90
42 68 85
41 67 84
46 71 89
45 70 87
44 70 87
44 71 89
46 73 90
45 72 90
41 65 81
42 67 84
43 66 81
40 65 81
44 69 85
43 66 81
42 67 83
42 66 82
41 65 81
38 61 76
43 68 84
40 62 76
38 59 73
36 54 67
36 57 71
40 62 77
41 63 77
41 64 79
37 56 69
40 60 73
42 66 82
38 58 71
34 54 66
36 56 70
34 52 63
31 47 57
30 46 56
36 56 69
34 51 63
36 54 66
31 47 57
32 48 59
33 48 58
33 49 59
25 38 46
29 44 53
30 43 52
28 43 53
32 47 57
27 40 48
27 40 48
26 38 46
23 34 41
24 34 41
24 35 42
25 36 44
29 41 49
25 35 42
24 35 42
27 38 45
25 35 42
17 23 28
23 33 39
19 26 32
22 31 38
23 32 39
20 29 34
17 24 29
21 29 34
13 18 22
17 23 28
19 27 32
15 20 24
16 23 27
18 24 29
17 24 28
15 21 25
13 19 23
11 15 18
13 18 21
15 22 26
12 17 21
15 20 24
21 28 34
16 23 27
17 23 28
14 20 24
12 16 19
13 19 22
14 20 23
15 20 24
19 26 30
13 18 22
17 24 28
20 28 34
20 28 33
16 23 28
17 25 30
16 23 28
23 33 40
23 33 39
25 37 44
22 31 38
19 28 33
27 38 46
21 30 37
24 35 42
20 29 36
27 40 48
25 37 45
28 41 50
23 35 42
29 41 50
27 40 49
31 46 57
31 45 54
29 43 52
24 36 44
31 47 57
34 50 61
32 47 58
34 51 62
34 50 61
33 51 63
31 47 57
35 53 65
33 50 61
37 56 68
33 51 63
36 54 65
37 56 68
32 49 60
35 53 66
36 55 67
39 60 73
40 61 76
39 60 73
35 55 69
41 62 76
34 54 67
40 61 75
44 67 83
43 67 83
42 65 81
38 59 74
44 68 83
39 61 76
41 63 78
43 68 84
42 67 83
42 65 81
42 66 83
40 64 81
47 73 90
43 68 84
40 66 83
41 65 81
44 70 88
43 69 87
43 69 86
41 66 83
46 73 91
43 70 88
44 70 88
46 73 91
44 71 89
45 74 93
44 72 91
46 74 92
46 73 92
47 74 93
42 69 87
45 72 90
45 72 90
44 73 92
48 78 98
45 71 89
43 70 87
46 73 92
49 79 99
49 76 95
48 76 94
51 80 100
51 82 102
47 74 92
47 75 94
45 72 91
46 75 94
47 77 98
45 75 94
47 76 95
49 78 97
49 78 97
49 79 99
47 75 94
47 76 96
47 76 95
49 79 99
47 76 95
50 81 102
48 78 98
49 80 101
46 77 97
49 78 98
51 81 101
49 79 99
47 77 97
49 78 97
48 77 97
49 80 100
47 77 96
48 78 98
51 83 103
51 83 104
49 78 98
49 78 97
50 80 100
50 81 102
48 78 98
50 80 99
48 81 103
51 81 101
48 79 100
51 82 102
52 81 101
51 83 104
49 80 101
51 81 102
49 81 103
51 81 102
51 81 102
49 80 100
50 81 102
50 80 100
50 81 101
51 82 102
52 82 102
51 82 103
52 83 104
49 79 99
52 83 104
51 81 101
50 81 102
51 81 101
52 84 105
51 82 103
50 81 101
52 83 104
50 81 102
50 81 102
50 82 103
52 83 104
50 83 104
51 83 104
51 83 104
51 82 103
50 81 102
52 83 104
53 84 105
51 83 104
49 81 103
52 83 104
53 84 105
51 83 104
54 85 105
51 82 102
51 83 104
52 84 105
52 83 103
55 85 105
51 83 104
50 81 101
51 83 104
51 82 103
54 85 105
51 83 105
51 83 105
53 83 104
51 83 104
52 82 103
51 82 103
51 81 102
53 84 105
53 84 105
51 83 104
53 84 104
50 82 103
52 83 104
51 82 103
52 83 105
52 84 105
51 83 105
49 81 101
52 83 104
50 81 102
51 83 105
51 83 104
51 83 103
52 84 105
51 82 103
52 83 103
51 84 105
53 84 105
53 83 104
52 84 106
49 80 101
52 83 104
52 83 103
50 82 103
52 82 102
50 82 102
51 81 101
51 82 102
50 81 102
50 83 105
52 83 104
51 82 103
50 81 102
53 84 105
52 82 101
48 80 102
52 82 102
51 82 103
53 85 106
50 80 101
50 82 103
49 79 100
50 82 103
49 79 99
50 81 102
50 80 100
50 81 102
50 81 101
50 80 100
52 83 104
51 82 102
49 78 98
48 79 99
50 81 102
50 81 102
49 81 102
47 77 98
50 80 100
51 81 101
49 80 100
49 79 99
50 81 102
48 79 99
49 79 99
51 81 102
52 83 103
50 80 100
50 79 98
49 79 99
51 80 100
51 81 102
49 80 100
47 76 96
47 77 97
49 79 100
49 80 102
48 78 97
49 78 97
50 79 98
49 78 98
48 78 98
50 79 98
49 76 94
47 77 97
45 75 94
47 77 96
45 73 92
49 77 96
45 72 91
47 78 99
48 76 95
49 78 98
49 80 100
48 76 95
47 75 94
50 78 97
49 77 96
47 76 95
47 75 93
49 78 98
47 77 97
42 71 89
43 71 90
46 73 91
49 77 96
46 75 93
47 74 92
46 73 91
47 75 94
46 73 91
45 72 90
47 74 93
46 74 93
45 72 90
46 73 91
46 72 89
45 71 89
44 72 91
45 70 86
44 70 87
42 68 85
42 67 83
43 70 88
44 71 89
41 65 80
43 67 83
38 60 75
45 71 88
42 65 80
40 62 77
41 66 82
42 66 82
43 65 80
45 69 85
42 66 83
39 62 76
37 58 72
39 60 75
41 63 78
41 62 76
43 65 80
44 70 88
38 58 71
40 61 75
39 58 71
32 49 60
38 58 72
40 61 75
35 53 65
36 55 68
36 54 66
31 48 59
36 54 67
35 52 63
32 48 59
36 55 68
35 53 64
32 48 59
32 49 60
34 51 62
28 41 50
30 45 54
30 45 54
28 42 51
29 41 50
27 39 47
28 40 49
28 42 51
26 38 45
27 38 46
26 39 48
31 45 53
18 27 33
23 33 40
25 36 43
23 34 41
19 27 33
19 27 32
20 30 36
23 33 40
21 30 35
22 31 38
18 26 31
16 23 27
17 24 29
18 26 31
16 22 27
15 22 26
15 22 26
13 19 23
17 24 29
16 23 27
15 21 25
17 24 28
16 23 27
15 21 25
17 24 29
15 21 25
14 19 23
15 21 25
14 19 23
13 19 22
17 24 29
16 22 26
16 23 28
18 25 30
17 24 29
16 23 27
17 25 30
17 24 29
16 24 28
21 30 36
19 27 32
19 27 33
21 30 36
20 28 33
23 32 39
20 28 34
24 34 41
22 33 40
28 39 47
22 32 39
28 40 48
29 41 50
28 41 49
31 45 55
22 31 38
25 37 45
31 45 54
29 43 52
31 46 56
24 35 43
30 46 56
31 46 56
30 44 54
31 47 57
34 51 63
32 47 57
34 52 63
37 56 69
34 52 63
33 51 62
35 53 66
38 58 72
35 54 66
37 57 69
38 57 70
37 58 72
35 54 66
37 57 71
39 59 73
36 54 66
38 59 74
41 62 76
40 62 78
41 61 75
38 59 72
46 70 86
41 63 77
40 62 76
40 63 78
41 63 78
41 66 83
43 67 83
42 67 83
45 71 89
43 67 83
41 64 80
41 66 82
44 69 86
46 74 92
45 71 88
43 69 86
43 69 86
44 71 88
41 67 84
44 71 89
45 70 87
45 70 87
47 74 92
44 71 88
50 77 96
45 71 89
43 69 87
46 76 95
45 71 89
46 73 91
46 74 92
44 68 84
48 77 96
48 76 95
50 78 96
48 76 95
46 75 94
51 81 101
48 76 95
48 76 94
46 75 94
47 77 97
45 73 91
48 77 96
48 77 96
48 77 96
46 76 96
49 78 98
50 81 101
48 76 94
48 75 93
47 76 96
50 79 99
47 77 97
49 78 97
49 80 101
48 77 96
47 77 96
48 79 100
49 77 96
50 79 99
51 80 100
46 76 95
49 79 99
49 80 102
49 80 100
50 80 100
52 83 104
48 78 97
50 79 99
49 79 99
51 81 101
49 78 98
51 81 102
49 79 99
49 80 100
49 78 97
54 83 102
51 81 101
48 77 97
52 83 103
48 78 98
51 82 102
50 81 102
50 81 102
47 78 98
51 82 103
49 79 100
51 81 101
51 82 102
50 81 101
50 80 101
49 80 100
50 81 102
50 81 101
50 80 100
49 80 100
51 81 101
49 81 102
51 81 101
53 83 103
50 81 102
52 82 103
51 82 103
50 82 104
51 82 104
50 82 104
52 83 104
50 81 102
52 84 105
50 81 102
51 82 103
50 82 103
52 83 104
51 83 104
54 85 106
51 82 102
49 80 101
50 81 101
52 84 106
52 84 106
50 81 102
51 83 104
53 84 105
52 84 105
52 83 104
52 84 104
51 83 104
50 82 103
53 83 104
51 83 103
54 85 106
51 83 104
52 83 104
52 84 105
51 82 103
51 82 103
53 84 104
50 82 103
52 83 104
51 82 103
52 83 104
50 81 102
52 83 104
49 80 101
53 83 104
52 82 102
50 82 103
52 84 105
50 82 103
51 81 101
50 82 104
54 85 106
52 83 103
52 83 103
51 82 103
50 80 100
51 83 105
50 80 100
53 84 104
52 84 105
48 80 101
52 83 104
53 83 103
50 81 101
50 81 103
50 82 103
52 82 103
50 81 102
51 83 105
48 79 100
51 83 105
50 81 102
51 82 103
52 82 102
51 81 102
51 82 102
51 82 103
51 82 103
50 82 103
49 78 98
50 82 103
50 82 103
50 80 100
51 82 102
53 83 103
53 83 103
51 81 100
49 81 102
50 81 101
49 79 99
50 80 101
51 81 102
50 82 103
50 80 99
51 81 101
53 82 102
50 80 100
50 81 101
53 84 105
50 82 103
50 80 100
51 82 103
49 79 99
48 78 99
48 78 98
49 79 100
51 79 99
49 79 99
51 80 99
47 78 98
47 77 97
50 81 101
49 81 101
50 80 100
46 76 96
49 78 98
47 75 94
51 81 101
48 78 98
50 80 100
49 79 98
49 78 98
47 77 98
46 75 95
48 77 97
48 77 97
45 74 93
50 79 99
50 79 99
47 77 96
49 78 97
46 76 96
50 79 99
46 75 94
47 76 95
47 75 94
46 73 91
48 78 97
46 73 91
47 76 95
45 73 92
49 75 93
46 74 93
47 75 93
49 78 97
47 77 97
45 72 91
42 70 88
45 71 88
45 73 92
44 71 89
46 73 91
47 73 90
46 72 89
42 68 85
45 70 87
44 71 88
44 70 87
41 64 80
43 68 86
42 67 83
46 72 89
43 68 85
44 68 84
42 66 83
44 68 84
45 68 83
44 68 84
45 70 87
46 73 91
42 64 79
41 66 83
40 63 79
39 62 77
39 61 76
42 66 81
44 70 88
38 60 75
42 66 81
39 60 74
39 60 74
39 60 74
36 56 69
38 59 73
36 55 68
38 59 72
36 55 67
35 55 68
37 57 71
38 58 72
36 57 70
34 51 62
37 56 69
37 56 69
35 53 65
34 53 65
33 50 61
34 51 62
35 53 65
33 50 61
32 48 58
37 54 66
36 53 65
25 36 44
27 39 48
27 40 49
23 35 43
27 40 49
33 49 60
27 40 48
30 44 53
22 32 39
27 39 47
24 34 41
23 33 40
24 35 42
21 31 37
16 24 28
25 36 43
26 37 45
22 32 38
19 27 33
25 36 43
17 25 30
20 28 33
20 28 34
20 28 33
20 28 34
17 24 29
15 22 26
17 23 27
16 23 27
16 22 27
19 26 31
19 27 32
18 25 30
16 23 27
14 20 24
17 23 28
15 21 25
14 20 24
14 19 23
19 27 32
19 27 33
18 25 30
20 28 34
18 26 31
21 30 36
17 24 29
17 24 28
21 29 35
20 28 33
14 20 24
23 32 38
18 25 30
23 32 39
23 32 39
26 37 45
24 34 40
19 28 34
27 38 46
25 37 44
22 32 38
25 38 46
29 41 50
25 37 45
27 39 47
33 48 59
26 38 47
29 42 51
32 48 59
30 45 55
24 35 43
26 39 48
28 41 50
29 44 53
30 46 56
37 55 67
30 47 57
34 51 62
31 47 57
29 44 54
34 51 63
32 47 58
31 48 59
34 53 66
31 49 61
38 58 71
38 58 72
38 58 71
38 60 75
39 59 72
41 63 77
41 62 76
42 66 82
38 58 71
42 65 80
37 58 72
37 57 71
42 65 80
39 60 74
41 65 81
39 61 76
41 64 80
43 69 87
42 66 82
42 65 80
43 66 81
42 66 82
42 67 84
42 65 81
40 63 78
41 65 81
43 69 86
44 70 88
43 67 83
42 68 85
42 67 83
44 70 87
44 68 84
43 71 90
47 75 93
43 68 85
43 69 87
47 73 90
46 73 90
47 75 93
42 69 87
47 75 94
49 78 97
48 78 98
45 73 92
47 74 92
47 75 93
48 77 97
47 75 94
42 68 86
47 76 95
45 72 90
48 76 95
46 75 94
48 77 97
48 76 94
49 79 99
49 78 97
46 74 93
47 76 96
46 76 96
49 79 99
46 75 95
47 74 92
51 81 100
49 79 99
47 75 94
50 81 101
48 77 96
49 79 99
50 80 100
49 79 99
48 77 96
49 79 98
49 79 100
50 80 100
49 79 99
48 79 99
49 78 97
50 81 102
50 80 101
49 80 101
49 78 98
49 77 96
50 80 99
48 78 98
47 76 95
50 80 100
51 82 103
48 79 99
50 81 101
49 80 100
48 79 99
51 81 102
50 83 104
50 79 98
50 81 102
50 81 102
53 83 103
50 81 103
50 81 102
49 79 99
51 81 101
49 79 100
52 84 104
50 81 101
51 81 101
49 79 100
51 81 101
49 79 99
48 78 99
50 81 101
51 81 101
50 81 102
50 81 102
50 80 99
52 83 104
52 84 106
49 79 99
53 84 105
51 82 102
50 81 102
50 82 102
50 81 102
53 84 105
51 83 104
50 82 103
53 83 104
50 81 102
51 84 105
52 83 104
50 82 104
52 83 104
50 81 102
51 83 104
51 83 103
51 82 103
51 83 105
51 83 105
51 83 105
51 82 102
51 82 104
52 84 104
51 83 104
52 83 103
50 82 104
53 85 106
50 81 101
50 82 103
51 83 104
52 83 104
51 83 105
54 85 106
52 83 104
51 83 104
50 82 104
50 82 103
52 84 105
51 82 104
51 83 105
51 83 105
51 84 105
50 82 103
53 85 106
52 83 104
51 81 101
50 81 102
51 83 105
51 83 103
51 82 102
50 83 105
52 83 104
47 77 96
55 86 106
50 82 103
51 82 103
51 83 103
49 81 102
50 82 103
49 82 103
50 80 100
51 81 102
50 81 102
51 82 102
52 83 104
50 81 102
51 81 100
51 81 102
52 83 104
50 82 103
51 81 102
51 82 102
52 82 103
51 83 104
51 82 103
50 79 99
49 80 100
49 79 99
50 80 101
50 81 102
48 78 98
51 82 103
48 80 101
50 80 100
50 80 101
49 82 103
49 78 98
53 82 101
51 80 99
49 81 102
51 81 101
50 81 102
49 79 100
52 82 102
49 81 102
49 80 100
51 82 102
49 78 98
48 78 98
47 77 97
48 78 98
49 80 100
51 81 101
48 78 97
48 80 100
49 78 97
49 80 100
49 79 100
49 80 101
51 81 102
48 78 98
48 77 97
50 81 102
49 79 100
49 81 101
47 76 96
48 77 96
48 79 100
50 80 99
49 76 95
47 76 94
48 76 95
49 78 97
46 74 93
47 77 96
46 74 92
49 79 99
46 77 97
44 73 93
49 78 97
46 73 91
46 74 93
45 73 91
47 73 91
45 74 93
47 76 95
47 74 92
46 74 93
45 71 88
44 70 88
46 74 92
46 72 89
50 78 97
48 75 94
41 68 86
41 65 80
43 69 86
48 75 93
45 74 93
45 70 88
44 70 87
47 75 94
45 70 87
43 70 88
42 67 83
45 71 88
46 70 87
41 66 83
42 67 84
45 72 90
44 70 87
39 61 76
43 67 83
42 66 83
42 66 81
39 63 78
41 66 82
46 70 87
45 69 85
42 65 80
40 62 77
39 61 75
36 54 66
39 60 74
38 59 72
36 56 70
37 58 73
36 57 71
38 58 71
39 59 73
39 59 72
39 60 74
33 51 63
37 57 69
37 56 69
36 55 67
36 55 67
32 50 62
32 49 61
33 49 60
32 48 58
32 48 59
33 51 63
33 49 60
31 46 56
33 49 59
33 49 60
35 52 64
29 43 52
32 47 58
26 39 47
30 44 53
25 37 45
24 35 43
27 39 47
25 38 46
29 41 50
25 36 44
26 37 45
26 37 44
28 40 47
23 34 41
25 35 42
24 34 42
23 33 39
18 26 31
26 38 45
17 24 29
19 28 33
22 31 38
22 31 37
21 30 35
20 29 35
18 25 30
16 23 28
21 30 35
22 31 37
20 28 34
15 22 26
19 26 31
20 28 34
20 28 34
20 28 33
20 28 33
20 27 33
17 24 28
22 30 36
16 22 27
20 28 33
14 20 24
19 28 34
20 28 34
25 36 43
16 23 28
18 26 32
22 32 39
22 32 38
21 30 36
24 34 40
24 35 42
26 37 45
19 27 33
26 38 45
25 37 45
22 32 39
25 35 42
26 39 47
27 39 47
22 33 41
26 38 47
26 37 45
31 46 55
32 47 57
26 38 45
34 51 62
29 43 52
32 47 58
32 48 58
28 42 52
35 52 64
33 50 61
33 50 62
33 48 59
35 52 64
28 44 55
36 53 64
36 54 67
37 56 69
33 51 62
32 48 59
31 48 60
37 56 69
41 62 76
37 57 70
34 51 63
35 54 67
39 59 72
37 56 69
40 61 76
39 61 75
42 62 76
37 56 69
42 65 81
45 69 85
38 59 73
41 64 79
39 60 74
43 66 81
40 64 80
40 64 80
41 65 82
42 66 82
43 70 88
43 68 85
44 69 86
42 65 81
45 71 89
38 62 78
46 71 89
45 72 90
43 68 85
46 74 92
44 70 87
40 65 81
44 71 89
42 67 84
46 73 92
44 70 87
44 70 87
48 76 95
43 66 82
44 73 92
45 73 91
47 73 91
45 72 91
46 74 92
48 76 95
44 70 88
48 74 92
47 75 94
45 74 93
46 74 93
49 78 98
49 78 97
44 72 91
49 78 97
45 72 90
47 75 95
46 75 94
47 74 93
49 78 98
49 78 97
49 80 100
47 77 97
48 75 94
48 77 96
49 78 97
47 75 94
48 76 95
52 82 102
50 80 100
50 80 99
46 74 92
50 79 98
48 78 98
51 79 98
48 78 97
48 79 100
48 77 97
49 78 97
51 81 101
50 80 99
48 80 101
50 80 100
49 78 98
49 78 98
47 78 99
48 77 97
52 81 101
50 81 102
51 80 100
50 81 103
49 78 97
51 81 100
51 82 102
51 82 102
49 78 97
50 82 103
48 79 99
49 81 102
50 81 102
50 80 100
52 82 101
53 82 102
50 81 102
52 82 102
50 80 101
51 83 104
50 80 101
51 82 103
52 83 104
51 82 103
51 82 103
48 79 99
50 82 103
51 82 102
51 82 102
49 81 102
51 84 106
52 82 103
50 82 104
49 81 103
50 82 103
51 81 101
53 84 104
51 81 102
51 81 101
50 81 102
49 81 103
51 82 103
49 80 101
50 81 102
49 80 100
52 83 104
51 82 103
53 85 106
53 84 104
52 83 103
52 84 105
53 84 105
50 81 102
51 83 104
51 83 103
53 84 105
51 83 104
51 82 103
51 83 105
50 81 102
51 84 106
52 83 104
51 82 103
52 83 103
51 83 105
51 82 102
51 82 103
49 81 103
52 83 104
51 83 105
51 82 102
51 84 105
49 80 102
52 82 102
51 82 103
50 82 104
53 84 105
52 84 105
50 82 102
51 83 104
51 82 102
51 83 105
50 81 102
48 79 99
52 83 104
49 79 99
48 79 100
53 85 106
53 85 105
52 81 101
51 82 103
52 84 105
50 81 102
51 82 103
51 83 104
52 83 104
51 82 102
52 83 103
52 83 103
51 82 103
51 81 102
48 80 102
51 82 102
51 82 103
49 80 101
51 83 103
49 80 102
51 82 103
49 80 100
49 80 101
50 81 103
51 82 102
51 81 102
49 79 100
49 79 100
48 79 100
47 78 98
51 82 103
50 81 102
51 82 103
48 77 96
50 81 101
49 79 100
51 81 101
49 79 98
50 81 102
50 80 100
52 82 102
50 79 98
49 79 99
50 80 101
49 79 99
47 77 96
49 80 100
48 78 98
47 76 96
49 80 100
50 83 105
48 77 96
47 77 97
49 80 100
49 81 102
49 80 100
49 81 102
47 77 96
49 79 99
50 79 98
49 78 97
47 76 95
49 77 96
51 80 100
47 77 97
47 77 97
46 74 93
48 76 95
45 73 92
47 75 94
48 77 96
49 78 97
46 74 93
47 75 94
44 71 89
51 80 98
46 73 92
46 73 91
43 70 87
48 75 93
46 73 92
46 75 94
45 74 93
45 74 94
44 72 90
48 77 97
45 72 90
42 69 87
45 72 90
46 73 91
44 69 86
45 72 90
44 70 87
47 75 93
44 70 88
44 69 86
42 66 82
43 68 85
44 70 88
43 68 85
46 72 89
44 70 87
40 64 79
46 72 88
41 65 81
43 68 85
44 67 82
43 67 83
41 66 82
41 64 79
43 68 85
43 66 82
44 69 85
40 64 80
41 64 79
42 65 81
41 63 77
34 54 67
39 62 77
40 62 77
33 52 65
37 57 71
40 62 77
39 59 73
38 58 71
35 54 67
42 65 80
38 58 72
34 52 64
36 55 68
36 53 65
33 50 62
31 48 60
40 62 77
33 51 64
33 49 59
33 50 62
32 47 57
33 50 61
33 48 58
33 50 60
32 48 59
28 43 53
32 48 59
32 47 57
29 43 52
30 44 53
30 43 52
28 41 50
30 43 53
27 39 47
26 38 46
29 44 53
28 40 48
25 36 44
23 33 40
25 37 44
25 36 43
19 29 35
25 36 43
20 29 36
21 30 36
27 37 44
21 29 35
21 31 37
21 29 35
24 34 41
20 28 33
19 27 32
22 31 37
20 28 33
22 31 37
16 23 27
24 35 42
24 34 40
16 24 28
21 29 35
17 24 29
20 29 35
18 25 29
15 22 26
26 35 42
23 32 38
19 27 32
22 31 37
20 28 34
21 30 36
17 24 29
24 35 42
20 28 33
18 27 32
24 34 41
26 38 46
22 32 38
24 34 42
24 36 43
19 28 34
25 35 42
26 38 46
27 39 47
29 41 50
30 44 53
26 40 49
28 40 49
30 44 54
28 41 49
28 42 52
30 44 53
32 49 60
30 45 55
30 44 53
33 49 60
28 41 50
28 42 51
33 51 62
32 49 60
32 49 60
35 52 63
32 48 58
31 48 59
38 57 70
34 53 65
34 51 62
33 50 62
37 56 68
37 57 70
37 58 71
38 58 72
37 59 73
39 59 73
39 61 75
35 54 67
38 59 72
38 60 75
37 57 70
36 56 69
37 57 70
42 65 80
43 66 82
40 62 77
39 62 78
40 63 78
39 62 78
41 63 77
40 62 77
42 66 82
43 68 85
41 65 81
41 66 83
42 67 84
41 66 82
42 65 81
41 65 81
45 71 89
44 70 88
46 72 90
43 70 88
46 73 91
44 69 86
47 75 94
44 69 86
44 70 86
43 69 86
45 69 85
46 72 90
44 72 91
48 76 94
47 74 93
48 76 94
48 76 95
47 75 94
47 76 94
43 69 87
45 72 90
45 73 91
49 77 96
47 75 94
45 71 89
47 74 92
48 75 93
47 74 93
48 78 98
50 79 99
45 73 92
46 73 91
48 77 96
49 77 96
48 77 96
48 78 98
50 76 93
48 78 98
47 76 96
49 78 97
51 80 100
49 78 98
49 79 99
51 81 101
47 75 93
49 80 101
47 77 97
49 80 101
48 79 99
50 81 101
48 77 97
52 82 101
49 79 98
47 76 96
50 80 100
49 80 100
48 79 99
48 80 102
49 81 102
52 82 102
51 80 100
47 77 97
51 80 100
50 81 101
47 79 101
52 81 100
49 78 98
50 81 101
51 82 102
51 81 102
48 79 100
52 82 103
48 78 99
53 82 102
49 80 101
51 81 102
49 80 101
51 82 103
49 80 100
51 82 103
50 81 103
51 82 102
50 82 102
50 81 102
50 81 102
49 79 99
50 81 102
51 80 99
50 81 102
52 84 105
50 82 103
50 79 99
50 80 100
54 84 104
50 81 101
51 83 104
50 80 100
50 83 105
50 82 103
51 82 104
52 84 106
52 83 104
52 83 104
53 84 105
52 84 105
50 82 103
49 81 103
54 85 106
49 81 102
50 83 105
50 81 102
52 83 103
50 81 101
49 81 102
52 83 103
50 82 104
51 82 103
51 83 103
51 81 102
52 82 102
49 81 103
51 82 102
51 83 104
51 83 104
55 85 105
51 82 103
52 83 104
52 82 103
51 83 104
51 82 102
54 85 106
53 85 106
53 84 105
53 84 105
52 84 105
52 82 102
52 83 103
50 82 103
49 80 101
51 82 103
50 81 102
51 82 102
50 81 102
52 83 104
50 81 101
50 81 102
53 84 104
50 80 101
51 81 101
51 81 101
51 82 103
50 80 100
51 82 103
51 83 104
49 81 103
52 83 103
50 80 100
51 83 104
51 82 102
52 82 103
48 80 101
51 83 103
51 82 103
50 82 104
49 80 101
51 83 105
51 82 103
51 82 102
52 83 103
52 82 102
52 82 103
50 80 101
51 82 103
51 81 102
51 81 101
48 78 98
48 78 98
50 81 102
49 80 100
52 83 104
49 81 102
51 82 102
50 81 101
48 77 97
50 81 102
46 75 94
51 80 100
48 79 99
49 79 100
49 78 97
47 78 98
48 78 98
50 81 101
50 79 99
51 81 101
49 79 98
47 77 96
49 77 96
49 78 98
50 80 100
48 78 97
48 78 98
46 76 96
49 79 99
48 78 98
45 72 90
49 79 100
50 79 98
46 75 94
50 80 99
46 76 95
48 78 99
47 76 96
48 76 95
47 77 97
47 75 95
49 79 98
49 79 98
46 73 92
50 80 99
45 74 93
48 76 95
47 75 94
44 72 90
49 76 95
48 76 96
47 75 93
48 76 94
48 77 96
45 72 89
44 71 90
45 72 90
47 76 95
44 71 88
41 65 82
46 74 93
45 70 87
42 69 87
43 70 87
48 75 92
43 69 86
45 71 89
46 71 89
45 70 86
43 68 84
45 71 89
39 61 76
44 71 88
40 65 82
41 65 81
42 68 84
42 65 80
42 66 82
41 65 81
37 60 76
42 65 81
41 64 80
42 64 78
37 58 72
49 75 92
42 65 81
44 66 82
36 56 69
38 60 74
41 63 77
38 58 72
38 60 75
41 63 78
39 61 75
36 56 69
40 61 76
37 57 70
38 59 73
42 62 75
34 51 63
35 53 66
34 51 63
38 58 71
35 52 63
29 45 55
33 51 63
31 47 59
33 49 60
33 50 61
35 53 65
31 46 57
36 54 66
33 49 60
29 44 54
32 47 57
33 49 59
31 46 55
28 41 50
28 41 50
28 40 49
28 41 50
28 41 49
28 41 49
25 37 45
23 34 42
27 39 48
27 40 49
26 38 47
26 38 45
27 38 46
26 38 45
22 32 39
23 32 39
22 32 38
28 41 49
23 33 40
26 37 44
21 29 35
26 37 44
23 33 39
24 34 41
22 32 38
17 25 30
23 33 39
23 32 39
22 32 38
23 32 39
20 28 34
17 24 29
23 32 39
21 30 36
19 27 32
23 33 39
16 24 28
17 25 30
21 30 36
24 35 42
17 26 31
22 32 38
25 36 43
20 29 35
24 34 41
25 36 43
25 37 44
23 33 39
26 38 46
21 30 37
23 34 41
23 33 40
32 46 55
24 35 43
28 41 49
29 41 50
26 38 46
27 40 48
26 39 47
31 45 55
30 46 57
30 44 54
29 43 52
28 41 50
34 49 60
31 47 58
33 50 61
34 50 61
32 48 58
33 50 60
32 50 62
36 53 64
34 50 61
37 55 67
35 52 63
32 48 59
36 54 67
39 60 73
39 59 72
36 54 66
40 62 76
36 56 69
36 56 70
37 58 72
40 61 75
41 64 79
37 57 71
38 58 72
40 61 75
38 59 72
41 64 80
38 59 73
40 62 76
36 58 72
40 61 75
40 61 75
41 64 79
41 64 79
38 59 73
39 62 77
39 62 77
40 62 78
43 68 85
41 66 82
42 66 83
40 64 79
42 67 84
41 65 81
41 66 83
48 72 88
43 69 86
44 68 85
44 70 87
45 71 89
47 73 91
46 74 93
41 67 85
42 67 83
44 70 87
47 75 94
41 67 85
47 74 93
46 72 90
47 76 95
49 76 94
47 75 93
46 74 93
46 75 94
45 74 93
45 73 91
44 71 89
47 75 93
44 73 92
47 74 92
45 73 92
48 78 98
48 76 96
49 79 98
48 76 96
47 75 93
46 75 94
50 81 102
49 78 97
47 75 94
47 77 96
46 76 96
46 75 94
46 75 94
48 77 97
50 79 99
46 73 91
47 75 94
48 77 97
47 76 95
49 77 97
50 79 99
50 81 102
48 78 98
49 79 99
49 79 99
48 78 99
47 75 94
49 79 99
48 78 98
48 79 100
51 81 101
51 82 102
50 81 102
49 79 98
51 82 102
50 80 100
50 81 101
50 81 102
50 81 102
52 83 103
52 82 102
50 82 102
50 82 103
52 82 103
50 82 102
48 78 99
49 80 101
50 81 101
48 79 99
52 83 104
50 79 99
52 82 102
50 83 104
48 78 97
50 80 99
51 81 102
49 81 102
48 77 96
51 83 104
51 83 104
51 83 103
50 80 101
50 80 100
51 82 103
51 82 103
51 83 104
49 79 99
52 83 104
51 83 104
49 80 101
51 82 103
52 84 105
51 83 105
50 81 102
51 82 103
51 81 102
50 79 98
54 84 105
49 81 101
50 81 102
52 83 103
50 80 101
53 84 105
52 84 105
53 84 105
50 81 101
52 83 103
51 81 101
53 84 105
51 81 102
51 82 104
50 81 102
51 83 104
51 83 104
52 83 103
50 81 102
53 85 106
50 82 103
52 83 103
51 82 103
51 83 105
53 84 105
52 83 104
51 83 104
51 83 104
49 82 104
52 82 103
53 84 104
51 83 104
51 82 103
52 84 105
51 83 104
53 84 105
51 82 103
52 84 105
50 81 102
50 79 99
53 84 105
51 82 103
50 81 102
52 84 105
49 81 102
51 83 104
50 82 104
50 81 102
50 81 102
51 82 103
50 79 99
50 81 101
52 83 103
49 82 103
51 82 102
51 81 101
49 79 99
49 80 101
50 82 103
50 82 104
52 84 105
52 82 102
49 79 99
50 81 101
51 83 104
49 80 100
51 82 103
51 81 101
50 82 103
51 82 102
51 81 101
49 78 98
48 79 100
49 79 100
50 80 101
49 79 100
48 78 99
51 82 103
50 79 98
49 80 100
50 80 100
50 80 100
47 76 96
50 81 101
52 81 101
49 79 98
49 81 102
47 77 97
51 81 101
49 79 98
51 81 100
50 79 98
48 78 98
50 82 103
48 78 98
48 76 95
47 77 97
49 78 98
50 81 101
47 77 96
47 77 96
49 77 96
47 76 96
48 78 98
49 78 98
48 76 94
48 79 100
48 76 95
48 77 97
46 75 95
49 77 96
48 76 96
48 78 98
48 75 93
47 74 92
48 77 97
49 77 96
48 76 95
46 74 92
50 81 101
51 80 100
43 69 87
48 74 92
45 72 90
48 75 94
45 72 91
49 77 96
45 71 88
47 76 94
45 73 91
49 78 97
44 70 87
46 74 93
40 64 81
44 72 91
48 76 94
44 69 85
44 72 91
47 74 92
44 69 86
43 70 88
43 68 85
40 65 81
46 72 89
42 65 81
45 70 86
43 68 85
44 69 86
42 68 84
43 67 83
41 66 82
42 66 82
38 60 74
44 68 84
42 64 80
44 70 88
41 64 79
42 65 80
43 67 84
39 59 73
36 58 72
39 62 77
39 60 74
38 60 74
41 63 78
36 58 72
39 62 76
41 64 79
37 56 70
41 62 76
38 57 71
35 54 67
34 53 66
37 57 70
38 58 71
37 58 72
36 55 68
36 54 67
34 51 63
39 58 71
36 54 65
38 56 68
32 48 59
35 52 63
32 48 58
29 45 55
27 39 48
22 34 41
31 46 56
32 47 57
30 43 52
32 48 58
30 45 55
26 38 46
27 40 49
25 37 45
27 40 49
28 42 51
28 40 49
28 40 48
23 34 42
26 38 46
27 39 47
26 37 45
20 29 35
26 37 45
22 32 38
23 34 41
25 36 43
21 31 38
25 35 42
26 38 45
23 33 40
19 28 33
22 31 38
23 33 39
18 26 32
21 30 36
20 29 34
25 35 42
18 26 32
20 28 34
23 32 38
26 38 45
19 28 34
26 38 46
19 28 34
25 36 43
20 29 35
28 40 48
23 34 41
21 31 37
23 33 40
21 30 36
20 29 35
22 32 39
24 36 44
23 33 41
25 36 43
27 40 49
28 40 49
26 37 45
29 43 52
28 41 50
25 36 43
28 41 50
23 35 43
30 43 52
29 43 52
30 45 54
28 43 53
30 45 55
22 33 40
31 45 55
36 53 65
28 42 52
35 52 64
31 48 59
36 54 66
34 51 62
33 49 59
33 51 63
29 44 54
35 53 64
36 54 66
36 56 69
35 56 70
33 52 64
30 47 58
38 58 72
40 60 73
39 59 73
36 55 68
41 64 80
40 63 78
43 64 79
38 59 73
39 59 72
35 55 68
39 63 79
40 62 77
37 58 72
38 62 78
41 64 80
43 67 83
43 67 84
38 61 76
44 68 84
41 64 80
42 66 82
45 70 87
45 71 88
42 67 84
43 67 83
44 70 87
43 67 84
41 65 80
40 63 78
45 71 89
47 75 93
45 70 88
43 68 85
45 72 89
44 70 87
45 72 91
43 68 85
45 72 89
45 72 89
42 67 84
46 73 90
43 69 87
47 76 95
44 72 90
45 72 91
48 76 95
46 74 93
48 76 94
45 74 92
45 71 89
44 72 90
47 75 93
47 75 93
46 75 94
45 72 91
48 76 95
46 75 94
48 76 94
47 76 95
49 78 98
45 73 92
47 76 95
48 76 95
45 75 95
47 76 95
45 72 90
47 78 99
49 79 99
49 80 101
50 77 96
47 75 94
49 80 101
49 79 99
48 77 96
46 75 94
48 78 99
50 79 99
50 81 101
47 79 100
47 79 100
46 73 91
49 79 99
49 80 100
50 80 100
49 81 101
48 79 99
51 82 102
49 79 99
51 80 100
49 79 99
50 81 101
49 79 99
49 79 99
48 78 97
50 81 102
48 79 100
46 76 96
51 81 102
49 80 101
50 81 101
51 82 102
51 81 102
49 80 100
51 82 102
49 79 99
48 79 99
52 83 103
52 83 104
51 83 104
50 81 101
51 82 103
50 81 102
49 79 99
49 80 101
50 80 101
50 81 102
49 80 101
49 78 97
50 82 103
51 82 103
50 80 100
53 84 105
49 81 102
52 83 105
51 83 104
51 83 105
51 83 104
51 82 103
49 80 101
50 81 102
50 80 100
49 80 101
52 83 104
49 80 101
51 82 103
51 82 103
52 83 103
52 83 104
51 82 103
53 84 105
49 80 101
50 83 104
50 81 101
51 82 103
53 85 106
52 84 105
51 83 104
53 84 105
52 83 104
53 85 105
51 81 101
52 84 105
49 81 102
51 81 101
51 82 103
49 80 101
52 82 102
51 82 102
51 82 102
50 81 102
49 82 104
50 82 103
53 83 104
50 81 101
50 81 101
50 81 103
51 82 103
52 82 103
50 83 104
51 81 101
50 81 101
52 83 104
49 78 98
52 82 103
52 82 103
50 83 104
52 83 104
48 79 100
50 80 100
52 83 104
51 83 104
47 78 99
52 82 102
52 83 104
52 83 103
51 81 101
49 80 100
50 81 101
49 79 99
49 79 99
51 82 103
48 80 101
50 80 100
50 81 101
50 78 98
51 81 101
51 80 100
50 81 102
51 83 103
51 82 102
48 80 101
50 80 101
52 83 103
48 78 97
50 80 99
51 81 102
49 79 98
50 79 99
49 78 98
48 79 99
49 79 99
49 79 99
50 81 101
48 77 96
51 81 102
49 79 99
47 77 97
48 78 98
50 79 99
49 80 100
51 80 99
50 79 99
48 76 95
48 78 98
49 79 100
48 78 98
49 78 98
49 78 98
49 79 98
49 79 98
48 78 98
49 81 101
47 75 94
47 75 94
49 79 98
50 80 100
47 77 97
48 77 96
48 77 97
45 73 91
48 76 95
46 76 96
49 75 93
45 75 94
48 77 96
48 77 97
49 77 96
43 71 89
46 74 93
47 75 94
48 77 96
47 74 92
44 72 90
47 74 93
48 77 96
43 71 89
47 75 94
48 74 91
44 70 88
45 72 90
44 70 87
45 71 87
45 72 90
46 72 89
47 72 90
45 71 89
44 71 89
46 74 92
44 68 84
42 67 84
42 68 84
45 70 87
47 75 93
38 58 72
36 57 70
40 64 79
45 69 86
42 66 83
43 69 87
37 59 74
42 65 81
43 69 86
39 62 77
41 64 80
42 67 84
44 66 82
44 67 82
43 66 82
36 57 71
34 55 68
36 57 71
39 59 73
41 63 78
42 65 80
37 57 70
38 58 71
39 60 75
36 55 68
38 58 72
41 63 77
33 52 64
38 57 70
37 57 70
34 52 64
36 53 64
32 49 60
30 48 60
31 48 59
34 54 67
36 55 67
35 53 65
32 48 59
33 49 60
31 47 58
31 46 56
36 53 64
32 48 59
36 54 66
28 41 50
30 45 55
33 50 61
33 50 61
30 45 54
33 48 58
31 44 54
27 39 47
27 40 49
32 47 57
24 35 43
31 46 56
29 42 52
24 35 42
28 40 48
27 40 48
29 41 50
25 37 44
22 32 39
25 37 44
27 39 47
29 41 50
22 32 38
28 41 50
25 36 43
24 35 42
24 35 42
23 33 39
21 30 36
23 33 40
26 36 43
22 33 40
22 32 39
20 30 36
26 37 44
22 32 39
24 34 41
21 30 36
24 34 41
27 38 46
26 39 47
24 35 43
28 41 50
19 29 35
28 40 49
27 39 47
25 36 43
27 40 48
25 36 43
26 38 47
26 37 45
27 41 49
27 40 48
27 39 47
32 46 56
27 39 47
30 43 52
29 42 51
29 43 52
32 46 56
29 42 51
31 46 56
28 41 50
30 45 55
31 46 57
33 50 62
30 46 57
33 49 60
33 49 59
38 56 67
41 61 74
35 53 66
31 46 57
39 60 73
31 47 58
36 54 66
36 56 69
40 61 74
31 48 59
35 53 66
41 64 78
33 51 62
33 50 60
37 55 68
42 65 80
37 58 72
35 54 66
43 64 78
38 59 72
38 60 75
39 60 75
41 62 76
37 59 74
42 64 78
41 63 77
36 58 72
41 63 78
44 67 82
43 67 84
42 66 82
43 66 82
42 65 81
44 67 83
40 63 78
42 65 81
45 71 88
45 70 86
43 68 84
41 63 78
45 70 87
46 73 92
41 66 83
45 70 86
42 66 82
42 68 85
44 69 86
44 70 88
45 71 88
46 73 91
48 75 92
46 75 93
47 73 91
42 67 83
46 74 93
43 70 88
43 69 86
47 74 92
45 72 90
46 74 93
46 73 91
49 76 95
49 78 97
46 75 94
48 77 96
46 74 93
48 75 93
46 74 93
48 76 95
48 77 97
45 75 96
47 77 97
47 76 95
47 77 98
48 76 95
47 77 97
48 78 98
48 78 98
47 75 93
50 79 98
48 75 94
49 78 97
51 80 100
47 77 97
46 76 96
48 78 98
51 81 101
51 80 99
47 75 94
49 79 100
47 77 96
49 77 96
52 81 101
50 80 100
49 78 97
51 81 101
48 77 96
48 78 98
50 81 101
51 82 102
47 77 97
49 80 101
50 81 102
49 80 100
49 79 99
49 79 100
51 82 103
49 79 99
50 80 100
50 79 99
47 78 99
49 78 97
49 81 102
48 78 99
50 81 101
51 81 101
53 84 105
48 77 96
53 83 103
51 82 102
52 83 103
51 82 103
49 79 98
50 81 101
48 79 99
50 80 100
51 81 101
50 81 101
50 82 103
50 81 102
49 79 99
49 79 99
50 82 103
50 81 102
49 79 99
53 83 104
51 83 104
52 83 104
50 80 100
53 83 103
50 82 103
50 82 103
52 82 102
53 85 106
51 81 101
50 83 104
51 81 101
48 78 98
52 85 106
50 82 102
52 84 105
52 83 104
51 83 104
53 85 106
50 82 103
51 82 103
51 83 105
52 83 104
51 82 103
53 84 104
54 85 105
49 81 102
49 80 101
49 81 103
53 83 104
51 83 105
52 84 105
52 83 104
50 80 100
52 83 103
53 84 105
51 83 104
52 84 105
52 83 104
51 82 102
53 83 104
51 81 102
48 78 98
50 82 104
52 82 102
52 84 106
51 80 100
52 82 103
50 81 101
51 82 102
51 82 102
51 84 105
49 80 100
49 80 100
49 79 99
50 82 103
49 81 102
51 82 102
49 80 101
49 80 101
49 80 100
53 83 104
50 81 102
50 81 102
49 81 101
51 82 103
50 82 103
52 82 102
49 80 100
51 82 103
53 84 104
51 81 101
50 80 100
50 80 101
51 81 101
53 84 105
49 80 100
49 80 100
52 83 104
48 78 97
51 82 102
49 79 99
52 82 102
52 83 103
50 81 102
48 79 99
50 81 101
48 78 98
49 78 98
51 81 102
51 81 101
47 76 96
50 80 100
48 78 98
51 80 99
48 77 96
50 80 100
51 82 103
49 79 98
48 78 98
48 78 98
49 79 99
48 79 99
52 81 100
51 81 101
48 77 96
48 78 97
48 75 93
49 78 98
50 79 99
48 77 96
47 76 95
48 77 96
46 74 93
45 74 93
48 76 96
47 75 94
44 72 90
50 79 98
50 77 95
49 78 97
47 75 95
48 78 97
46 75 94
50 80 100
45 72 90
46 74 93
45 72 90
46 75 94
47 74 93
46 72 90
47 77 96
43 69 87
47 75 93
44 72 91
46 74 92
46 73 91
45 74 93
44 70 88
44 70 87
44 69 86
44 70 87
44 72 90
44 69 86
43 69 86
44 69 87
44 71 88
45 69 85
45 72 90
45 71 88
44 70 88
46 72 90
41 65 81
41 64 79
40 65 81
40 62 78
43 67 83
44 69 86
42 65 81
41 66 82
40 64 80
41 63 77
41 64 79
41 64 79
42 66 83
41 65 81
46 71 87
43 66 82
40 59 73
42 65 81
39 61 75
37 59 74
42 64 79
41 61 75
33 52 64
38 58 71
39 59 72
37 57 70
35 53 66
35 53 66
34 53 65
36 54 67
38 58 72
34 52 65
34 52 63
35 53 66
33 51 63
34 51 63
31 48 59
34 51 62
36 53 64
33 49 60
31 49 60
32 48 58
32 49 60
31 47 57
32 49 60
35 52 63
32 48 58
27 40 49
31 46 56
28 41 50
24 36 44
30 45 55
30 43 52
29 41 50
26 38 46
28 42 51
24 35 42
24 36 43
29 42 51
25 37 45
26 39 47
23 35 43
27 39 46
25 36 44
27 40 49
26 37 44
26 38 47
25 36 44
26 38 45
25 37 44
28 40 49
21 30 36
22 32 38
20 29 36
19 28 35
24 36 44
24 35 42
22 32 39
23 34 41
26 37 44
28 40 48
28 40 48
26 38 46
23 33 40
26 38 45
28 40 49
27 40 48
25 36 43
26 38 45
21 32 38
25 36 44
27 39 47
22 32 39
28 41 50
26 37 45
26 38 46
30 44 54
31 46 56
24 35 42
31 46 56
26 39 47
25 36 43
32 47 57
31 46 57
30 44 54
29 43 53
31 46 56
32 47 57
32 47 57
35 53 65
24 36 44
28 43 53
31 47 57
32 49 60
36 52 64
35 52 63
32 48 59
28 43 53
32 49 60
36 55 67
33 51 62
38 58 72
31 48 59
35 54 67
35 53 65
33 52 65
39 59 73
38 58 72
38 59 72
39 61 76
44 68 83
37 57 71
37 56 68
41 63 78
35 56 69
37 58 73
40 63 78
42 64 79
41 63 78
40 63 78
38 59 73
43 66 81
42 66 82
38 60 74
45 69 85
43 67 83
42 64 78
41 63 77
44 68 84
44 70 87
47 72 89
44 70 87
40 65 81
43 67 83
42 65 81
44 69 86
42 67 83
44 69 87
42 66 83
44 69 86
44 70 88
45 72 90
43 70 87
47 74 92
47 75 94
47 73 91
45 72 90
43 70 88
46 71 88
45 71 89
46 72 89
45 72 90
48 75 93
45 74 92
45 72 90
47 75 93
46 74 93
46 73 91
45 75 95
46 77 97
46 74 92
49 79 98
47 74 92
49 78 98
49 78 98
51 79 98
47 76 96
45 73 91
44 74 93
50 80 100
47 77 97
45 74 93
48 78 98
48 77 97
48 77 97
47 76 96
48 77 96
47 77 96
49 78 97
48 76 95
47 76 95
48 77 97
50 79 98
50 79 99
50 80 100
48 78 98
48 78 98
49 79 99
47 76 95
48 77 97
48 78 98
48 80 101
50 81 102
50 79 98
48 78 98
51 80 100
51 80 99
49 78 97
49 79 98
51 83 104
53 82 102
51 81 102
50 80 100
48 79 100
48 78 98
47 76 96
48 79 100
48 79 100
49 82 103
52 81 101
51 81 101
53 83 104
50 81 101
52 82 102
53 85 106
49 79 99
52 81 101
48 78 98
49 81 101
50 81 101
49 81 103
51 80 100
50 82 103
50 80 101
50 81 102
50 80 100
49 80 101
51 82 102
50 81 102
50 81 102
51 82 102
52 82 102
50 81 102
51 82 103
51 82 103
54 84 104
50 82 103
49 80 101
50 81 101
51 82 103
50 82 103
53 83 103
51 82 103
52 83 104
52 84 105
52 84 105
52 83 105
52 83 104
49 81 102
50 82 103
52 83 103
52 83 104
52 84 106
51 82 102
51 82 102
53 84 105
52 84 105
52 82 103
51 82 103
52 82 103
51 83 103
52 83 103
51 82 103
51 83 104
50 82 104
52 84 105
50 82 103
51 84 105
51 83 105
50 82 104
53 84 106
52 84 105
49 80 100
50 81 102
52 83 103
50 80 101
51 82 102
52 83 104
50 80 100
52 83 103
52 83 104
49 79 100
50 81 101
51 82 103
51 82 103
50 82 102
53 83 104
52 82 102
50 81 101
50 82 103
48 78 99
49 81 102
51 82 102
50 80 100
51 81 102
50 80 100
49 80 101
49 79 98
54 85 106
50 81 102
50 82 102
49 81 102
51 83 105
48 78 99
50 80 101
50 79 98
51 81 102
50 79 99
50 81 101
51 83 104
47 76 95
49 79 99
49 80 100
50 82 102
48 79 100
49 80 100
51 81 102
48 80 100
50 82 102
51 81 101
47 76 96
49 79 99
52 82 103
49 79 99
50 81 102
46 74 93
47 77 96
45 74 94
49 79 99
50 80 100
50 80 100
47 76 96
46 75 94
47 77 96
49 78 97
47 74 92
45 74 93
49 78 98
47 77 97
51 80 100
50 79 98
45 73 92
46 74 93
46 74 92
47 77 97
47 75 94
44 71 89
43 72 91
47 75 94
47 74 92
46 74 93
45 73 91
47 75 94
48 75 94
46 73 91
46 74 92
49 77 96
48 75 93
42 67 84
47 75 93
44 70 87
44 70 87
46 74 93
43 69 86
45 71 89
44 72 91
46 73 90
43 67 83
45 71 89
43 68 85
49 75 93
43 69 86
43 71 89
44 71 88
45 72 91
45 70 87
43 68 85
43 69 86
46 73 90
41 65 80
42 66 83
41 65 81
40 65 82
41 65 81
44 69 85
39 63 79
43 68 85
40 64 79
38 60 74
42 64 79
40 62 77
42 66 82
38 59 73
40 62 77
41 63 78
42 65 79
39 60 75
37 57 70
41 64 79
38 60 75
39 62 77
40 62 76
41 64 78
39 60 74
38 59 73
34 52 64
37 57 70
36 56 69
35 53 65
35 52 64
34 53 66
38 58 71
32 50 62
41 61 74
36 56 69
37 54 66
35 52 64
35 54 67
34 52 63
32 48 60
29 43 53
31 46 57
34 52 64
33 50 62
32 49 60
32 48 58
28 42 51
32 47 57
30 45 54
36 52 63
33 49 59
29 43 52
27 40 48
31 47 57
30 44 54
29 44 54
29 43 52
29 42 50
27 40 48
28 41 50
29 42 51
27 40 48
26 39 47
31 46 56
27 40 49
26 39 48
27 38 46
26 39 47
26 38 46
27 40 49
27 40 49
29 42 51
23 32 38
22 32 38
27 39 47
24 35 43
23 33 39
23 34 42
20 30 36
27 40 49
25 36 43
23 33 40
32 46 55
26 38 45
25 37 45
28 40 49
28 40 49
25 36 44
25 36 44
25 37 45
23 35 42
29 43 52
25 37 44
28 40 49
30 45 55
30 43 52
28 40 49
27 39 48
33 48 58
27 40 49
30 45 55
31 46 57
25 37 46
32 47 57
26 39 47
35 52 64
33 48 58
33 49 61
29 43 53
33 49 60
34 52 63
35 52 64
32 50 61
30 46 56
33 51 63
33 50 61
38 58 71
38 58 71
38 56 69
32 49 61
32 48 59
37 57 71
34 52 64
33 50 62
34 51 63
39 60 74
36 56 69
36 54 67
40 62 76
39 60 74
35 54 66
41 63 77
35 55 68
40 63 78
42 65 80
39 61 76
42 65 81
41 62 76
40 64 79
36 56 69
35 55 68
39 61 76
42 66 81
40 65 81
41 64 80
47 73 90
42 66 81
43 66 82
42 65 81
42 67 83
44 69 86
44 68 85
38 61 76
41 66 83
43 68 85
44 70 88
40 63 79
46 73 90
42 67 85
41 65 81
45 71 88
43 69 86
45 73 91
46 75 94
46 73 90
48 75 93
45 72 90
44 70 87
46 72 89
45 73 91
43 71 90
46 74 92
45 73 91
46 73 92
45 72 90
45 72 90
46 73 92
44 72 90
45 71 89
47 76 95
47 76 95
46 75 94
42 69 86
48 78 97
47 77 96
45 72 90
47 75 94
46 73 91
47 78 98
48 76 95
48 75 94
45 73 92
47 76 96
51 80 100
47 75 94
50 81 102
50 80 99
50 78 98
49 78 98
48 79 99
49 78 98
49 79 99
46 76 95
49 78 98
47 77 96
47 77 97
49 78 97
48 78 98
48 78 99
48 77 96
47 78 98
51 83 104
50 82 102
49 77 95
48 78 99
49 79 98
45 74 93
50 79 99
48 77 97
48 78 98
52 83 103
50 81 101
50 82 103
47 77 97
50 81 102
50 81 102
51 82 103
47 78 99
53 83 102
48 78 97
49 80 100
50 81 102
49 79 100
48 79 99
49 82 105
49 80 101
52 82 102
50 79 98
48 78 98
49 80 100
52 83 104
52 84 105
48 79 99
50 81 101
50 81 102
51 82 103
49 80 100
51 82 103
50 81 103
50 81 101
49 80 100
52 84 104
47 77 97
52 83 104
50 81 101
51 82 102
49 79 100
49 79 99
53 84 105
51 82 103
50 82 103
53 84 104
51 83 104
50 80 101
50 80 101
53 84 105
50 81 102
52 83 104
52 83 103
49 80 101
50 81 101
52 84 105
51 82 102
50 82 103
51 83 104
50 81 101
50 81 102
52 83 103
53 84 104
50 82 103
50 81 101
52 83 104
51 81 101
50 80 101
49 81 102
48 79 99
50 82 103
49 79 99
50 81 102
51 83 104
50 81 101
50 82 103
48 79 100
50 81 102
51 81 101
50 82 104
52 83 103
50 80 101
51 82 102
50 81 101
50 81 103
51 83 104
50 81 102
52 82 103
50 81 102
51 82 104
49 80 100
51 80 100
50 80 100
49 80 101
47 77 98
48 77 97
51 82 102
49 80 100
49 81 103
52 80 99
52 83 104
51 81 100
51 83 104
50 81 102
52 83 104
51 82 102
48 78 98
51 81 101
48 79 100
49 78 97
49 79 99
51 79 98
49 78 98
51 81 101
49 79 99
50 80 100
48 78 98
47 77 97
51 83 104
49 80 101
48 79 99
48 78 99
47 78 98
49 77 95
52 81 101
47 78 98
50 80 100
48 78 98
48 78 97
49 80 101
47 77 96
45 74 93
51 82 102
50 80 100
49 78 98
49 80 100
47 77 97
50 80 101
48 76 95
51 81 101
46 74 92
49 77 96
46 75 94
46 74 93
48 76 96
50 80 100
44 72 90
48 77 97
48 74 92
48 76 94
47 75 93
45 74 92
51 79 98
45 73 92
47 76 94
47 74 92
48 78 97
46 74 92
50 79 99
49 77 96
45 73 91
48 76 94
39 63 80
46 74 93
51 79 98
46 74 93
44 70 88
43 69 86
46 73 92
43 70 88
43 70 87
45 72 89
45 71 88
45 70 86
47 73 91
44 70 87
45 70 86
41 65 81
42 69 86
42 68 86
45 72 90
46 71 89
44 68 83
39 62 77
46 70 87
42 66 83
41 65 80
41 63 78
41 65 81
43 67 83
39 63 78
38 60 74
44 68 85
42 66 81
39 61 76
44 67 83
39 61 76
40 63 78
44 68 83
42 64 78
39 59 72
38 60 74
38 60 75
39 61 76
39 60 74
40 62 77
39 61 75
41 63 78
41 61 75
36 57 70
38 59 72
37 56 69
37 56 69
40 61 75
37 57 71
32 47 57
37 56 68
35 53 66
34 53 66
36 55 67
36 55 67
35 53 65
32 48 58
32 49 61
30 47 58
30 45 56
36 55 68
31 48 59
32 48 58
32 49 60
33 49 59
31 48 59
34 51 62
32 48 59
28 42 51
29 45 55
28 43 52
30 44 53
27 42 51
27 41 50
30 44 53
28 40 48
29 43 52
31 46 57
29 43 52
26 37 45
32 47 57
28 41 50
25 37 44
26 38 46
30 44 53
28 41 50
29 42 51
33 48 58
23 34 41
27 40 48
26 39 48
27 39 47
25 38 47
31 44 53
25 37 45
24 35 42
26 37 45
30 42 51
23 35 43
28 39 47
27 39 47
26 38 46
24 35 43
21 32 38
21 30 36
27 39 48
31 45 54
26 37 45
30 45 54
25 37 44
29 43 52
28 41 50
29 43 52
26 38 46
23 34 41
26 39 47
25 37 45
29 45 55
26 38 47
31 47 57
29 44 54
32 47 57
32 49 60
31 47 57
34 52 64
26 40 50
37 55 67
34 50 61
33 49 60
36 53 65
32 49 60
32 48 59
34 52 64
33 51 62
33 49 60
35 51 62
33 49 60
36 55 68
36 54 67
33 51 63
43 65 79
33 51 63
39 60 74
36 56 69
36 54 67
34 54 67
38 58 72
39 60 73
41 63 78
36 55 67
34 54 67
42 65 81
41 65 80
39 59 72
41 62 76
38 60 75
39 61 76
40 62 76
39 61 75
41 65 81
45 70 87
39 62 78
37 60 75
42 65 81
40 64 79
39 62 78
45 69 85
43 66 81
45 71 88
42 68 85
44 69 85
43 68 85
45 70 86
42 66 82
45 70 88
47 73 90
43 69 86
42 67 84
42 70 89
44 69 86
41 65 81
42 68 86
44 69 86
44 70 87
47 75 93
41 66 83
45 72 90
43 70 88
44 70 88
46 74 93
46 72 90
44 70 88
47 74 92
45 72 91
45 72 91
47 74 93
45 72 91
47 75 94
50 80 100
46 73 91
46 74 92
45 72 91
45 74 93
46 72 90
45 73 91
48 77 97
49 79 98
47 76 96
49 76 94
49 77 97
46 75 94
48 77 96
47 75 94
47 76 96
50 80 100
48 78 97
49 78 98
47 77 97
48 78 99
47 77 97
47 76 95
50 81 102
50 80 100
50 80 99
49 80 100
48 77 96
47 76 96
48 78 98
47 76 96
50 81 101
52 82 102
48 77 97
45 75 95
49 79 98
52 84 104
50 81 101
49 78 98
47 77 97
49 79 99
50 80 100
49 78 98
52 83 103
49 79 99
49 81 102
49 79 99
46 76 96
52 83 103
48 80 101
52 82 102
48 79 100
50 80 100
49 80 101
52 82 103
50 80 100
47 77 97
51 82 103
48 78 98
52 84 105
51 82 103
48 79 100
50 79 99
48 79 100
51 81 102
52 83 103
52 83 103
49 80 101
46 77 98
50 81 101
52 82 102
50 82 103
50 80 100
49 80 101
51 83 104
50 81 102
49 80 101
48 78 98
49 81 102
48 78 98
52 83 103
52 83 104
51 83 104
49 79 99
51 82 103
50 81 102
52 83 103
49 80 100
53 83 104
51 82 103
50 81 102
51 82 102
50 81 102
51 83 105
53 83 104
53 84 105
52 83 103
50 82 103
51 83 104
53 83 104
52 84 105
49 80 102
54 85 106
52 83 104
51 82 103
53 84 104
51 82 103
51 82 103
52 82 103
50 82 103
51 81 101
50 83 104
52 84 105
51 83 104
48 79 100
53 84 105
51 83 104
50 81 102
51 81 101
51 81 101
50 81 102
49 81 102
51 80 100
51 81 102
54 84 104
51 82 103
50 80 100
50 79 98
51 81 102
52 84 105
49 81 102
52 82 102
52 83 104
49 81 101
49 79 99
50 80 100
48 79 100
49 80 100
51 82 103
48 77 97
52 83 104
51 82 102
51 82 102
49 78 98
48 79 99
51 81 101
50 81 101
47 77 96
49 79 99
52 81 100
49 81 102
47 77 97
49 80 101
52 82 102
48 78 99
48 79 99
50 81 101
49 79 99
50 80 100
51 81 101
47 76 95
51 81 101
49 77 96
49 77 96
49 78 98
47 76 96
49 78 97
50 79 98
48 76 95
49 80 101
48 76 95
46 74 92
46 74 93
47 77 96
49 79 99
49 78 97
48 76 95
47 72 89
48 77 96
51 81 102
47 76 95
48 76 94
47 75 94
45 73 91
45 73 92
48 77 96
45 73 91
45 73 91
47 74 92
48 77 96
46 72 90
45 73 91
47 73 91
45 72 90
47 74 93
48 76 94
46 73 90
48 76 95
48 74 91
45 72 90
44 71 89
45 72 90
48 76 95
45 73 92
47 74 92
46 73 91
44 71 88
44 71 88
45 73 92
43 69 86
44 70 87
44 70 87
45 72 90
45 70 88
41 67 84
43 69 86
43 69 87
45 70 86
44 71 88
45 71 88
38 62 78
43 68 85
43 67 83
43 68 85
42 67 83
39 63 79
42 65 80
42 65 81
44 69 85
43 66 81
39 62 77
42 65 80
40 62 78
43 67 83
39 61 76
38 60 75
46 71 88
43 67 83
41 62 77
38 59 74
40 63 78
39 61 75
41 64 79
40 61 76
37 57 71
33 51 64
34 52 64
38 59 73
36 56 69
37 57 71
36 54 67
40 61 74
38 57 70
36 56 69
37 57 71
36 55 67
30 46 58
36 55 68
36 55 68
39 59 73
34 51 61
38 59 72
34 51 62
34 51 63
33 49 60
33 49 60
31 46 57
35 51 62
36 54 66
31 47 58
32 48 59
31 47 57
34 51 62
32 47 57
29 43 52
23 34 41
29 44 54
37 53 64
34 50 60
31 46 56
25 38 46
31 46 57
25 37 45
25 38 46
26 38 46
25 36 43
27 40 49
27 40 49
26 38 46
27 40 49
30 44 53
33 47 56
29 43 52
28 41 50
22 33 40
25 37 44
25 38 46
25 37 44
26 39 48
26 39 47
27 39 47
25 36 43
26 38 46
29 43 52
29 45 55
35 50 61
29 44 54
29 42 51
29 42 50
28 41 50
31 45 55
30 44 53
23 34 41
28 41 50
28 42 51
27 41 51
29 44 53
30 45 55
28 41 49
32 46 56
32 49 60
34 49 60
27 41 50
32 48 59
31 48 59
34 50 61
30 46 56
31 46 57
31 47 57
31 48 58
29 44 54
38 57 69
33 49 59
32 48 59
31 48 59
36 55 67
33 50 61
36 54 66
36 54 67
35 55 69
35 52 64
36 56 69
37 57 70
30 46 57
36 55 68
39 58 71
38 60 75
39 60 74
36 55 67
36 57 70
40 62 77
42 65 80
36 57 70
40 63 77
39 60 75
37 58 72
37 58 72
40 62 77
41 64 79
44 68 84
39 60 75
41 64 80
42 65 81
43 68 85
41 65 81
40 64 79
43 63 77
42 66 82
40 62 76
42 65 81
40 64 80
44 69 86
44 69 86
41 64 80
43 69 86
48 74 91
39 64 81
45 70 87
44 71 89
44 70 87
41 65 81
46 71 88
42 66 82
44 71 88
43 70 88
45 69 85
44 70 86
45 72 90
43 69 87
46 73 91
43 69 87
44 71 89
46 73 92
44 70 87
45 72 90
46 74 93
47 76 95
48 76 94
46 74 93
44 70 88
46 74 93
45 72 90
48 77 96
45 71 89
47 77 97
49 78 98
50 79 99
46 75 94
48 77 96
47 79 99
46 76 95
48 77 96
47 77 98
47 77 96
46 74 92
46 73 91
47 79 99
49 78 98
48 77 96
50 81 101
50 81 102
47 76 96
47 76 94
48 77 97
49 78 97
48 76 96
49 80 100
46 75 95
50 79 99
48 79 99
48 77 96
50 79 97
48 78 98
50 80 100
51 80 100
49 78 98
48 79 100
50 80 100
51 81 101
49 79 100
50 80 101
49 79 98
51 82 103
48 78 98
49 80 101
49 80 100
48 80 102
52 82 102
49 80 100
49 78 98
48 80 101
53 84 105
50 80 101
49 80 100
52 83 103
51 80 99
52 83 104
49 79 100
49 79 99
50 79 99
51 82 103
52 84 106
50 81 102
52 84 105
51 82 103
48 78 98
49 80 100
47 76 96
51 83 105
52 83 104
50 81 101
51 81 101
49 80 101
49 80 100
49 80 100
51 82 102
51 81 101
50 82 103
52 84 106
52 82 102
52 83 104
49 80 101
51 81 102
52 82 103
52 84 105
51 82 103
49 81 103
50 81 101
52 82 102
51 82 102
52 83 104
52 82 102
53 84 104
51 83 103
53 84 104
52 83 103
52 83 104
52 83 103
50 81 102
50 81 102
50 82 103
51 81 101
51 83 105
50 83 105
53 84 105
50 81 102
52 81 101
53 84 104
51 84 106
49 80 101
51 82 103
50 82 103
51 82 103
49 81 103
51 81 101
51 82 102
51 83 104
49 80 100
51 81 102
48 80 101
50 81 101
51 82 102
50 81 101
50 80 100
49 80 101
50 81 101
52 82 103
51 82 103
49 79 100
50 81 101
48 80 101
52 81 101
49 80 100
48 78 98
50 81 102
50 82 103
51 81 101
51 83 104
51 82 104
51 83 104
50 81 102
50 80 100
50 80 100
50 81 102
48 76 96
48 77 97
50 79 98
51 81 101
51 81 101
50 80 100
49 78 98
49 78 98
52 83 104
48 77 97
53 83 104
48 78 98
50 80 100
48 77 96
50 81 101
49 77 97
48 78 98
50 81 101
49 79 99
51 81 101
48 77 97
47 76 96
48 76 95
51 81 100
49 78 98
47 74 92
46 76 95
48 76 95
48 76 95
50 79 99
50 80 99
49 78 97
48 78 98
47 76 96
51 79 98
49 77 96
48 77 97
46 74 93
49 78 97
46 74 92
48 76 94
47 75 94
46 73 91
46 74 92
42 69 87
49 79 99
49 77 96
47 74 92
48 77 96
49 78 97
45 73 92
46 74 93
45 72 90
47 75 94
49 76 94
48 76 95
47 74 93
43 70 88
43 70 87
46 70 86
47 74 92
46 72 90
42 67 83
45 72 91
42 67 84
45 72 90
43 68 85
44 68 84
44 70 88
45 71 88
46 73 90
44 70 87
44 71 88
43 67 83
46 74 93
44 70 87
43 68 84
45 69 86
39 62 78
41 64 80
39 62 77
45 70 88
42 66 81
41 64 79
37 59 73
42 67 83
39 60 73
40 64 80
38 60 75
44 66 81
43 67 83
42 66 82
41 63 78
38 60 74
42 63 78
40 63 79
36 55 68
39 61 75
42 66 82
34 52 64
39 60 75
35 54 67
39 61 75
40 59 72
36 54 66
38 58 71
39 60 74
39 60 73
37 58 72
37 56 69
37 57 69
34 52 63
37 55 67
32 49 60
37 56 68
34 51 62
40 60 73
34 52 64
33 51 64
36 54 66
35 54 66
36 55 68
33 49 60
30 45 55
36 55 68
34 50 60
37 55 67
28 41 50
33 48 58
28 43 52
33 50 61
31 46 56
33 48 58
27 41 50
25 38 46
31 47 58
28 41 50
35 51 62
36 53 64
28 40 49
29 43 52
30 44 53
33 49 60
24 34 42
29 43 52
29 44 53
25 38 47
28 41 50
23 34 40
26 39 47
24 36 44
29 42 51
30 43 52
28 42 50
25 38 47
23 35 42
28 42 51
29 43 52
28 40 49
22 32 39
29 44 53
25 36 44
32 47 57
30 45 54
29 43 52
26 39 47
33 48 57
29 42 51
28 41 50
32 47 57
30 45 55
30 44 53
27 41 50
31 47 58
31 46 56
29 43 52
34 50 60
30 44 54
28 42 51
29 44 54
26 40 49
32 49 60
31 48 59
32 48 58
34 51 63
37 56 68
32 49 60
30 45 55
38 57 69
28 43 53
31 47 57
37 55 67
32 49 61
35 54 66
35 53 64
36 55 67
36 56 69
38 58 71
37 56 69
38 56 69
37 57 70
39 59 72
37 58 72
37 56 70
36 57 70
40 62 77
36 55 68
40 61 74
39 59 73
38 60 75
38 58 72
40 63 79
39 63 78
41 64 80
42 65 81
40 64 80
39 61 75
43 66 81
44 67 82
41 65 80
39 61 76
41 66 82
42 67 84
42 66 81
41 65 82
40 64 80
43 66 82
37 60 75
41 64 80
45 70 86
44 71 88
44 70 87
45 71 88
45 70 87
44 69 86
44 69 86
48 75 93
44 68 84
42 67 84
42 65 80
45 72 90
46 71 89
41 66 83
46 73 90
45 73 92
41 67 84
43 67 83
45 72 91
44 70 87
46 73 91
40 66 83
45 71 89
47 75 93
47 75 94
45 73 91
48 74 91
49 77 96
45 73 92
47 77 97
47 75 93
45 73 92
49 77 96
48 76 94
46 74 92
47 76 96
47 75 93
50 78 96
46 74 93
48 76 95
50 81 101
47 78 98
50 80 101
49 78 97
46 75 95
46 76 96
45 75 94
46 75 94
49 77 97
47 76 95
47 75 94
49 79 99
52 81 101
48 78 99
49 79 99
50 77 96
48 77 96
47 75 94
47 74 92
48 77 96
48 78 98
48 78 98
45 73 92
48 80 102
49 81 102
48 78 99
50 81 102
47 76 96
47 77 97
50 81 102
49 81 101
47 77 98
49 78 97
52 81 101
49 80 100
47 78 98
47 77 97
48 77 96
50 81 102
51 82 102
50 80 100
51 80 100
52 82 102
50 81 101
52 82 102
48 79 100
50 81 102
50 79 99
49 80 101
50 81 102
49 80 100
52 83 104
50 81 101
50 81 101
51 83 104
49 81 103
51 82 103
49 80 100
49 80 101
51 81 101
52 83 104
51 82 103
51 82 102
48 80 101
54 85 105
50 82 104
49 80 101
51 82 103
50 81 102
50 82 102
49 79 99
52 82 102
51 82 102
51 82 103
50 83 104
51 83 103
54 84 105
53 83 103
50 82 103
52 84 104
50 80 100
52 83 104
51 81 101
51 82 103
51 83 105
51 82 103
49 81 102
52 83 104
50 80 101
51 82 103
52 82 102
51 81 101
53 85 106
50 82 103
51 82 103
52 82 103
51 81 102
52 83 104
49 79 100
50 82 103
50 80 100
53 84 104
51 81 102
53 84 104
50 82 104
51 82 103
49 80 100
50 81 102
49 80 101
51 82 103
53 83 103
50 80 101
50 81 103
49 80 100
48 79 99
51 81 101
51 82 103
50 81 102
49 80 101
50 80 101
51 82 102
50 81 102
50 80 100
50 80 99
49 79 99
49 79 100
50 80 101
52 84 106
47 76 95
49 79 99
53 83 103
54 84 104
49 79 99
48 78 98
51 81 100
47 75 94
49 79 99
49 78 97
49 80 101
47 76 96
47 77 97
49 80 100
50 80 100
48 78 98
47 77 97
50 80 100
51 79 98
47 76 95
48 78 98
47 75 94
47 78 98
51 80 100
45 75 95
52 82 101
50 80 101
46 75 94
48 78 98
46 76 95
49 77 97
48 77 96
49 79 98
47 76 95
50 78 96
48 79 100
50 80 100
47 75 93
49 78 97
49 77 96
48 79 100
48 78 97
48 78 97
47 76 95
48 77 96
47 76 96
47 75 93
48 75 93
49 76 94
46 75 93
45 72 90
47 73 91
46 74 93
47 75 94
47 74 93
47 76 95
48 75 93
46 75 94
43 71 89
44 69 87
43 68 85
45 73 91
48 76 95
44 71 88
47 75 93
46 74 92
45 71 88
43 69 86
44 70 87
42 68 85
42 68 85
46 72 89
42 67 84
41 68 85
43 69 85
41 66 82
44 71 88
45 70 88
37 59 74
43 67 83
43 69 86
41 67 83
44 68 85
45 70 86
37 60 75
41 66 82
39 61 76
42 67 84
47 73 91
40 62 77
43 67 82
41 63 77
41 65 81
38 61 76
39 61 76
40 62 76
39 61 76
38 59 74
39 59 73
41 63 78
44 67 82
37 59 73
36 58 72
39 61 75
34 53 66
37 58 72
42 64 79
40 62 77
37 58 72
34 52 65
36 57 71
33 52 64
29 46 57
37 55 67
34 51 63
41 61 75
29 44 54
39 59 72
39 59 72
36 56 70
34 52 64
32 51 63
34 50 61
35 53 65
31 48 59
36 56 69
33 51 63
30 45 55
37 56 68
33 51 62
34 51 62
29 44 54
33 49 60
32 49 59
29 43 53
33 49 60
33 49 60
31 46 56
30 44 53
32 47 57
31 45 54
30 46 56
27 40 48
30 45 55
26 37 45
32 46 56
28 40 49
32 48 59
28 41 50
28 43 52
30 44 54
29 44 53
32 48 58
29 42 50
30 44 54
28 42 51
29 42 51
31 45 54
35 51 62
31 46 57
26 39 47
30 44 54
29 43 52
29 43 52
25 37 45
31 45 55
35 52 63
30 45 55
30 44 53
31 46 56
25 37 44
32 47 57
29 44 54
35 52 64
33 48 58
36 53 65
30 44 54
36 53 64
30 44 54
29 43 53
34 52 65
30 45 55
34 51 62
36 54 66
34 51 63
31 48 58
35 51 63
34 52 64
35 53 65
35 54 66
33 50 62
32 48 58
33 51 63
37 55 68
33 50 62
33 50 62
38 57 70
41 62 77
34 53 65
39 58 71
37 56 69
36 53 65
35 54 67
41 62 76
36 56 69
37 59 73
36 55 68
35 53 65
40 61 74
41 63 77
37 60 75
35 57 71
36 57 70
41 63 78
41 63 79
42 65 81
34 53 66
36 58 72
40 63 78
40 62 76
38 60 75
40 61 76
42 66 81
39 62 77
41 63 78
39 62 77
40 63 78
42 66 83
43 68 85
43 67 82
42 67 83
41 66 83
42 69 87
41 64 80
43 68 84
44 69 85
44 69 85
43 68 85
42 65 81
43 68 85
44 69 86
45 69 86
45 73 91
45 71 89
42 68 85
44 70 87
45 72 89
48 75 93
44 71 89
46 74 92
48 74 92
47 76 95
47 75 94
44 69 86
44 69 86
48 75 93
48 75 93
45 71 88
48 75 92
43 70 87
44 72 90
49 78 98
45 73 92
47 76 95
44 72 91
46 75 93
50 79 99
49 77 97
48 77 97
47 76 95
50 80 100
47 76 95
46 74 93
48 77 97
48 76 95
48 75 93
44 72 91
49 77 97
49 80 100
47 76 96
47 76 95
50 80 100
46 74 93
49 78 97
48 78 98
49 78 97
48 78 98
50 80 100
50 80 99
47 77 96
51 81 101
48 77 97
49 78 97
50 79 98
47 76 96
48 79 100
51 80 100
48 78 98
48 79 99
52 80 99
47 76 95
49 78 98
49 80 100
46 77 98
49 78 98
49 79 100
51 80 100
51 82 103
50 81 102
50 80 100
50 79 99
50 81 101
50 79 98
48 79 99
49 79 99
48 78 98
50 80 100
50 81 102
51 82 102
50 80 101
48 80 101
52 83 104
48 78 99
50 82 102
50 82 103
49 80 101
51 82 103
50 80 101
52 83 103
49 80 100
51 82 103
52 84 105
50 81 102
48 80 101
50 82 104
51 83 104
49 79 100
51 81 102
51 82 103
54 85 106
49 81 102
51 82 103
52 83 103
51 80 99
51 83 104
51 81 102
50 81 101
53 84 104
49 80 101
51 82 103
52 83 104
50 81 102
49 81 102
50 82 104
49 79 100
50 81 102
50 81 102
52 83 104
51 83 105
50 81 102
50 83 104
52 83 104
52 84 105
50 81 102
51 81 102
49 79 100
50 81 101
50 81 102
50 81 102
51 82 102
51 82 103
50 81 102
51 81 101
50 81 102
50 80 101
51 82 102
53 83 104
48 79 99
50 82 104
49 80 100
50 82 103
52 82 102
51 80 99
49 80 101
51 83 104
52 83 104
48 79 99
50 81 101
49 79 100
49 80 100
48 80 101
49 79 99
48 79 100
49 79 98
47 77 97
51 80 100
50 82 103
47 77 98
52 82 102
50 82 103
50 80 100
50 81 101
48 79 101
48 78 97
50 81 101
51 81 101
51 81 101
47 76 94
48 78 98
50 81 101
49 78 97
50 80 100
49 79 99
51 81 101
49 78 97
48 76 94
51 81 101
48 78 98
47 76 96
48 76 95
51 82 102
49 78 98
51 81 101
49 79 99
48 80 101
48 77 96
51 80 99
49 78 97
49 79 99
49 79 98
49 78 97
47 75 94
49 77 95
49 79 99
48 77 96
47 77 97
48 77 95
47 74 92
46 74 93
47 76 96
46 74 92
50 79 98
46 76 96
46 74 92
45 73 91
45 72 90
46 72 90
48 76 94
49 79 99
46 74 92
43 69 86
46 72 90
45 73 91
44 69 86
47 74 92
45 71 88
48 76 94
42 68 85
48 76 94
46 73 90
43 68 85
44 71 89
44 72 90
49 76 94
46 73 90
48 76 95
43 69 86
44 73 92
44 70 88
46 73 90
36 58 73
46 73 91
45 71 88
43 69 86
42 68 85
44 69 86
43 68 85
41 64 80
41 64 79
47 74 92
42 67 83
42 68 86
43 69 86
40 64 80
42 66 83
42 64 78
45 68 84
37 59 74
41 65 81
38 58 72
42 66 81
43 67 84
39 62 77
34 55 69
38 59 72
41 63 78
44 67 83
41 65 81
36 57 70
42 65 81
36 56 69
39 61 75
38 59 73
38 60 75
39 61 75
40 63 79
40 60 74
41 61 75
37 57 70
40 61 75
38 58 72
35 53 66
31 48 59
38 57 70
37 56 68
40 61 76
36 57 70
34 51 63
34 51 62
36 54 66
32 49 60
34 52 64
38 58 71
31 48 59
37 55 67
36 55 68
35 52 64
33 49 60
31 47 57
32 47 58
32 49 60
29 45 56
32 48 59
32 48 59
30 47 58
32 48 59
31 45 55
33 50 62
31 47 58
32 48 59
28 42 52
32 49 60
31 46 56
28 42 51
27 40 48
29 44 54
29 42 51
34 50 61
34 51 61
29 43 52
31 46 56
33 48 59
29 43 53
30 46 56
30 44 54
29 43 52
26 38 46
34 51 61
28 41 50
26 38 46
30 45 55
34 51 62
29 43 52
29 44 53
30 44 54
31 45 55
25 38 46
28 41 50
32 46 56
28 43 53
37 55 67
32 47 57
30 45 56
28 41 50
30 45 55
32 47 57
26 39 48
32 47 58
29 44 54
26 39 49
33 50 61
32 48 58
31 46 57
38 56 69
34 51 62
31 47 57
35 53 64
30 46 56
33 49 60
36 55 67
35 54 66
34 53 65
32 48 59
32 51 63
34 52 65
33 51 62
38 57 70
39 60 74
33 50 62
36 57 70
39 60 74
40 61 74
32 49 61
37 56 68
34 54 67
34 54 68
38 60 75
39 60 74
40 61 74
43 67 83
40 60 74
39 60 73
39 63 78
39 60 74
38 60 74
39 61 75
40 62 77
40 62 77
43 65 80
40 62 76
38 60 75
40 63 78
43 67 83
43 68 84
47 73 90
43 67 83
42 67 83
45 70 87
38 61 76
43 68 85
45 70 87
45 72 89
44 68 84
44 70 88
43 68 85
40 62 77
41 65 82
41 68 86
44 70 87
43 66 82
44 71 89
48 74 92
40 64 81
41 65 81
46 72 90
43 70 88
43 68 84
48 75 92
46 75 94
45 72 91
46 72 89
46 72 89
43 70 87
46 72 90
44 72 91
49 78 97
46 72 90
47 74 92
46 74 92
48 75 92
46 74 93
46 72 89
46 72 90
44 71 89
45 72 91
46 74 93
47 77 96
48 77 96
46 73 91
49 79 99
47 74 92
49 77 96
49 77 96
47 76 96
50 78 97
49 78 98
48 77 96
48 77 96
46 75 95
46 75 94
48 77 97
48 77 96
49 78 97
48 77 96
49 78 97
51 80 100
50 78 96
49 79 99
47 77 96
47 77 97
49 80 100
49 78 97
48 78 99
48 78 98
49 78 98
50 81 102
47 78 99
48 77 97
51 82 103
48 78 97
50 80 99
52 82 102
50 79 99
48 78 98
49 80 101
49 77 96
52 82 103
48 79 99
49 79 99
50 81 101
51 81 100
51 82 104
50 81 102
51 81 101
50 80 100
48 80 101
49 80 100
49 78 98
48 78 98
53 82 102
49 79 100
50 82 104
51 82 103
50 81 101
50 80 100
49 78 98
49 79 99
49 80 100
49 79 100
52 84 105
52 81 101
51 81 101
50 80 101
49 80 100
49 80 101
53 84 105
51 83 103
50 80 100
51 82 103
49 81 102
50 81 101
50 82 103
49 80 100
51 82 102
52 82 102
51 82 103
50 79 99
52 83 104
52 83 104
53 84 105
52 82 102
51 82 103
50 82 103
50 82 103
52 83 103
50 80 101
50 81 102
50 80 101
52 83 103
52 82 102
51 81 101
52 83 104
51 82 103
49 80 101
51 83 103
49 80 100
50 81 101
53 84 104
50 82 103
51 83 104
52 83 104
52 83 103
48 78 98
51 83 104
50 81 101
51 82 103
49 79 99
50 80 100
52 83 103
51 82 102
51 81 101
50 82 103
50 82 103
48 77 97
49 80 100
50 80 100
50 80 99
50 80 100
49 79 98
50 82 104
50 80 101
50 79 99
51 82 103
51 83 104
49 81 102
50 81 102
50 79 99
50 82 102
51 81 101
50 81 101
51 81 102
50 80 99
50 80 99
49 79 100
51 82 102
48 79 99
50 80 101
49 77 97
49 80 101
47 76 96
45 75 94
49 76 94
49 80 101
50 80 100
52 83 104
49 78 97
51 81 101
47 74 91
47 76 95
49 79 99
51 79 98
46 76 96
49 78 97
50 79 99
49 78 97
48 77 96
49 78 98
51 81 101
48 79 99
47 76 96
47 76 96
48 76 95
52 80 98
45 74 93
48 78 98
43 70 88
51 81 102
47 78 99
42 68 85
47 74 92
46 74 92
44 72 90
49 77 95
46 74 93
47 77 96
48 76 95
44 71 88
47 78 98
46 74 93
50 80 99
48 78 97
42 68 85
43 71 89
45 73 91
46 73 91
45 71 89
45 72 91
45 72 90
47 74 91
44 70 87
45 71 89
42 69 87
46 71 87
45 72 90
44 71 89
45 70 87
46 73 91
45 71 88
45 71 88
46 73 91
45 70 87
44 70 87
43 70 87
44 70 87
41 66 82
43 70 88
40 65 81
41 66 82
44 69 86
43 68 85
40 63 78
41 65 81
44 69 85
43 68 84
46 71 88
45 69 85
37 60 75
44 69 86
42 65 81
43 68 84
42 67 83
40 64 79
37 58 71
44 69 85
37 57 71
40 64 80
42 65 81
44 66 81
39 63 79
38 59 73
40 62 77
38 59 73
36 56 69
41 63 78
39 62 76
38 58 72
35 55 68
39 59 73
39 59 73
38 58 71
39 59 73
38 59 72
34 53 65
39 61 75
39 59 72
37 58 71
37 56 70
39 60 75
34 51 63
38 57 70
36 54 66
33 50 61
35 53 65
36 54 66
32 50 63
37 56 68
36 55 68
29 46 57
33 50 61
36 53 65
37 57 70
32 48 59
32 50 61
34 51 62
34 52 64
30 45 55
31 47 58
36 55 67
31 45 54
30 46 57
29 43 52
31 46 56
33 49 60
31 48 59
27 40 49
31 47 57
33 49 59
31 47 57
34 49 60
28 41 49
29 43 53
30 44 54
34 50 60
31 45 55
28 42 51
26 39 48
31 46 56
30 47 58
32 47 57
31 46 56
32 48 58
32 47 57
31 45 55
30 45 55
34 50 61
32 48 59
29 44 53
28 42 52
28 42 51
33 50 61
37 54 65
30 44 54
33 49 59
31 46 55
32 47 58
34 50 60
29 44 54
34 50 61
33 50 62
33 50 61
33 50 61
34 52 64
32 48 59
33 49 60
39 59 73
32 47 58
35 53 64
34 50 61
34 51 63
37 55 68
32 49 60
34 52 63
37 56 69
35 52 64
31 49 60
35 54 66
38 58 71
36 56 69
37 57 71
37 57 71
42 65 80
41 62 76
40 61 74
34 52 63
36 55 68
36 56 69
40 62 77
39 59 73
41 64 78
39 60 74
40 59 72
40 63 78
37 58 71
37 58 72
35 56 69
41 65 81
38 59 73
40 61 75
41 65 81
42 65 81
44 68 84
39 61 75
38 60 74
42 66 81
42 68 85
39 62 77
42 66 82
44 70 87
42 66 82
43 69 86
42 67 84
40 63 78
40 66 82
40 67 84
42 66 83
43 68 85
42 67 84
41 66 82
44 68 84
45 72 90
40 64 81
39 62 77
45 71 89
48 76 95
41 65 81
42 67 84
46 73 90
43 69 86
46 73 91
46 72 90
45 72 90
47 75 93
48 75 93
49 77 96
45 71 88
44 71 89
45 71 89
47 73 90
46 74 93
47 75 93
46 72 90
44 71 89
45 74 93
48 78 98
44 70 88
49 77 96
44 71 89
46 74 93
44 72 91
44 72 91
45 72 90
50 78 97
46 75 95
48 76 95
48 77 95
49 76 95
44 71 89
45 73 92
47 76 96
47 76 96
47 75 94
45 75 94
48 76 95
49 80 100
47 76 96
49 80 100
46 74 93
54 84 104
48 76 94
48 77 97
47 77 96
51 79 98
49 78 98
46 75 95
50 80 100
46 75 94
47 77 97
47 77 97
49 81 103
50 79 98
49 78 98
49 79 99
51 82 103
49 77 96
49 80 101
49 81 102
48 80 100
48 77 96
49 79 100
46 74 94
50 81 102
47 79 99
49 79 99
48 78 98
48 79 99
50 81 102
52 82 101
49 79 99
51 81 101
52 81 100
52 81 101
51 81 101
50 79 99
49 79 100
52 82 102
49 80 101
50 81 102
49 80 100
52 82 103
50 82 103
49 80 101
50 82 103
52 82 102
50 81 102
53 84 104
51 82 103
51 82 103
49 81 102
53 84 105
50 80 100
53 85 105
52 83 104
50 81 102
51 83 104
51 83 103
51 82 103
49 81 102
49 81 102
52 83 104
52 82 102
50 81 102
51 83 104
50 80 101
53 85 106
48 79 100
50 80 100
51 82 102
50 82 103
50 82 104
50 81 101
50 82 104
50 81 101
49 81 103
50 81 102
51 82 103
51 82 103
51 83 104
53 83 104
49 79 100
50 81 102
51 82 103
51 83 104
49 78 98
49 78 98
52 82 103
50 80 100
52 83 104
49 80 100
50 80 100
50 81 102
49 80 101
49 80 100
51 82 102
49 80 100
48 78 99
51 82 102
53 83 104
49 79 100
50 81 101
48 78 98
49 78 98
48 79 99
52 82 103
49 79 98
51 81 101
49 80 100
49 79 100
52 83 104
48 79 100
49 79 99
50 81 102
50 81 102
52 82 102
47 76 96
52 81 101
50 81 101
49 78 98
48 78 98
50 80 100
48 78 97
48 78 97
47 77 96
48 77 97
49 77 96
50 78 97
51 80 100
49 79 99
46 75 94
49 77 96
50 80 100
49 79 99
51 81 101
50 80 100
51 80 99
49 78 98
50 80 101
46 75 95
46 75 93
50 78 97
48 76 95
48 78 97
49 79 100
46 74 93
49 77 96
46 76 95
48 76 95
49 78 98
46 75 94
47 75 94
48 77 97
46 74 93
48 75 94
47 75 94
47 75 94
49 78 98
48 76 95
47 76 95
47 75 94
46 74 92
45 73 91
46 72 90
45 72 89
44 70 88
47 75 94
43 69 86
48 75 94
45 71 89
42 69 86
47 74 93
48 75 94
46 73 92
43 69 87
45 72 90
46 74 93
43 72 91
46 74 92
44 71 89
44 71 88
47 76 95
41 64 79
42 70 88
44 68 84
43 68 84
42 67 84
44 68 84
42 66 81
43 68 84
42 69 87
41 65 81
39 62 76
44 69 85
42 67 83
45 68 84
44 70 87
41 64 79
36 57 71
39 62 78
43 66 81
43 67 84
42 64 79
41 64 79
43 69 85
43 67 83
43 66 82
41 63 79
41 63 79
40 62 76
34 53 66
39 60 74
40 60 74
44 68 85
39 60 74
39 61 75
40 62 76
40 61 75
38 57 70
37 58 73
40 62 77
41 64 80
39 59 72
38 58 71
41 62 76
36 57 70
35 54 67
33 51 63
39 60 74
40 61 76
38 59 72
38 58 71
36 55 68
36 55 67
34 51 63
32 49 60
32 49 60
32 48 59
34 53 65
33 52 64
40 61 75
33 51 64
37 55 66
32 49 61
27 40 49
32 48 59
33 50 61
30 46 56
38 56 68
33 49 59
35 53 64
35 53 64
34 51 63
36 53 65
28 43 53
30 46 56
30 46 56
28 41 50
34 50 61
27 40 49
32 49 60
29 42 52
29 43 52
30 44 53
31 46 57
34 51 62
31 47 57
29 43 52
32 50 61
34 50 61
31 46 56
28 40 49
34 52 64
30 46 56
33 49 59
34 51 63
31 47 57
32 48 59
36 53 65
31 46 57
28 42 51
37 54 65
34 51 63
32 49 60
33 50 61
36 54 66
33 51 63
30 46 56
32 47 58
30 47 57
32 47 56
34 53 65
37 55 67
35 54 66
36 55 67
31 48 58
33 50 61
34 51 63
32 48 59
35 54 66
33 51 63
35 53 65
36 55 68
33 49 59
37 56 68
38 57 70
37 56 69
35 54 66
39 60 73
37 56 69
38 57 69
40 60 74
37 55 67
37 57 70
39 61 76
42 63 77
39 59 72
38 60 74
36 56 69
38 59 73
42 65 80
41 62 76
36 57 71
40 63 78
37 58 72
42 64 79
40 63 78
41 65 81
41 65 81
44 69 86
39 62 77
42 65 81
37 58 72
44 68 84
42 67 83
43 68 85
42 66 83
43 69 87
44 69 86
44 68 84
44 70 87
42 67 84
43 69 86
43 67 84
42 67 85
47 73 91
44 70 88
40 64 80
42 67 84
42 66 82
42 66 82
44 70 86
44 69 85
41 65 81
44 71 89
43 68 84
43 68 85
42 68 85
44 70 87
43 68 85
43 69 86
42 67 83
44 71 89
42 69 87
48 75 94
45 72 90
50 78 97
44 71 88
46 73 91
44 71 88
48 75 93
45 71 89
46 74 92
48 76 95
45 74 93
49 77 95
42 68 86
46 74 92
47 75 93
45 73 92
47 75 94
46 74 93
47 77 96
45 73 92
46 75 95
47 75 95
48 77 96
47 77 96
48 77 96
47 76 96
49 77 96
49 76 95
46 73 92
48 76 96
46 76 96
46 75 94
47 76 96
48 77 96
46 76 96
49 78 97
51 81 101
46 76 96
49 78 98
49 80 101
48 79 99
48 77 97
49 78 97
50 79 98
49 78 97
49 79 99
47 77 97
48 78 98
48 77 97
50 81 102
50 78 97
49 78 98
49 78 98
47 78 98
50 80 100
48 79 99
49 80 100
50 81 102
47 76 95
48 77 97
51 80 100
49 80 101
51 82 102
49 78 97
49 80 101
49 78 98
49 80 100
49 80 100
49 80 101
48 79 99
48 78 99
52 83 104
50 82 103
50 80 100
48 79 100
50 81 101
51 81 101
49 80 101
50 80 100
50 82 103
52 83 103
51 83 103
50 82 104
50 81 101
49 80 100
50 81 101
50 82 104
50 81 101
51 81 102
50 81 101
51 82 102
50 79 99
50 83 104
52 83 103
52 83 104
51 82 102
50 81 101
52 84 105
50 82 103
52 84 105
51 82 102
50 82 103
53 84 104
51 82 104
50 81 102
51 83 104
51 82 102
50 82 103
50 80 101
51 83 104
48 79 100
51 82 103
51 81 100
48 79 99
50 79 99
50 80 100
52 84 105
49 81 101
52 82 102
50 81 102
50 80 101
49 81 102
51 82 103
51 82 103
50 79 99
52 82 103
49 80 100
50 82 104
49 78 97
50 80 99
50 81 102
50 81 102
50 81 101
49 80 101
49 82 103
48 77 97
51 81 101
50 79 99
51 80 100
50 80 100
49 78 98
50 81 102
47 79 101
50 81 102
49 79 99
49 80 100
48 79 99
49 79 99
50 80 100
51 81 101
49 80 100
50 81 101
50 81 102
51 81 100
49 80 100
49 78 98
50 79 98
47 77 98
49 78 97
50 79 98
52 81 101
48 77 96
49 78 97
48 78 97
50 80 100
50 78 98
50 80 100
47 77 96
49 78 97
52 81 100
47 78 99
47 76 95
48 78 97
48 76 95
47 78 98
48 77 97
49 79 99
48 77 97
49 79 98
49 79 99
49 77 97
47 77 97
48 78 98
48 78 98
46 73 91
46 75 94
47 75 94
48 76 95
49 79 99
50 79 98
48 76 94
49 77 95
50 79 98
48 76 95
43 70 88
47 76 95
46 74 93
47 76 95
43 71 89
49 77 96
46 76 96
47 76 95
44 70 88
48 74 92
46 74 92
46 73 91
42 68 85
45 73 92
47 75 93
39 64 80
44 71 88
46 74 92
47 75 93
42 66 82
42 66 82
45 71 88
44 70 87
46 73 92
45 71 89
45 70 88
46 73 91
44 70 88
41 65 82
44 69 86
44 70 88
43 67 84
44 69 86
42 67 83
44 68 84
37 59 74
44 67 83
39 63 79
44 70 86
42 66 83
42 65 81
45 70 87
39 63 78
43 68 84
43 67 84
39 62 78
41 67 84
41 65 81
44 67 83
41 65 81
43 67 83
41 63 78
39 62 77
41 63 78
40 62 76
38 59 73
42 66 81
42 64 79
36 55 68
38 59 73
40 64 79
37 58 72
34 52 64
38 60 75
39 60 74
38 57 70
36 54 66
38 58 71
36 56 69
38 60 75
34 52 64
37 55 68
36 54 66
39 59 72
36 54 67
41 63 78
32 50 62
39 58 71
33 51 62
37 56 69
32 49 60
36 56 69
32 48 59
36 56 68
34 52 64
31 46 56
32 47 58
34 51 63
32 48 59
36 54 66
32 49 60
30 46 56
33 50 61
31 46 57
30 47 58
35 52 63
34 49 60
31 46 56
31 47 58
32 48 59
35 53 64
30 46 56
30 44 54
31 47 58
25 38 47
35 52 64
31 47 58
33 47 57
34 50 61
33 48 57
30 45 55
34 51 63
30 44 54
33 50 61
33 49 59
28 41 50
29 43 52
31 46 56
30 45 55
25 37 45
28 41 50
32 47 58
31 47 57
32 49 60
36 54 66
31 47 58
33 50 61
31 47 57
35 52 63
31 47 57
35 51 61
32 48 60
31 47 57
32 49 61
33 50 61
35 52 63
33 51 62
35 52 63
33 50 62
36 55 67
32 49 59
39 59 72
36 55 68
36 55 67
34 51 63
37 56 69
36 55 68
39 61 75
38 59 73
35 56 70
36 55 67
37 56 69
37 57 70
40 61 75
35 54 67
36 56 69
37 56 69
38 59 74
38 59 73
42 63 77
39 60 73
40 62 77
42 63 77
39 60 74
38 58 72
43 66 81
44 69 86
40 63 78
40 61 75
35 55 68
40 63 79
43 67 83
40 61 75
39 62 76
37 59 73
40 63 79
40 64 79
44 69 86
44 69 85
41 67 84
44 69 86
42 68 85
42 68 84
43 68 85
43 68 85
43 66 81
44 69 86
44 71 88
44 71 88
45 71 89
44 68 84
42 66 83
42 66 82
43 67 84
45 70 86
46 73 90
44 71 88
43 70 87
44 68 84
46 70 87
48 74 92
42 69 87
46 73 90
45 73 91
46 71 88
46 74 92
46 72 89
48 78 98
44 72 91
46 74 93
47 75 93
48 77 96
43 69 85
48 75 94
45 72 89
44 70 88
49 77 97
44 71 89
44 71 88
47 75 94
48 76 95
46 73 91
46 73 91
47 74 92
48 75 94
46 74 94
48 78 98
46 73 91
48 77 96
47 76 95
47 74 92
46 76 96
48 79 99
46 75 93
47 76 95
48 76 96
46 74 93
49 80 101
48 77 97
47 75 93
48 75 93
46 76 95
50 80 99
49 78 98
49 80 100
48 78 98
49 80 100
49 79 100
49 77 96
47 76 94
50 80 100
49 80 101
51 82 102
47 75 94
50 79 99
50 80 101
47 78 98
50 80 100
52 81 101
51 80 100
49 78 97
47 78 98
50 80 101
49 78 97
46 75 94
50 80 100
52 82 103
50 81 102
49 80 101
48 80 101
47 77 97
49 79 99
50 80 100
51 81 101
48 79 100
50 80 100
50 80 99
48 79 99
48 78 97
51 83 104
49 81 103
49 81 102
47 76 96
51 81 102
48 79 99
53 84 105
52 82 102
49 81 103
51 83 103
48 80 101
50 81 102
51 82 103
50 81 101
52 82 102
51 82 103
50 81 101
51 82 103
52 82 102
48 78 99
50 81 101
52 83 104
48 80 101
54 84 104
51 83 104
50 81 101
53 83 103
50 81 101
53 85 106
49 81 102
52 83 104
49 79 99
49 80 100
49 80 100
51 82 103
50 82 103
52 83 105
49 80 101
52 82 103
51 82 102
51 81 101
50 81 101
51 82 103
53 83 103
49 80 101
51 82 103
49 80 100
51 80 100
51 82 102
51 82 102
50 81 102
52 82 102
51 81 102
49 80 101
50 78 98
52 83 103
51 82 103
51 82 103
48 79 100
50 80 100
52 83 104
49 80 101
52 82 102
49 80 100
50 82 103
52 83 104
50 80 100
52 82 102
50 81 101
48 78 98
52 82 102
51 81 101
49 80 100
47 78 99
49 79 100
48 77 97
49 78 97
46 78 99
48 80 100
50 80 101
46 76 95
47 78 98
49 79 99
51 81 101
49 78 97
47 76 95
50 80 101
51 81 100
51 82 103
50 80 101
47 78 98
49 79 100
48 79 99
48 77 96
45 73 92
48 77 97
49 78 97
51 80 100
47 76 95
49 78 97
48 79 100
49 79 99
46 75 93
50 80 99
48 78 98
47 78 99
49 80 100
50 80 100
48 75 94
47 77 96
47 76 96
47 76 95
50 80 100
47 76 94
49 79 100
47 75 94
51 79 98
45 73 92
50 78 97
42 69 86
47 75 94
45 73 91
46 74 93
50 79 98
47 74 93
48 76 95
45 74 94
47 75 93
47 75 94
42 69 87
45 72 90
47 74 93
46 74 92
44 70 87
46 74 92
44 72 91
44 70 87
45 72 91
47 74 92
43 69 86
49 75 93
44 70 87
45 73 91
46 74 93
46 73 91
43 68 85
43 68 85
45 71 88
41 66 82
43 70 87
42 66 82
42 66 82
47 72 88
42 67 84
42 65 80
42 65 81
45 71 88
41 65 81
39 62 76
41 65 82
44 69 86
45 70 87
43 69 87
39 61 76
43 67 82
43 68 84
42 65 80
43 65 81
42 66 81
38 60 74
39 62 77
39 62 76
38 58 72
39 62 78
41 62 77
37 57 70
38 60 75
35 54 67
37 59 74
40 62 77
38 58 72
41 62 76
33 52 64
37 57 71
37 57 70
39 61 75
37 57 71
39 59 73
34 52 64
39 61 75
35 52 63
43 64 78
35 54 66
36 56 70
36 56 68
38 60 74
33 51 63
37 58 72
36 53 65
31 48 60
37 56 69
37 57 70
36 55 67
35 53 66
34 51 63
38 58 71
36 55 67
34 52 64
32 49 60
31 48 59
30 45 55
40 61 75
34 50 60
32 49 60
31 48 59
30 45 55
33 51 62
31 47 58
32 48 59
35 52 63
34 50 61
29 44 55
34 51 62
31 47 57
31 48 59
32 48 59
33 50 61
29 44 53
30 45 55
31 47 58
29 43 53
34 51 62
34 52 63
33 49 60
32 49 60
32 47 58
30 45 56
31 47 58
35 53 64
31 47 58
32 48 59
33 49 60
27 42 52
32 48 58
31 47 57
29 43 53
31 48 59
35 51 62
32 49 60
33 50 61
32 49 59
35 52 63
33 49 60
34 51 63
34 52 64
34 51 63
31 47 58
35 53 65
34 52 64
28 42 51
38 56 68
35 54 67
38 57 70
38 57 69
35 53 65
34 52 63
35 54 67
35 53 65
35 54 66
37 56 69
35 55 68
35 53 66
39 60 75
38 59 73
37 57 70
38 59 73
36 55 68
36 57 71
37 57 71
35 54 67
41 63 78
38 58 71
38 60 75
37 58 71
40 62 77
43 67 82
38 59 73
41 64 80
36 57 71
36 56 69
40 63 78
43 67 83
44 69 86
38 60 75
43 66 82
39 63 80
41 65 81
44 67 82
39 63 78
39 61 76
40 63 78
45 70 86
40 64 80
44 69 87
43 69 86
43 68 85
41 64 79
46 71 88
43 69 86
46 72 89
41 65 80
43 68 85
41 66 83
45 71 88
44 68 84
42 68 85
40 64 79
43 68 84
44 70 86
48 74 92
42 66 81
44 69 85
45 73 91
46 73 91
42 67 83
44 70 87
44 72 91
43 69 86
47 74 92
47 74 92
46 72 90
45 72 90
42 68 86
43 71 89
45 72 90
45 73 92
46 72 89
45 71 88
43 70 88
47 75 94
47 75 94
46 74 94
45 73 91
47 76 96
47 75 93
49 77 97
44 71 88
46 74 93
49 78 98
48 78 98
45 73 91
47 75 94
48 78 97
47 76 95
48 75 93
48 78 97
46 75 94
48 78 97
49 77 95
48 77 96
48 76 95
49 79 99
47 77 98
46 74 93
47 76 95
46 75 95
49 78 98
47 77 96
50 79 99
52 82 102
47 75 93
48 79 99
50 80 100
49 80 100
47 78 99
50 81 101
50 79 99
51 80 100
50 81 101
49 79 99
49 79 98
48 78 98
48 78 98
52 83 103
50 82 103
50 80 100
48 78 98
49 79 98
50 79 98
51 81 102
47 78 98
49 78 98
49 80 100
50 80 100
51 81 101
50 80 100
50 80 101
50 81 102
49 78 97
51 80 100
48 79 100
50 82 103
52 82 101
50 81 102
46 77 97
49 80 101
51 82 103
49 79 99
51 83 104
50 80 101
53 83 103
49 80 100
50 80 100
48 79 99
49 80 101
49 80 101
52 83 103
50 80 100
51 82 102
50 80 101
51 83 103
53 83 103
50 82 104
51 82 103
51 82 103
52 83 104
52 83 103
50 81 101
53 84 104
53 84 105
51 82 103
50 81 102
50 81 102
51 82 103
49 80 100
50 82 103
50 81 102
51 82 102
50 81 102
53 84 104
50 82 104
50 81 101
54 85 106
51 82 103
50 82 104
51 80 100
51 82 103
52 83 103
51 81 101
52 83 103
52 82 102
52 82 103
50 82 103
51 81 101
49 79 100
50 81 101
48 77 96
51 83 104
49 80 100
49 81 102
55 86 106
46 77 97
52 84 105
50 80 100
51 82 102
51 81 102
49 81 102
51 81 101
49 80 100
51 81 101
51 80 100
48 77 97
51 81 101
48 79 100
49 79 99
52 82 101
48 79 100
49 80 101
52 82 101
49 79 99
48 77 97
48 81 103
49 81 101
48 78 99
50 81 101
48 79 100
47 78 98
49 79 99
48 78 98
51 81 101
51 82 102
46 74 93
49 78 97
49 79 99
48 78 98
50 79 99
49 79 98
49 79 99
50 80 100
47 76 95
47 75 93
49 79 99
42 71 90
48 78 98
46 73 91
51 80 100
50 79 98
49 79 99
46 75 94
47 75 94
48 77 97
48 79 99
49 76 94
48 75 93
49 77 97
46 75 94
47 73 90
43 70 89
47 75 94
46 74 92
47 73 91
42 68 86
45 73 92
48 76 95
47 75 93
47 76 95
47 76 96
45 71 88
46 73 90
46 74 93
46 73 92
48 75 93
47 75 94
45 72 90
45 70 88
42 68 85
46 73 91
48 75 93
43 69 86
45 70 88
44 71 89
44 70 87
46 73 90
44 70 87
46 72 90
43 70 88
45 71 88
43 69 86
44 69 86
44 69 86
38 62 77
45 72 90
44 69 86
43 66 82
43 68 86
41 65 80
44 71 90
43 67 82
40 66 83
43 69 86
43 67 83
44 68 84
42 66 81
47 73 90
45 69 86
39 62 76
38 59 73
39 62 78
39 61 76
41 62 77
39 61 76
39 62 77
40 63 78
38 60 75
40 62 77
38 59 72
38 60 74
38 58 72
41 63 77
38 59 73
39 61 76
39 62 78
39 60 74
37 57 71
33 52 64
40 62 76
37 57 70
41 62 77
39 59 73
37 56 69
39 58 71
36 55 67
35 53 65
39 60 73
37 57 71
35 54 66
34 51 63
36 57 71
35 54 66
34 53 65
33 49 60
35 52 64
34 52 64
30 46 57
33 49 60
31 48 60
34 51 62
34 52 64
34 51 62
33 49 59
33 51 62
37 57 70
37 56 68
35 52 63
37 55 67
38 57 69
26 41 50
35 52 64
32 49 60
37 56 69
34 52 64
34 51 63
32 49 60
35 54 66
36 55 68
34 53 65
35 52 63
31 47 57
32 49 60
31 46 56
29 44 54
34 51 61
34 50 61
35 53 65
32 47 57
33 50 61
35 51 63
31 46 56
31 47 57
34 51 63
33 48 59
29 43 53
37 55 67
31 47 57
33 50 62
37 56 69
30 47 58
36 52 64
39 59 72
36 53 65
34 51 63
33 49 60
38 56 68
33 49 60
31 46 57
36 55 67
33 50 61
34 51 62
36 56 69
35 55 68
36 55 68
35 53 64
37 56 69
33 52 64
38 58 72
39 59 72
36 55 68
34 52 64
39 61 75
36 55 67
38 58 71
34 52 64
41 60 74
36 56 68
40 62 77
37 57 70
38 58 72
39 60 74
39 59 73
40 62 77
39 60 74
40 62 77
43 67 83
38 60 74
39 59 73
38 60 74
42 66 82
40 63 78
40 61 74
45 68 83
39 62 77
44 69 85
39 61 76
40 62 77
41 66 82
41 63 78
42 66 81
44 69 85
41 66 82
42 65 81
41 64 79
42 66 81
44 69 85
41 65 82
40 62 77
41 65 80
44 70 87
42 67 83
45 69 85
39 63 79
44 69 86
46 72 90
43 70 88
46 70 86
46 73 91
43 70 88
46 72 89
45 71 88
46 72 90
42 67 84
44 69 87
45 70 87
43 70 88
46 72 89
46 73 91
47 76 95
44 71 89
44 73 92
47 74 92
50 79 97
45 71 89
49 76 94
46 75 94
46 72 90
47 76 95
44 72 90
46 73 91
47 75 94
46 72 89
45 72 91
46 72 89
49 78 97
47 75 94
48 77 96
47 75 93
46 74 93
47 74 93
47 75 94
48 77 97
46 74 93
46 75 94
48 78 98
46 73 91
49 78 96
44 74 94
49 78 97
49 78 97
47 76 95
46 74 92
48 76 95
45 73 91
50 77 95
49 78 98
48 78 98
48 76 95
49 79 99
50 81 101
47 76 95
49 79 98
46 73 92
48 79 100
48 77 97
50 80 100
47 75 94
47 77 97
49 78 98
49 78 97
47 77 96
48 78 97
50 80 101
49 78 98
53 82 102
51 80 99
50 80 100
50 80 100
50 80 100
48 78 98
50 80 100
48 78 98
47 76 96
47 77 97
49 78 97
51 81 102
52 83 104
50 79 99
50 81 101
49 81 102
53 84 104
49 81 102
50 79 98
50 81 102
50 81 102
49 78 98
48 78 98
50 81 101
50 82 103
50 82 103
51 81 100
50 80 100
49 80 100
50 81 101
49 81 102
50 80 100
48 78 98
48 79 100
51 82 103
50 80 101
51 81 101
49 79 99
49 80 100
49 81 101
51 82 102
50 81 102
49 80 100
51 82 102
51 81 101
50 82 103
50 81 102
52 83 104
50 81 102
50 82 103
51 82 102
51 81 102
50 80 100
51 81 101
50 82 103
50 82 104
51 82 103
51 82 103
51 82 102
52 83 104
51 83 104
50 80 101
51 82 102
50 80 100
51 82 102
52 82 103
50 81 102
51 81 102
53 84 105
52 82 102
50 81 102
51 82 103
47 78 98
50 80 100
52 83 103
51 81 102
47 76 95
51 83 104
48 77 97
51 82 103
50 81 101
51 81 101
49 80 101
51 82 102
50 81 102
50 80 101
50 80 100
49 80 101
50 80 100
52 81 101
47 76 96
48 78 98
52 82 102
50 80 100
50 79 98
50 81 102
49 80 100
47 76 96
49 80 101
51 81 101
50 80 100
51 80 99
48 78 98
45 74 93
48 77 97
47 76 96
48 78 98
47 76 95
49 78 98
47 77 97
48 79 100
50 79 99
48 79 99
45 76 96
48 78 97
46 75 95
49 78 97
47 76 95
51 82 102
48 79 99
46 76 96
47 75 95
50 78 97
46 76 96
47 76 95
48 76 95
50 79 99
48 78 97
51 80 99
49 79 100
44 71 89
46 74 92
50 80 100
47 75 94
47 76 95
47 73 91
47 75 94
46 73 91
49 76 95
48 75 94
44 71 89
46 73 91
50 79 98
46 74 93
47 77 96
47 75 94
49 78 97
43 70 88
48 78 99
47 74 92
47 76 95
45 73 92
48 74 92
47 74 92
42 69 87
44 69 86
40 65 82
46 72 90
42 67 83
43 68 85
44 72 90
42 68 86
45 71 89
43 70 87
41 64 80
43 67 83
45 70 87
42 67 83
46 73 90
48 77 96
46 72 90
47 72 88
42 67 83
41 67 85
43 66 81
40 64 79
40 64 79
43 67 83
40 62 77
41 63 78
43 67 84
44 67 83
43 69 87
43 69 85
42 66 82
38 59 74
42 66 81
38 61 76
42 65 81
41 65 81
40 62 77
42 64 79
39 60 75
39 59 72
40 63 78
40 63 78
44 68 84
40 61 75
42 64 79
37 59 73
41 65 80
41 64 80
40 62 77
42 65 80
40 61 75
38 58 72
41 64 79
40 62 77
35 53 65
38 59 73
39 60 74
37 58 72
38 60 75
39 60 74
35 55 68
36 55 68
37 57 70
37 57 70
35 54 66
38 57 70
38 57 69
35 54 66
34 51 62
34 51 63
34 53 65
34 51 62
38 57 70
31 47 58
33 50 61
34 51 62
31 47 59
33 49 60
31 48 60
31 47 57
37 56 69
37 56 69
30 46 56
31 47 58
35 53 65
31 48 59
32 48 59
35 51 62
35 53 65
36 55 67
34 51 63
33 50 61
33 51 62
34 51 62
34 52 64
33 50 61
37 55 67
31 47 58
30 46 57
33 49 60
35 53 65
34 52 63
34 50 61
34 51 63
35 52 63
30 47 58
32 48 58
32 48 59
36 53 64
34 51 63
32 49 60
33 51 63
33 50 62
36 56 69
34 51 62
36 54 66
36 55 68
34 52 64
34 52 64
39 59 72
39 59 73
31 47 58
36 54 67
38 57 70
34 53 65
29 43 53
35 53 65
35 53 64
35 54 67
39 60 74
33 50 62
39 60 74
38 58 72
36 55 68
34 52 64
37 56 68
38 58 71
41 64 79
38 59 72
39 61 75
36 57 70
38 56 69
39 60 74
38 58 71
38 58 72
38 59 73
39 60 74
40 63 78
38 60 74
41 62 77
38 59 74
36 56 69
39 61 76
42 65 81
41 65 80
41 64 79
42 64 79
40 65 81
41 64 79
41 63 77
41 65 81
39 62 77
42 67 83
39 62 77
38 61 76
43 68 85
41 66 83
43 67 84
43 65 80
48 75 93
38 60 75
41 65 82
42 66 82
44 69 85
45 70 87
45 70 87
42 65 81
45 71 89
42 68 85
43 70 87
44 70 87
42 67 83
43 70 88
46 71 89
47 72 90
49 77 96
47 75 94
46 73 91
42 67 83
44 68 84
46 73 91
46 71 88
47 74 92
43 69 87
46 73 91
46 74 92
44 71 90
44 71 88
46 73 90
45 73 91
49 77 97
43 69 87
45 73 92
48 76 95
47 75 94
46 73 92
48 77 96
50 78 96
46 73 91
46 74 92
46 75 93
47 76 94
49 78 98
48 77 96
46 73 91
48 76 96
50 79 99
44 73 93
50 78 97
45 73 92
49 79 100
47 77 97
49 77 96
50 80 100
45 74 93
46 74 93
48 76 94
45 72 90
47 77 96
48 77 97
47 77 97
47 76 96
46 75 95
49 76 95
47 76 95
47 77 97
46 76 95
49 79 99
47 76 95
48 78 97
48 78 97
48 77 96
47 76 96
48 80 101
48 78 98
49 80 100
48 78 98
47 76 96
49 80 100
50 80 99
49 79 99
50 81 101
50 79 98
50 80 100
49 79 99
47 76 96
50 80 100
50 79 98
49 81 102
49 79 99
50 80 99
51 82 103
46 76 96
50 81 101
50 80 101
46 78 98
50 80 101
50 81 101
51 82 103
50 79 99
50 82 102
51 83 104
49 80 101
49 80 100
50 80 101
50 80 101
49 80 101
51 82 102
51 82 102
48 78 99
51 82 102
49 80 101
50 81 102
51 82 104
53 83 104
50 80 101
50 81 102
51 82 103
50 81 102
49 80 100
51 82 102
48 81 103
50 82 104
51 82 102
50 81 102
52 82 102
52 84 105
50 81 101
53 84 104
51 82 102
53 84 105
52 83 104
53 85 106
49 80 100
51 81 102
48 79 100
51 81 102
50 81 101
53 84 104
50 80 100
51 81 101
51 82 102
48 80 101
49 80 101
52 83 104
50 80 99
52 82 103
51 81 102
48 79 100
50 80 99
50 81 101
47 76 95
49 79 99
51 80 100
50 80 101
51 82 102
49 79 98
50 82 103
47 78 98
48 79 100
50 80 100
48 78 98
49 80 101
49 80 100
48 78 98
49 80 100
49 79 99
49 80 100
49 78 97
50 80 99
51 82 102
50 80 100
48 79 100
49 80 101
50 80 99
52 81 100
50 80 100
49 78 97
52 82 102
48 77 96
48 79 100
51 82 103
50 80 100
48 78 97
51 80 100
48 78 98
50 78 97
47 77 96
51 80 99
49 79 99
49 78 97
48 78 98
50 78 98
48 76 94
46 75 94
48 77 97
47 75 94
49 80 100
50 80 100
49 77 96
49 76 95
48 78 98
50 78 96
48 78 98
49 79 98
47 75 93
45 73 91
46 74 93
49 77 96
47 75 93
44 73 92
47 76 95
47 74 92
48 75 94
49 78 97
46 73 91
45 72 90
46 74 92
45 72 90
49 77 96
47 75 94
46 74 93
45 72 90
46 73 92
45 75 94
46 75 95
46 75 94
44 71 88
46 73 92
48 78 99
44 71 88
48 75 93
45 72 90
45 72 90
45 71 88
45 70 87
42 66 82
42 67 83
48 76 94
43 67 83
45 71 88
46 73 91
41 65 81
42 67 84
40 64 80
44 69 86
39 63 79
42 65 80
43 70 87
43 66 82
46 73 91
43 68 85
42 66 82
41 64 79
45 71 88
42 68 84
37 60 75
40 63 78
43 67 82
40 63 79
40 62 77
44 68 84
41 64 79
45 70 88
40 64 80
38 60 75
41 64 79
40 62 76
37 59 74
39 61 75
38 61 76
41 64 80
39 61 76
41 64 79
40 62 76
35 55 68
37 58 71
40 61 75
35 55 68
38 59 74
37 57 70
35 53 65
35 55 69
36 54 67
38 60 74
36 55 68
39 60 74
43 64 79
40 62 76
37 57 71
35 55 68
39 59 73
36 55 68
37 56 68
31 48 60
35 54 66
39 59 73
39 58 71
36 57 70
36 54 66
39 59 73
34 53 65
33 51 63
35 53 66
32 49 60
34 54 67
38 58 71
34 50 62
35 54 67
35 51 62
40 60 73
36 56 69
31 47 58
35 54 66
37 57 70
34 51 62
33 51 63
32 48 58
39 59 72
35 51 62
31 48 59
35 54 66
36 53 65
31 46 57
35 53 65
35 54 66
30 47 57
32 49 61
36 54 66
38 58 71
37 56 69
31 47 58
32 49 60
31 48 59
37 54 65
30 46 57
29 43 53
34 51 63
35 53 65
37 56 69
34 52 63
33 48 59
33 50 61
37 55 67
34 52 64
37 55 67
36 54 66
37 56 69
33 50 61
35 53 65
31 49 61
33 50 61
35 54 66
38 59 72
38 58 71
36 54 66
32 50 62
33 51 64
33 50 61
34 54 66
41 62 76
38 60 75
37 57 70
33 50 61
36 55 67
38 59 73
38 58 72
35 53 65
39 60 75
40 61 75
35 56 69
36 56 70
43 66 81
41 63 77
41 63 77
37 57 71
41 63 77
41 65 80
35 55 69
39 61 75
35 55 67
44 68 84
38 60 75
45 70 87
40 62 77
41 65 81
41 63 79
42 63 77
42 66 82
45 69 86
43 67 82
40 63 78
42 67 84
43 66 81
38 59 73
44 69 86
43 66 82
43 67 83
43 69 87
44 69 86
42 65 80
43 69 86
41 66 82
46 71 88
42 67 84
43 68 85
42 68 85
42 65 81
42 66 82
46 71 88
42 67 83
45 71 88
44 70 88
44 70 87
45 72 90
42 67 83
42 67 84
45 71 88
45 72 90
47 74 92
43 69 86
46 74 92
46 71 88
44 72 90
45 71 89
49 76 94
44 71 89
46 73 91
40 66 83
46 73 91
44 71 90
44 73 92
47 77 96
47 76 95
50 79 98
47 75 93
47 74 92
43 70 88
45 72 90
48 77 97
46 74 93
45 73 92
45 74 93
49 76 94
46 74 93
46 72 89
48 77 96
47 75 95
47 75 93
49 76 95
45 74 92
50 78 97
50 80 99
48 76 95
51 79 97
49 78 98
50 78 97
48 76 95
46 76 95
47 75 93
48 76 94
46 75 94
48 77 97
50 79 99
50 80 99
49 80 100
48 77 96
50 81 101
51 78 97
49 79 99
48 79 100
49 79 99
50 81 101
51 81 101
48 76 95
49 77 95
47 78 99
49 80 101
49 78 97
49 80 101
49 80 100
50 82 103
49 79 99
50 81 101
46 76 95
50 80 100
48 79 100
48 79 99
50 81 101
49 80 101
50 79 99
47 76 95
48 78 98
48 79 99
51 81 101
50 80 99
51 81 101
49 80 101
48 79 99
50 81 101
52 83 103
49 79 98
51 81 101
48 78 98
50 80 100
51 81 100
51 81 101
51 81 101
49 80 100
47 77 97
51 83 104
52 83 103
52 82 102
51 82 102
51 81 101
51 82 102
48 79 100
50 81 102
50 81 102
51 82 102
50 81 101
50 81 102
53 84 105
51 82 102
50 80 101
50 81 102
51 82 103
52 81 101
49 81 102
50 81 102
50 80 100
49 81 101
51 82 103
50 81 102
50 81 102
49 80 101
51 82 103
52 83 104
48 78 99
51 81 101
49 79 99
49 77 96
51 82 103
49 80 100
50 81 103
49 80 100
48 77 97
50 81 102
49 80 100
52 82 102
50 80 101
52 82 103
51 82 103
51 81 101
51 82 103
51 83 103
47 77 97
49 79 99
50 81 102
50 80 101
49 80 101
50 81 102
49 80 101
48 80 100
50 80 100
49 80 100
48 78 98
49 80 101
50 81 102
51 81 101
52 82 103
48 78 99
46 76 96
48 79 99
50 79 99
50 81 101
50 80 101
51 81 101
48 78 98
51 81 100
50 80 100
48 78 97
50 80 100
50 80 100
48 77 97
47 77 97
48 78 98
47 76 96
50 79 99
45 73 91
47 76 96
50 80 100
47 76 96
49 78 97
48 79 99
47 77 97
49 80 100
48 79 99
49 79 99
46 74 94
47 76 95
47 76 95
48 77 96
45 72 90
50 78 97
48 77 95
46 76 95
48 75 94
48 78 98
44 71 89
46 73 92
46 75 94
47 75 93
46 74 92
49 79 98
46 75 94
45 72 91
46 74 93
45 73 91
47 76 96
48 75 94
46 72 90
45 73 91
45 71 89
46 75 94
42 68 84
44 70 87
45 72 90
47 76 95
45 72 90
44 70 87
47 75 94
45 69 85
44 69 86
45 73 92
48 74 92
43 70 87
42 66 82
46 71 87
42 67 83
43 67 84
46 71 88
45 70 87
43 69 86
45 71 89
40 64 81
43 67 83
43 68 85
43 66 81
45 71 88
43 67 83
42 67 84
41 65 81
44 70 87
44 70 87
46 73 90
43 68 84
42 65 81
42 67 83
44 68 83
42 66 81
42 66 82
40 62 77
44 68 84
41 65 81
38 59 73
41 66 82
40 62 78
35 54 67
40 63 78
41 64 79
40 63 78
39 61 75
42 66 82
43 67 82
40 63 79
35 55 69
38 59 73
41 64 79
37 57 70
38 58 72
44 67 83
35 54 67
41 63 78
38 60 75
38 58 72
40 62 76
38 59 73
35 55 68
37 58 72
38 57 69
34 53 65
38 58 72
34 53 65
38 59 73
40 61 76
37 56 68
40 61 75
32 49 61
29 46 57
35 52 64
36 55 68
34 51 63
33 51 62
35 54 67
31 47 58
31 47 58
37 56 68
38 58 71
33 50 62
35 54 67
34 51 62
37 56 69
37 55 67
35 53 64
32 51 63
34 52 63
37 56 69
35 52 64
32 48 60
32 50 61
34 51 62
32 49 60
33 49 60
33 52 64
29 45 56
38 56 68
34 51 63
33 50 61
31 47 58
41 61 74
36 55 67
36 55 67
32 49 60
35 52 63
39 59 73
36 54 66
35 52 64
39 59 72
36 53 65
33 50 61
35 52 64
29 45 56
33 51 62
34 51 62
36 56 70
39 58 72
35 55 68
37 56 69
36 54 66
38 58 70
36 54 67
37 56 70
38 56 68
36 57 70
37 57 71
35 54 66
37 57 70
37 57 70
40 60 74
40 62 76
39 60 73
38 58 71
36 57 70
36 55 67
42 64 78
37 58 72
41 62 76
34 53 65
40 62 76
35 54 67
37 58 71
42 64 79
39 61 75
41 64 79
40 61 75
41 63 78
44 69 85
43 65 80
43 67 82
39 61 75
41 64 79
40 61 75
40 62 76
42 66 83
39 63 78
41 63 78
38 60 74
42 65 80
40 64 79
42 68 85
41 63 79
40 63 78
43 67 83
43 69 86
41 65 80
42 67 83
43 67 82
42 66 81
45 71 88
41 65 81
43 68 84
44 70 87
45 71 89
44 68 85
46 71 88
46 72 89
43 68 84
43 68 85
39 61 75
42 67 84
42 67 83
43 67 83
45 70 87
45 72 90
47 75 93
44 70 88
45 71 88
43 68 84
45 72 90
46 74 92
48 76 94
44 70 88
43 70 87
45 72 90
44 70 88
47 75 93
48 75 93
44 72 90
40 65 81
46 73 91
46 72 89
46 72 89
46 73 91
47 74 93
44 71 89
45 73 92
47 75 94
45 74 94
46 73 91
48 76 95
50 78 97
46 73 91
47 75 94
48 77 96
48 76 95
47 76 95
44 72 91
49 79 99
45 74 93
50 80 100
47 76 96
44 70 87
50 79 98
50 79 98
45 72 89
47 77 96
49 80 101
49 78 97
46 74 93
50 78 97
47 76 96
46 76 95
49 79 98
48 77 96
52 82 102
48 76 94
47 77 96
48 78 98
49 79 100
47 77 96
49 79 98
50 80 100
49 77 96
49 79 98
47 76 95
50 79 99
49 78 97
47 77 98
49 78 97
48 78 98
48 78 99
48 79 99
50 81 101
48 78 97
49 80 100
49 81 102
48 78 97
49 79 99
51 82 102
51 81 100
49 79 99
50 81 101
51 82 102
52 82 103
48 79 100
49 81 102
49 79 98
51 82 102
50 81 102
50 81 101
48 79 100
52 83 103
50 79 98
50 82 102
51 82 102
49 80 101
52 82 103
51 81 102
49 80 101
49 80 101
51 81 101
52 83 103
51 82 103
50 81 102
50 82 103
51 82 102
50 81 101
52 82 103
52 83 104
51 82 102
48 80 100
52 83 104
51 82 103
51 82 102
51 82 103
52 83 104
52 82 102
50 82 103
48 78 98
52 83 103
51 81 102
49 81 102
55 85 105
52 83 104
49 80 101
48 80 101
50 82 103
48 78 98
52 84 105
51 82 103
49 79 100
50 81 102
51 81 101
49 80 101
53 83 103
50 81 102
49 79 99
50 81 101
49 80 100
49 79 99
51 81 101
50 81 102
52 82 101
48 79 99
49 80 100
52 82 103
48 79 100
50 80 100
48 79 99
48 79 99
50 80 100
50 80 101
50 80 100
48 76 94
48 75 94
50 80 100
48 77 96
50 81 102
50 81 102
50 80 101
48 77 97
50 79 99
51 82 103
47 75 94
49 78 97
48 76 95
49 79 99
50 81 101
47 76 96
47 74 93
50 80 100
49 81 102
50 80 99
50 79 98
46 76 96
49 78 98
50 78 97
48 79 99
49 78 98
51 80 100
47 76 95
49 77 96
47 76 95
48 78 97
50 80 101
49 79 98
50 80 99
48 78 98
49 76 95
50 77 95
48 76 94
47 73 91
45 73 92
46 74 93
47 75 94
44 71 89
49 79 98
48 76 95
48 77 96
43 70 88
50 79 98
46 75 94
47 74 92
47 75 94
47 76 94
47 74 93
48 75 94
47 74 93
48 75 93
44 71 88
47 72 90
47 75 93
44 71 89
42 66 81
48 74 92
47 74 93
45 72 89
46 72 90
46 72 90
46 73 91
49 77 95
48 77 96
45 73 92
47 73 91
42 66 82
48 75 93
45 72 90
45 69 85
44 70 87
49 77 95
42 67 83
42 68 85
42 67 84
45 70 87
42 66 83
41 65 81
47 75 93
43 67 82
45 71 88
43 67 84
44 69 85
43 68 85
43 69 86
42 66 83
44 70 87
40 63 79
43 69 85
41 64 79
46 72 90
40 62 77
43 66 82
42 67 83
43 68 85
40 63 78
40 64 80
41 63 78
40 62 77
39 63 78
39 62 78
40 62 77
40 63 79
39 62 78
41 64 79
43 66 81
39 61 76
43 66 82
43 65 79
36 56 68
37 58 72
38 58 71
38 60 74
37 58 71
43 65 79
36 55 67
38 58 71
40 61 74
38 58 71
40 62 77
36 55 68
35 54 66
38 58 72
38 59 73
38 59 73
40 60 74
37 56 69
37 58 72
38 59 73
38 57 70
34 53 66
36 55 68
37 56 69
35 54 67
37 58 71
36 55 68
36 56 69
33 52 64
36 55 68
34 51 63
36 54 66
38 57 70
34 54 68
37 56 70
34 51 63
33 51 62
35 52 64
38 57 69
36 53 65
38 58 71
36 54 66
36 56 69
32 50 61
34 52 64
34 51 62
29 43 53
35 52 64
34 51 63
32 48 59
34 54 66
34 52 65
32 50 61
35 53 65
38 59 73
36 54 67
37 57 70
33 51 63
36 53 65
31 47 58
35 53 66
36 55 67
35 55 68
36 54 66
33 51 63
33 51 63
34 53 65
35 55 68
36 55 68
35 53 66
36 56 69
33 50 61
34 52 64
36 55 67
36 55 68
38 58 71
38 59 72
35 55 68
37 57 71
37 57 71
36 56 69
33 52 65
37 57 70
37 58 72
40 61 75
32 50 61
42 65 80
39 60 74
37 56 69
41 63 77
41 64 79
38 59 73
37 57 70
35 55 68
35 55 68
44 68 85
40 61 75
40 63 77
41 63 78
39 60 75
44 69 85
39 62 77
40 62 77
42 67 83
41 62 77
41 64 80
37 59 75
41 63 78
41 65 81
38 59 74
42 65 80
42 64 80
44 69 86
39 62 77
46 72 89
43 66 81
41 65 80
41 64 80
45 69 86
42 66 82
41 62 76
39 60 74
46 73 90
43 69 86
43 70 87
44 69 85
41 64 79
42 67 84
40 64 80
39 61 75
42 67 84
43 68 84
45 72 90
48 75 92
48 73 90
44 70 87
40 65 82
46 72 90
45 73 92
45 73 92
42 69 86
48 75 93
47 75 94
44 70 88
47 74 92
46 73 92
46 74 93
44 70 87
46 74 92
47 76 95
44 71 89
45 73 92
47 75 93
43 70 88
47 75 94
47 73 90
46 73 91
46 74 92
49 77 96
47 76 95
44 72 91
44 71 88
48 75 93
49 77 96
46 73 91
47 75 93
49 77 96
46 72 90
47 76 95
48 76 95
47 77 96
50 79 98
48 77 96
46 75 94
48 77 96
48 77 96
50 79 98
48 78 98
50 80 100
49 78 98
50 81 102
46 75 94
48 78 98
47 78 98
47 76 94
50 79 98
48 77 96
48 77 97
50 80 99
49 78 98
49 78 97
48 78 98
50 80 100
46 76 96
51 81 100
47 76 95
47 76 96
46 76 96
50 80 99
47 75 94
50 80 101
50 79 99
47 78 99
51 81 101
48 77 96
50 80 99
47 74 93
49 78 98
48 77 96
48 79 99
51 81 101
47 77 97
49 79 99
50 82 103
50 81 102
47 76 96
51 81 101
51 82 102
50 80 100
51 82 103
49 78 97
48 78 99
51 81 102
50 80 101
50 81 101
51 81 101
48 79 99
52 83 104
49 79 99
51 82 103
49 79 100
51 82 102
49 78 98
51 83 105
51 82 103
49 81 103
51 80 99
51 80 99
49 79 100
49 80 100
52 83 104
49 80 100
50 81 102
51 81 102
53 83 103
50 80 100
51 83 104
52 83 105
52 82 103
53 83 103
50 83 104
49 80 101
48 79 100
51 82 102
50 81 101
52 83 104
49 80 101
52 83 104
50 80 100
52 83 105
49 80 100
50 81 102
48 78 98
51 81 101
49 80 101
49 80 100
49 79 99
52 80 99
50 79 99
50 81 102
50 81 101
49 80 100
49 80 100
49 79 100
50 80 100
48 77 97
49 79 99
49 80 101
48 77 97
49 80 101
49 80 101
49 80 100
49 79 99
49 78 97
49 78 98
49 80 100
50 81 101
47 78 99
50 79 99
50 81 102
50 81 101
49 79 99
49 80 100
49 78 98
48 78 97
49 77 95
46 77 97
49 80 100
47 76 95
51 82 103
50 80 100
46 74 93
49 78 98
45 75 95
46 74 93
48 78 99
45 73 91
50 78 97
50 80 99
47 77 98
49 78 97
49 77 96
48 77 96
45 74 94
46 73 92
46 75 93
49 78 97
49 79 98
46 73 92
48 76 94
46 75 94
46 75 94
44 73 92
48 77 97
48 79 99
46 72 89
48 76 94
48 78 97
48 76 94
48 76 95
47 73 91
46 74 93
45 75 94
48 77 97
47 75 95
47 76 95
49 77 96
45 72 89
48 76 95
43 69 87
43 69 87
47 75 94
48 75 93
41 67 85
49 78 98
46 72 90
48 76 94
45 72 89
48 76 94
45 71 89
45 72 90
45 72 90
45 72 90
46 74 92
51 81 101
45 72 90
43 69 85
46 73 91
46 71 88
41 65 82
47 75 94
43 69 87
43 69 86
45 72 90
47 73 91
44 69 85
42 68 84
40 64 81
43 66 82
47 74 92
45 72 90
43 68 85
46 71 88
42 66 82
39 61 76
44 69 85
39 62 77
44 69 85
44 68 85
40 64 80
43 67 84
43 67 83
39 62 78
43 68 85
42 67 83
39 61 76
41 62 76
38 60 75
45 70 87
44 68 84
39 62 77
38 59 74
38 58 71
43 66 81
43 67 83
39 62 77
40 63 78
35 55 68
38 59 73
40 61 75
44 68 84
38 60 75
40 61 75
37 57 70
43 66 81
38 59 73
38 59 74
41 63 78
35 53 65
34 53 66
37 57 71
39 59 72
38 58 72
36 55 69
37 58 72
38 56 68
34 53 66
41 63 77
35 53 65
35 55 67
37 58 71
36 55 68
37 58 72
40 61 75
39 59 73
38 59 72
39 60 74
32 49 61
36 54 67
39 60 74
38 57 70
35 54 66
35 54 66
34 52 65
36 56 69
35 53 65
31 48 58
43 64 78
36 55 67
36 56 69
41 63 78
36 54 66
33 49 61
37 56 69
39 59 72
39 59 73
32 50 62
42 63 78
35 53 65
34 51 63
34 52 65
36 54 66
33 50 62
35 55 68
33 51 63
35 55 68
35 55 68
35 52 64
38 56 68
36 54 66
36 55 67
35 54 67
37 56 68
36 55 67
35 54 66
31 47 58
34 53 65
36 54 67
34 52 64
33 53 66
34 51 63
39 60 74
37 57 70
36 56 69
36 55 67
36 55 68
36 56 70
37 57 70
36 54 67
36 55 67
33 50 61
36 55 69
42 63 77
36 57 71
39 60 74
38 59 73
38 58 72
37 59 73
41 63 77
38 59 72
39 61 75
40 60 73
39 60 75
38 59 72
42 65 81
43 66 82
37 58 71
41 63 78
41 65 81
42 67 83
39 62 77
40 61 75
41 65 81
37 58 72
38 60 75
39 61 75
43 68 85
41 65 81
43 68 84
38 61 76
41 64 80
37 57 71
41 65 80
41 64 80
43 67 84
43 69 86
39 61 76
40 63 78
38 61 76
39 62 78
43 66 82
45 69 85
40 66 82
45 70 87
40 63 78
44 69 85
45 70 88
41 64 80
43 67 83
48 75 93
43 70 88
47 75 94
46 72 90
45 71 89
44 70 88
44 70 87
43 69 86
42 66 82
43 70 87
47 73 90
41 67 84
43 70 88
43 71 89
45 70 87
42 68 85
46 75 94
48 76 94
44 71 89
43 69 86
45 72 90
48 77 96
47 73 90
43 70 89
46 73 91
50 78 97
48 78 98
48 76 96
43 71 89
49 77 96
48 79 99
44 72 91
48 76 95
47 75 94
47 77 96
43 70 88
49 78 97
48 76 95
48 78 97
46 75 94
50 79 98
45 73 92
50 78 96
46 75 94
46 75 94
45 73 91
46 75 95
45 74 93
48 78 97
47 76 95
50 79 99
48 75 94
47 77 97
49 78 98
45 74 94
46 75 95
49 78 98
48 77 96
47 76 95
51 80 100
49 79 100
48 78 97
48 77 97
47 77 96
48 79 100
50 80 100
51 80 99
47 77 97
50 80 100
49 79 99
45 76 97
49 78 97
51 82 102
50 80 100
47 77 97
50 81 102
50 79 98
49 78 98
49 80 100
49 79 100
48 78 98
48 78 98
52 81 100
51 82 103
51 81 101
50 80 100
49 80 101
48 78 98
51 83 104
52 83 104
47 76 96
53 83 103
49 79 99
50 79 99
50 82 103
51 82 102
50 80 100
51 81 102
53 83 104
50 81 101
52 82 103
51 82 103
47 77 96
51 81 101
50 79 98
50 82 103
47 77 97
50 81 102
50 80 101
53 83 103
52 83 104
51 82 103
50 82 103
51 82 102
50 82 103
49 78 98
51 82 103
51 82 102
51 83 104
51 83 105
51 82 104
49 80 100
50 82 103
51 81 101
49 80 101
51 81 101
52 83 104
49 79 99
50 81 102
49 81 102
51 83 104
51 81 101
51 81 102
49 79 99
51 83 103
50 81 101
49 78 98
49 80 100
47 78 99
51 81 102
48 78 99
49 81 101
48 78 97
49 80 101
47 78 98
49 78 97
51 83 104
50 79 99
49 81 103
49 78 98
49 80 101
50 81 102
47 76 96
48 79 99
51 81 101
48 78 99
50 80 101
48 79 100
51 81 101
48 77 97
50 78 97
48 78 98
51 82 102
48 78 98
47 78 98
49 79 99
51 80 99
50 80 100
46 76 96
50 80 101
49 79 99
49 78 97
52 83 103
49 79 99
51 81 101
49 78 98
47 78 98
49 79 100
49 78 98
47 77 96
48 77 97
50 79 98
47 77 96
48 76 95
47 76 95
50 80 101
49 79 98
46 75 94
50 80 99
46 73 92
49 79 98
51 80 99
47 76 95
51 81 100
46 74 93
47 76 95
50 78 97
49 78 96
46 75 94
47 76 94
46 74 93
43 71 90
47 77 97
46 74 92
49 78 97
48 76 94
44 71 88
46 73 92
47 76 96
47 77 98
48 77 97
43 70 88
46 74 92
46 73 91
43 70 87
47 73 91
49 78 97
44 71 90
49 76 94
47 73 91
44 71 88
42 68 85
50 78 97
48 74 91
45 71 89
45 72 91
45 72 89
45 70 87
45 70 87
44 69 85
46 74 93
51 78 96
45 70 87
48 75 93
42 68 84
45 71 88
43 69 87
42 67 84
49 76 93
42 68 86
45 72 90
45 71 88
42 65 80
45 72 90
45 70 87
41 65 81
44 71 88
43 68 84
41 66 82
45 72 90
42 68 86
44 68 84
45 70 87
39 62 76
41 66 83
43 66 81
46 72 88
37 58 72
48 72 88
43 67 83
43 68 84
42 66 82
42 64 79
43 65 80
42 65 80
43 67 82
40 61 76
44 66 80
40 63 79
43 66 82
41 63 78
41 62 76
39 63 80
41 65 81
36 56 69
40 63 79
35 55 68
34 52 65
37 57 70
37 58 72
38 58 72
40 63 78
40 62 77
38 60 74
39 59 73
39 59 73
37 59 73
39 59 73
35 55 68
34 53 65
36 55 68
37 58 72
40 61 75
40 62 77
32 49 60
38 58 72
35 55 68
39 60 74
37 57 70
38 57 70
39 60 74
39 59 73
38 59 72
34 53 66
35 54 66
39 60 74
36 56 69
36 56 69
35 54 67
35 52 64
36 55 67
39 60 74
29 45 55
32 48 59
38 58 71
35 53 66
34 51 63
36 55 68
38 58 72
35 54 66
38 58 72
31 48 60
34 53 65
39 59 73
37 57 71
33 52 64
34 53 65
36 56 70
37 56 68
35 54 66
36 56 69
37 57 70
33 51 62
38 59 73
38 58 71
29 46 58
35 52 64
32 50 62
32 49 61
41 63 78
36 56 69
35 54 67
37 58 72
32 50 62
36 56 70
35 54 67
36 56 70
39 59 73
37 56 69
35 53 66
38 58 72
39 61 76
39 61 76
35 55 69
42 64 78
39 59 72
42 65 80
38 59 74
40 62 77
42 64 80
38 57 70
36 58 72
39 59 73
41 63 78
36 57 70
39 61 76
45 69 85
36 56 69
36 56 70
42 64 79
39 60 75
39 61 75
39 60 74
44 69 86
40 62 77
43 67 83
38 59 73
40 62 77
41 66 82
40 65 82
39 63 79
37 59 74
40 65 81
43 67 83
42 67 83
42 66 83
44 68 84
43 68 84
45 69 85
45 71 89
48 74 92
42 66 82
44 69 85
42 66 82
43 68 84
43 68 84
45 72 90
43 67 83
44 68 84
42 67 84
45 68 84
45 70 87
43 69 86
41 66 83
43 68 84
39 62 78
45 70 86
46 71 89
45 72 89
44 69 85
44 69 86
44 71 90
45 72 90
46 73 92
42 66 82
47 74 92
44 70 87
43 70 88
47 73 90
45 72 90
44 72 91
43 70 88
42 68 86
47 75 94
44 70 87
47 75 94
46 73 91
48 77 96
46 74 92
45 72 91
45 71 88
48 76 95
44 72 91
49 76 94
48 76 95
47 75 94
47 74 92
45 73 92
45 74 93
45 74 93
44 73 93
45 74 93
46 76 96
48 78 98
46 74 93
46 74 92
49 79 98
46 75 94
47 76 95
46 73 91
46 75 94
47 75 95
48 78 98
47 75 94
47 76 96
51 80 99
47 76 95
47 77 98
49 78 97
48 76 94
49 80 100
47 75 94
50 80 100
46 75 94
46 74 93
47 75 93
50 77 96
49 78 98
47 75 94
47 76 95
50 79 99
48 77 96
47 79 100
50 80 100
50 79 99
50 79 99
49 79 99
50 81 101
50 80 99
47 75 94
51 82 103
48 78 98
51 81 100
50 82 103
48 78 97
51 81 101
49 79 98
51 81 101
49 79 99
53 83 103
49 80 101
51 81 100
50 80 100
49 80 101
49 79 100
49 80 101
50 81 102
50 81 102
50 80 99
49 81 101
53 83 103
49 79 99
50 81 101
52 83 103
50 81 102
50 81 102
50 80 99
51 81 101
51 82 104
49 81 102
51 82 103
52 83 104
50 82 104
52 82 102
49 79 99
48 80 101
51 83 103
53 83 103
51 83 104
50 80 101
50 83 104
50 80 101
52 83 104
52 84 105
50 81 102
52 82 103
50 82 103
51 81 101
50 81 102
50 80 100
49 80 101
50 82 103
50 81 101
52 84 105
51 82 102
50 81 102
49 79 100
49 80 100
51 81 101
50 82 104
51 81 100
53 84 104
50 81 102
51 81 102
49 80 100
50 80 101
50 80 100
50 81 102
50 80 101
54 84 104
47 78 98
47 77 96
48 78 99
49 80 100
49 78 97
47 77 98
49 78 97
49 80 100
50 79 98
50 80 100
50 78 98
50 80 100
49 79 99
45 75 95
51 80 100
49 78 97
49 80 100
47 78 98
49 79 98
46 75 95
51 82 102
48 77 97
51 81 100
48 78 97
50 80 100
50 79 99
49 79 99
50 80 100
48 76 95
49 80 100
46 77 97
48 78 98
52 82 102
44 72 90
47 76 96
49 77 96
49 79 98
52 82 102
48 78 97
49 78 98
47 78 99
46 75 95
45 73 92
47 76 95
48 76 95
50 79 98
49 78 97
48 76 94
48 76 95
47 77 97
45 71 88
45 75 95
44 71 89
46 73 91
47 76 95
46 72 90
46 75 95
48 76 95
47 75 94
45 73 91
47 75 93
47 75 93
45 73 91
45 73 92
47 75 93
43 68 84
47 75 94
46 74 93
47 75 94
44 70 88
45 71 88
47 75 93
46 74 93
44 71 89
43 71 89
44 71 88
45 74 93
43 68 85
45 73 92
43 69 87
49 76 95
44 70 87
46 73 92
44 70 87
45 72 89
46 71 88
44 70 87
43 69 85
44 69 85
44 68 84
45 71 89
41 64 80
44 68 85
45 69 85
45 71 88
42 66 83
44 68 85
40 63 79
39 65 81
45 69 85
45 70 87
41 65 81
41 65 81
47 73 91
39 61 75
40 62 77
39 63 79
44 68 84
44 67 83
44 68 83
40 64 80
40 63 79
39 61 75
40 65 81
43 67 83
41 63 78
42 65 81
40 62 77
40 62 77
37 58 71
39 61 76
40 63 78
38 60 75
41 64 79
40 63 78
38 61 76
39 60 74
32 50 63
40 61 75
40 61 75
39 60 74
32 50 62
35 54 67
43 64 79
40 60 73
36 56 69
38 57 70
42 65 80
38 60 75
41 64 79
36 56 69
39 61 76
36 57 70
34 54 68
36 56 70
39 60 74
36 55 69
37 58 71
35 54 67
34 52 64
39 60 73
35 53 65
37 58 72
39 58 71
34 52 64
38 57 70
37 56 69
31 50 62
35 54 66
34 53 65
32 49 61
37 56 69
34 51 62
34 51 63
34 50 61
32 50 62
33 51 63
45 67 81
36 56 70
37 56 69
37 56 69
35 55 68
42 63 77
39 58 71
32 48 59
36 55 68
36 54 66
34 51 63
37 56 69
36 55 68
39 59 73
32 50 61
39 60 75
37 56 68
38 59 73
37 57 71
41 60 73
37 57 70
34 52 65
33 51 63
36 56 70
36 56 69
37 57 71
34 52 65
33 51 62
35 54 66
39 60 75
34 54 67
33 52 65
37 56 69
37 59 73
38 58 72
36 56 69
38 58 72
40 62 77
38 59 73
43 65 80
36 56 69
37 56 69
41 64 79
40 61 75
38 60 74
40 62 76
39 60 75
40 61 75
39 61 75
35 56 69
38 61 76
37 57 71
42 65 81
42 66 82
40 62 76
42 64 80
36 57 71
40 62 76
39 61 76
40 61 76
40 62 77
39 60 75
41 66 82
40 63 78
40 63 78
41 65 80
41 64 79
39 62 78
40 64 79
41 65 81
40 62 77
40 64 80
42 66 82
43 67 82
45 70 87
41 65 81
43 68 85
44 68 84
44 70 87
42 67 83
43 68 85
41 65 81
44 70 88
39 62 77
45 71 88
44 68 85
45 72 91
46 72 90
43 69 86
42 65 80
47 73 90
42 67 84
47 73 91
46 71 89
46 73 91
45 70 87
46 73 91
46 73 91
44 72 90
44 69 86
47 75 93
46 74 93
49 78 97
45 73 92
45 72 91
47 74 92
47 77 97
46 74 92
45 72 90
47 74 92
46 74 92
45 72 91
45 72 89
46 74 92
44 72 90
45 74 93
48 76 95
48 77 96
47 76 96
46 75 93
46 76 95
46 74 93
45 72 90
47 76 95
46 75 94
47 77 96
48 77 97
47 75 93
45 73 92
45 73 91
43 72 91
47 75 94
47 76 95
46 76 96
47 75 94
43 72 91
48 78 98
47 77 97
46 74 93
49 79 100
49 79 99
51 80 99
48 78 98
49 78 98
47 77 97
46 76 95
49 79 99
47 77 96
52 81 101
47 77 97
49 80 101
48 77 97
49 77 95
51 80 100
50 81 101
48 79 100
46 76 96
50 80 100
51 81 102
48 77 97
49 79 99
49 79 99
48 76 96
52 82 101
52 82 102
48 78 98
49 78 98
49 80 101
49 78 98
53 83 103
50 81 101
48 78 98
52 83 104
47 78 98
50 81 101
51 81 102
50 82 102
50 80 99
50 81 102
51 80 99
50 81 101
51 82 102
48 78 97
49 80 100
51 81 102
50 81 101
49 80 102
50 81 102
49 79 100
49 80 101
51 82 102
51 81 101
49 80 102
50 80 100
52 83 103
50 80 100
51 82 103
51 82 103
49 79 99
50 81 102
50 80 99
51 81 102
52 85 106
50 81 101
51 82 103
51 82 102
53 83 103
49 80 100
50 81 101
49 81 102
50 80 100
51 81 101
50 82 104
48 78 99
50 80 101
48 79 100
49 81 102
48 78 99
51 83 104
51 82 103
46 77 97
51 81 101
46 76 96
52 82 102
52 83 104
50 80 99
50 81 103
51 81 102
49 82 103
50 81 102
49 79 100
48 80 102
51 81 101
49 81 102
47 76 95
51 81 101
50 79 99
50 80 100
49 80 101
52 83 104
50 81 102
52 83 103
50 80 100
51 81 101
46 75 94
51 82 102
50 80 100
48 78 97
49 78 97
45 73 91
54 84 104
48 77 97
47 75 94
51 82 102
48 78 97
51 80 100
49 79 99
47 76 96
48 78 99
48 75 94
48 76 96
49 79 99
47 77 97
47 77 97
48 77 95
45 73 92
47 76 95
49 77 96
50 80 100
48 76 95
47 77 97
48 77 96
47 76 96
49 79 98
48 77 97
48 77 96
48 77 97
49 76 94
45 72 90
47 75 94
47 75 93
47 75 93
45 73 92
47 77 96
48 76 95
46 74 93
47 76 95
50 81 101
46 73 92
51 80 99
45 73 92
48 76 94
45 72 90
44 71 88
47 76 95
46 73 91
44 70 88
47 75 93
47 74 91
45 72 90
47 72 89
49 78 97
49 76 94
48 77 96
42 67 83
44 70 87
43 68 85
45 74 94
45 72 90
46 73 90
43 67 84
43 68 84
43 69 87
44 69 85
47 75 93
46 71 88
45 71 88
43 67 84
43 69 87
46 73 92
44 70 87
43 70 88
45 72 89
39 63 79
47 74 93
42 66 82
43 68 84
45 70 87
42 67 84
43 67 83
41 66 82
42 68 85
44 70 87
40 64 80
43 66 82
40 65 81
43 68 85
42 66 82
39 63 78
44 68 84
40 65 81
42 65 80
42 67 83
44 68 85
46 71 87
44 69 85
41 62 77
40 63 78
39 58 71
40 61 75
41 64 79
43 66 82
39 62 78
40 63 79
41 63 79
37 58 72
42 65 79
41 64 79
36 56 69
41 63 78
39 61 76
46 69 85
37 57 70
37 58 72
40 63 77
39 60 74
40 62 77
36 56 69
36 57 70
40 61 76
39 60 74
36 55 68
39 59 72
38 58 72
35 55 68
38 58 71
39 61 75
38 58 71
44 66 81
37 57 70
40 62 77
38 59 72
37 55 68
34 54 67
39 59 73
41 62 76
40 62 77
40 60 73
36 55 67
36 55 68
36 55 68
39 60 73
38 58 71
37 57 70
35 54 66
32 50 62
33 51 64
35 52 64
32 49 61
37 56 69
34 52 64
39 59 72
38 59 72
31 48 60
37 56 69
32 50 63
40 60 74
39 58 71
37 55 67
33 50 61
30 46 57
30 46 57
39 60 74
35 53 65
39 59 73
42 63 78
38 57 70
40 62 77
36 55 67
40 61 74
35 54 67
39 59 73
39 60 74
38 56 69
31 48 59
38 57 69
38 58 71
36 56 69
36 55 68
40 62 76
36 55 67
38 59 73
37 56 70
35 55 68
39 60 73
37 59 73
39 60 73
40 63 78
40 61 76
37 57 71
34 53 66
41 65 80
38 61 76
37 57 70
35 55 68
40 60 73
39 61 76
37 58 71
40 62 77
40 60 74
38 59 72
44 67 83
46 72 88
40 61 76
38 60 74
39 62 78
42 65 80
43 65 80
42 65 80
43 67 83
40 64 80
42 67 83
44 69 85
42 67 83
41 63 77
44 69 86
41 65 81
43 67 83
40 62 77
47 73 91
43 67 83
44 68 85
47 74 91
46 71 88
43 70 87
39 63 79
42 66 83
45 71 88
42 67 84
40 64 79
43 68 85
44 69 86
43 69 85
43 68 84
46 72 90
47 74 91
44 70 88
43 68 84
45 71 89
44 70 87
45 71 89
48 76 95
42 68 85
43 68 85
44 70 88
44 70 87
45 71 89
46 74 92
47 73 91
44 71 90
46 74 93
45 71 88
46 75 94
45 72 90
47 72 90
48 77 95
47 76 95
47 76 96
43 69 87
45 72 90
44 71 89
46 74 93
46 73 92
45 72 89
47 76 96
45 71 88
46 74 92
47 76 96
47 73 90
47 75 94
44 71 89
46 74 92
48 77 96
46 74 93
44 73 92
44 72 90
46 76 95
47 76 95
43 70 88
47 77 97
45 73 92
46 74 93
50 81 101
49 78 98
47 76 95
44 72 90
49 78 97
47 77 97
49 80 101
46 76 96
47 76 95
49 80 101
51 81 100
49 79 99
45 73 91
46 75 94
46 76 95
49 80 100
50 80 100
51 80 99
50 79 99
48 79 100
53 82 102
49 77 96
49 79 99
49 80 100
48 76 95
49 80 101
50 81 102
48 78 98
50 80 101
47 78 98
48 77 97
48 78 97
49 79 99
48 77 95
51 81 100
51 81 100
49 79 99
51 80 99
50 81 101
49 80 101
48 79 99
51 80 100
48 77 97
49 81 102
51 81 100
51 82 103
50 80 101
51 81 102
50 80 100
50 80 100
50 81 101
47 78 98
50 80 100
51 81 101
52 81 101
49 80 100
46 76 96
49 80 101
51 82 102
50 82 103
50 81 101
49 80 101
50 81 101
49 80 102
50 80 100
48 79 100
48 79 100
48 80 101
51 82 103
49 80 100
49 80 101
52 82 103
50 81 102
49 81 102
52 82 102
51 81 102
52 83 104
49 80 101
50 81 102
48 78 98
50 79 99
48 79 99
52 83 103
50 80 100
50 81 101
49 81 102
49 81 102
51 82 102
48 78 99
51 81 101
49 79 100
51 81 102
50 81 101
49 79 100
49 80 101
50 79 98
50 80 100
47 77 98
47 78 98
48 79 100
48 78 98
50 80 100
50 80 101
47 77 98
50 81 102
52 81 101
51 81 101
50 80 100
50 80 100
48 77 96
51 81 101
48 78 98
50 81 101
49 80 101
51 81 101
52 82 103
48 78 98
50 79 99
49 78 98
49 79 98
48 78 98
50 79 98
48 79 100
48 75 94
49 78 98
47 76 95
48 78 99
48 78 98
51 80 100
48 79 99
47 77 97
48 79 100
47 76 96
44 72 90
45 75 95
46 75 94
47 77 97
49 79 99
47 77 97
47 77 96
44 72 91
48 76 95
50 79 98
47 75 95
47 76 95
46 72 90
47 75 93
45 73 91
46 76 95
44 73 92
46 74 92
46 74 93
47 75 93
46 75 93
46 73 91
46 73 91
48 77 97
46 75 94
45 73 91
46 73 90
47 76 95
47 76 95
44 70 88
45 72 90
45 72 90
46 73 91
45 72 91
48 78 98
47 75 94
43 71 89
45 71 89
45 73 91
48 76 95
45 69 85
43 70 88
46 73 91
46 72 90
47 75 93
42 69 87
46 75 94
43 69 86
42 69 87
46 73 91
44 71 89
43 68 84
43 70 88
45 70 88
45 70 87
45 71 88
41 67 83
44 68 84
44 68 85
46 73 90
42 67 83
42 66 82
40 63 78
43 69 86
41 66 82
43 68 85
44 70 87
43 68 84
45 69 86
42 67 84
44 71 88
41 65 80
43 67 84
40 61 75
42 66 82
44 68 85
41 63 79
42 66 83
42 66 82
41 66 82
40 63 78
45 68 83
42 65 80
44 67 83
39 60 74
40 62 77
42 66 82
40 63 78
42 65 80
41 62 77
40 61 76
38 60 74
37 57 71
35 54 67
40 63 79
41 61 75
39 60 74
40 62 77
40 61 75
42 63 77
42 64 78
41 64 80
39 62 77
40 62 76
37 55 68
37 58 71
37 57 70
37 56 69
38 58 72
38 58 72
34 53 65
42 64 78
35 54 67
36 54 66
39 60 75
36 56 68
41 62 76
39 59 73
32 51 64
31 48 60
34 54 67
41 61 75
36 53 65
34 51 62
37 58 71
38 59 72
36 56 69
32 50 61
37 54 66
36 55 68
33 50 61
37 56 69
33 50 62
38 57 70
42 64 78
38 59 73
37 57 70
35 52 64
39 60 73
38 58 72
37 58 72
36 55 68
37 57 70
37 58 72
40 61 76
33 51 64
39 59 72
35 53 66
36 56 69
35 53 65
38 59 73
32 50 62
35 54 66
38 58 71
35 53 65
37 58 71
39 59 73
35 54 66
37 58 72
34 53 65
36 54 67
37 57 70
37 59 74
38 57 69
37 57 71
38 58 71
33 50 62
35 55 68
39 58 71
40 62 77
36 57 70
40 61 75
37 60 75
39 61 76
43 67 82
38 58 72
36 56 69
40 62 77
43 66 82
37 58 72
37 59 73
39 61 76
34 54 67
41 64 80
40 62 76
40 63 77
38 60 75
42 66 82
37 58 72
42 67 83
41 65 81
39 62 77
40 63 79
41 63 78
39 60 74
38 60 74
40 64 79
38 60 75
40 63 79
41 64 80
45 70 87
40 65 81
40 64 79
46 72 89
42 66 82
48 73 90
41 66 84
44 69 87
45 70 86
42 67 84
40 63 78
43 66 82
41 66 82
43 68 85
39 63 79
45 69 86
43 68 85
43 69 87
40 65 81
46 74 92
43 68 84
43 69 86
44 70 87
47 73 91
43 67 83
43 68 85
42 68 85
44 72 90
46 72 90
45 71 88
45 71 89
45 72 89
42 69 87
46 75 94
45 72 90
45 72 90
44 71 89
46 72 90
45 73 92
44 69 85
48 77 96
48 76 94
47 75 94
44 72 91
43 71 89
45 72 91
45 73 91
46 73 90
47 74 93
47 75 94
47 74 92
43 69 87
45 73 91
50 78 97
50 80 99
48 76 94
46 75 93
45 74 93
47 75 93
50 78 97
49 78 98
46 76 96
49 78 97
45 74 93
45 73 92
46 73 90
48 77 96
47 75 93
47 77 97
45 73 92
46 74 92
48 77 96
44 73 92
49 79 100
46 75 95
49 78 97
48 77 97
49 79 98
48 77 96
48 78 97
49 80 101
50 80 101
49 77 95
50 79 98
49 78 97
50 81 101
48 78 98
48 78 98
48 78 98
48 77 97
48 78 98
48 80 101
48 77 96
50 80 100
49 79 99
48 79 99
46 77 97
49 77 96
50 81 101
49 78 98
50 80 100
50 80 101
52 83 103
51 82 102
51 81 101
49 80 101
50 81 101
48 77 96
51 83 104
50 79 99
49 80 100
49 80 101
47 77 97
51 82 102
51 82 102
48 79 99
49 78 98
50 80 100
50 78 97
50 80 99
49 80 100
48 79 99
52 82 103
49 78 98
50 80 100
49 79 98
49 79 100
51 81 102
50 80 100
49 80 101
52 83 103
48 79 100
51 83 103
52 82 102
49 79 99
50 81 101
50 81 101
51 81 101
50 80 100
51 81 101
52 83 104
51 82 103
50 81 101
50 81 102
52 82 102
50 80 101
50 81 101
53 84 105
50 81 101
47 77 97
50 81 102
49 80 101
49 80 100
49 81 101
49 78 98
48 79 99
46 75 95
48 80 102
52 83 104
49 79 99
49 80 100
48 79 99
49 78 98
52 83 103
50 81 101
49 79 98
49 78 98
50 81 101
51 81 102
49 78 98
48 79 99
49 79 100
49 79 99
50 81 101
49 79 98
49 78 98
50 81 101
49 80 100
53 83 103
49 79 99
51 81 101
50 80 100
48 77 97
48 78 98
48 78 98
49 80 100
47 76 96
48 77 96
49 80 101
51 79 99
48 78 98
49 79 99
46 73 91
46 75 95
47 77 97
48 78 97
47 76 95
50 80 99
49 79 99
48 78 98
51 82 103
49 78 97
49 78 97
52 81 101
51 80 99
47 76 95
48 76 94
47 75 94
47 76 95
46 75 94
43 70 88
45 72 90
47 75 94
50 78 96
46 74 93
46 75 94
47 75 93
47 75 93
47 75 94
44 71 89
47 74 93
48 76 95
44 70 88
46 74 93
48 75 93
44 71 89
44 72 90
44 71 89
47 75 94
45 71 88
45 74 93
49 77 95
43 68 85
45 71 88
47 73 91
44 70 87
46 72 89
44 71 89
47 76 94
45 73 91
44 69 86
43 69 86
45 70 87
47 75 94
44 71 89
45 72 90
44 70 87
45 72 89
41 65 80
46 73 92
42 68 85
46 73 92
45 71 88
43 67 83
46 75 94
44 70 87
44 68 84
45 72 89
44 70 87
44 69 85
41 66 83
42 67 83
44 69 86
43 68 84
42 67 84
40 65 81
40 63 79
42 66 81
45 72 90
37 59 73
40 64 80
38 62 78
45 69 85
38 60 75
42 65 81
42 67 83
41 65 81
45 69 86
40 63 79
46 70 87
43 67 82
39 60 75
40 61 76
40 64 79
42 65 81
42 64 79
39 60 74
42 64 79
39 61 76
41 64 79
37 59 74
37 58 71
35 56 69
46 73 91
43 65 80
42 65 81
42 65 80
39 61 76
41 61 75
40 60 73
41 63 78
38 59 74
38 57 70
41 62 76
37 59 74
39 60 74
39 61 75
37 58 72
41 62 77
37 56 69
41 62 76
37 57 70
35 55 68
36 56 69
37 56 68
32 51 63
40 61 75
36 55 68
37 57 71
37 55 67
39 60 74
39 58 71
41 61 74
37 56 69
40 63 77
38 59 73
36 56 68
39 59 73
34 53 66
40 59 72
39 59 73
39 60 74
37 56 68
34 52 65
35 53 64
39 58 71
34 54 66
41 63 77
34 52 64
36 55 67
34 53 65
35 55 68
34 51 63
37 56 69
39 59 71
37 57 70
34 53 65
36 55 68
35 55 68
37 57 70
39 60 74
36 56 69
37 57 70
36 56 70
40 61 75
40 62 76
35 53 65
39 62 77
39 61 76
34 54 67
33 52 64
35 54 67
42 64 79
37 57 71
40 62 76
35 54 67
39 61 76
37 57 71
35 55 68
36 55 68
35 56 69
39 60 74
38 59 73
38 60 74
39 61 75
38 60 74
36 57 72
41 65 81
36 57 71
41 64 79
39 59 72
37 58 71
41 64 79
39 61 76
37 57 70
41 64 79
41 63 78
44 68 85
40 63 78
41 64 80
40 63 78
42 65 81
38 58 72
40 63 78
38 60 75
38 61 75
44 68 84
40 62 76
42 65 80
42 64 79
43 66 82
40 63 78
41 64 79
47 72 88
38 60 74
44 70 88
43 68 85
41 64 79
44 68 85
41 65 80
41 66 83
43 69 86
40 64 80
48 74 91
46 71 88
42 67 83
41 65 82
44 69 86
40 63 78
40 64 80
47 71 88
49 73 90
50 78 97
47 73 90
45 70 86
43 67 84
46 73 90
45 72 90
45 71 89
43 68 85
43 69 85
45 71 89
46 75 94
47 75 93
46 73 91
44 70 88
40 65 82
44 72 90
43 70 89
44 71 89
44 70 88
47 75 93
43 67 82
46 72 90
41 67 85
48 78 98
44 71 89
45 73 92
46 74 92
45 70 87
48 77 95
47 77 96
47 74 92
48 78 97
48 77 96
44 71 89
45 74 93
43 72 91
49 77 96
50 78 97
47 76 95
49 77 95
47 76 95
51 80 99
46 75 94
47 76 96
47 77 97
48 77 96
48 77 96
47 76 95
47 75 94
48 78 97
45 74 93
49 79 100
46 74 93
48 76 94
48 77 96
48 78 98
49 77 96
48 78 98
47 76 95
48 78 97
50 79 99
51 82 102
49 78 97
50 80 100
49 79 99
50 78 97
50 80 99
50 78 98
49 78 98
51 79 98
48 78 98
47 75 93
48 78 98
49 78 97
48 78 97
49 80 100
49 79 100
50 80 101
48 78 98
48 79 99
47 78 98
50 80 100
49 79 99
50 79 98
48 77 96
49 78 98
50 80 100
47 77 98
51 82 103
51 82 103
50 80 100
46 77 97
47 77 97
49 80 101
49 80 101
51 82 102
50 80 100
51 81 101
50 81 101
49 80 100
50 82 102
48 80 100
49 79 99
50 80 100
49 80 100
50 81 102
50 82 103
51 81 101
50 80 100
50 80 100
50 80 101
48 78 98
49 80 101
51 81 101
51 83 104
50 81 102
50 80 101
47 77 97
51 82 103
50 81 102
50 80 100
52 83 104
51 81 101
48 79 100
49 79 99
49 79 99
51 80 100
50 82 103
49 80 100
48 77 97
51 81 101
49 79 98
51 81 101
48 78 98
50 80 100
51 82 102
48 78 98
53 83 103
47 78 98
51 81 102
46 77 97
50 80 100
50 79 99
49 78 97
50 80 100
48 79 100
48 79 99
50 80 100
51 82 103
49 79 99
47 77 97
49 78 98
49 80 100
48 79 99
50 80 100
50 80 99
46 76 96
49 79 100
49 79 99
48 77 96
48 79 100
49 79 99
47 77 97
48 79 99
48 78 98
48 77 96
47 76 96
47 76 95
49 79 99
49 80 100
48 77 96
47 78 98
47 77 97
48 78 98
48 78 98
50 80 101
47 76 95
51 80 100
49 79 99
46 75 95
48 77 96
48 77 97
47 75 94
48 77 96
49 80 101
48 78 98
48 75 94
45 73 92
47 75 94
50 79 98
48 76 95
47 75 94
50 79 98
47 74 92
46 74 93
48 77 96
45 73 92
47 75 94
48 77 97
49 78 98
47 76 95
46 75 93
46 72 90
44 73 93
44 71 89
46 74 93
45 72 90
48 78 97
44 71 89
45 73 92
45 72 90
48 76 95
43 69 86
47 74 92
49 78 96
47 75 94
46 75 94
45 72 90
44 71 90
44 72 91
45 72 90
45 73 91
47 74 92
48 77 96
43 69 87
43 69 86
45 71 88
46 73 92
44 69 86
45 71 88
46 72 90
43 68 84
44 69 86
46 72 89
45 70 87
42 66 83
43 67 83
44 68 84
45 71 88
40 64 80
43 69 87
44 68 84
41 65 81
45 69 86
43 69 86
45 71 88
44 68 85
40 64 80
39 62 77
40 63 78
42 67 84
40 63 79
38 60 74
44 69 85
44 68 85
43 67 83
41 63 78
39 62 78
45 69 85
40 62 78
40 62 77
40 63 79
40 63 78
42 66 82
39 61 75
38 60 74
41 64 79
40 63 78
40 63 78
41 63 77
38 61 75
45 69 85
37 57 71
42 64 79
37 59 73
40 62 77
41 62 77
37 57 71
39 61 76
36 57 70
38 59 74
36 56 69
37 58 72
38 59 72
38 59 74
43 65 80
43 66 81
36 54 66
37 55 67
34 52 64
40 62 76
34 54 67
37 58 72
40 62 76
37 56 69
40 63 79
39 62 77
36 56 69
38 60 74
36 55 68
39 60 75
38 58 72
36 56 69
39 60 74
42 64 79
38 57 70
37 57 70
34 52 65
40 62 77
36 56 70
34 51 62
36 58 72
32 50 63
37 57 71
37 58 71
36 55 67
31 50 62
35 54 67
40 61 75
38 58 72
39 60 74
40 62 77
36 56 69
35 54 66
40 61 75
38 58 71
36 56 70
39 61 76
39 60 74
40 60 74
34 53 65
37 56 69
40 63 79
43 66 82
40 61 74
38 59 74
35 53 66
38 59 73
36 57 70
37 57 70
36 56 69
40 61 75
39 60 73
39 61 76
40 60 73
38 57 71
42 64 79
40 61 75
42 64 78
40 62 76
36 57 71
41 63 78
44 68 84
37 57 70
40 62 77
38 60 75
41 65 80
37 59 74
37 58 73
35 55 67
39 61 75
36 56 70
40 61 76
36 57 71
40 61 75
40 63 78
40 64 80
40 64 80
38 60 74
39 62 77
41 64 80
45 71 87
38 59 73
41 65 81
43 67 84
39 62 77
39 62 77
40 60 74
41 64 80
42 66 82
42 67 83
43 68 85
39 61 76
44 70 87
43 68 85
45 71 88
44 70 88
43 68 85
42 67 83
40 64 80
41 65 82
44 69 85
46 72 90
45 73 92
44 67 83
42 69 87
41 67 84
43 70 87
45 72 90
43 67 84
42 68 84
47 74 92
46 74 93
44 70 88
41 67 84
45 71 88
42 68 85
45 73 91
44 70 87
46 73 91
45 71 89
45 72 90
43 70 87
47 76 95
39 63 78
45 72 90
46 71 89
48 77 96
45 73 92
46 74 93
47 73 91
49 77 96
46 74 93
46 73 92
47 74 91
47 72 89
44 71 89
49 77 95
48 78 97
47 75 93
47 76 96
46 76 95
48 78 98
48 76 94
47 76 95
45 72 90
48 77 96
48 76 95
48 77 95
46 73 92
47 77 97
47 77 96
48 78 97
51 80 99
50 78 97
50 77 95
47 76 96
49 79 99
50 80 99
48 77 97
47 75 93
47 76 95
47 76 95
47 76 96
47 76 96
46 75 95
49 77 96
48 77 96
48 77 97
48 78 98
48 77 97
46 75 94
47 77 96
48 78 97
48 76 95
49 79 99
47 77 98
49 78 98
51 82 102
49 80 101
48 79 99
49 78 98
51 82 102
48 77 97
48 77 97
48 78 99
53 83 103
50 80 100
48 77 97
52 82 102
49 80 100
49 80 100
50 79 99
53 83 104
49 78 98
49 79 99
50 81 102
49 78 98
53 84 105
51 81 101
50 80 100
50 81 101
51 82 103
49 81 102
51 82 103
51 81 101
53 84 106
51 82 102
51 82 102
49 80 101
50 81 102
50 81 101
51 82 102
50 80 100
49 80 101
49 80 100
53 83 103
50 80 100
54 84 105
53 84 104
52 83 104
50 80 100
51 81 101
50 81 101
50 80 101
52 82 102
49 78 98
51 81 102
50 81 101
53 83 104
52 83 104
51 82 103
51 81 101
50 80 100
49 80 100
50 80 100
48 79 100
50 80 100
48 79 100
51 81 101
48 79 100
49 80 101
50 79 99
50 80 99
48 77 97
49 78 98
51 81 101
49 78 98
49 79 100
51 83 104
49 79 98
49 80 101
50 81 102
50 80 100
51 81 102
48 78 97
50 81 101
48 78 98
51 81 101
48 78 98
48 78 98
50 81 102
50 79 98
48 76 95
49 81 102
49 80 100
46 76 96
48 78 98
49 79 100
48 78 99
51 81 101
49 79 100
49 79 98
49 78 97
49 80 100
50 79 99
51 82 102
49 77 96
48 77 97
49 80 100
47 77 96
50 79 99
48 78 98
50 80 100
46 75 93
45 73 92
47 75 94
49 79 98
47 77 97
49 78 98
47 74 92
46 75 94
49 77 96
47 76 95
47 76 95
44 72 91
44 70 88
47 75 93
48 79 99
49 77 97
45 74 94
45 73 92
45 72 91
47 75 94
47 76 95
48 76 95
47 76 95
45 73 91
49 79 98
46 74 93
47 76 95
48 76 95
48 76 95
46 75 95
46 75 95
46 73 91
46 74 93
46 76 95
46 75 94
46 73 92
45 72 90
47 74 93
45 73 91
45 73 91
50 77 96
43 68 85
47 74 92
43 71 89
44 72 90
45 72 89
45 69 85
42 68 85
42 66 82
52 80 99
45 70 87
43 70 88
46 71 89
46 74 92
42 67 84
44 70 87
43 68 85
45 71 88
44 69 86
45 71 89
41 65 82
44 68 85
47 73 91
45 71 88
40 65 82
46 73 91
44 68 84
46 72 90
43 67 84
41 66 82
44 69 85
45 69 85
47 75 94
41 65 81
41 65 80
42 65 81
42 66 83
44 69 86
44 70 87
43 68 84
42 67 83
44 70 87
43 67 84
41 63 77
42 67 84
45 71 89
43 68 85
41 64 80
45 71 88
41 65 80
38 60 75
40 63 78
40 62 76
42 66 81
39 62 77
41 62 77
42 65 80
37 58 73
43 68 84
43 67 83
37 59 74
39 62 77
37 59 74
37 59 74
43 67 82
39 60 74
38 59 74
41 64 80
38 57 70
41 63 77
39 60 75
38 60 74
40 62 77
36 57 71
41 62 77
41 63 78
44 67 83
39 60 73
38 60 75
42 64 78
38 60 75
37 58 72
38 60 74
40 62 77
38 60 75
37 58 71
39 59 72
39 59 73
41 63 79
39 59 73
36 56 69
39 59 73
40 61 76
39 58 71
33 51 63
34 52 65
35 55 68
37 58 72
36 56 69
38 57 70
38 59 73
39 60 75
36 56 69
37 58 72
36 55 68
36 56 69
40 61 76
39 61 76
35 56 69
35 55 68
39 59 73
40 60 74
37 60 75
40 61 74
35 54 67
41 62 77
39 59 72
37 57 70
35 55 68
38 58 71
38 58 72
36 56 69
38 58 71
41 64 79
37 58 72
43 66 82
38 59 73
37 58 72
34 53 65
37 57 70
38 59 73
39 61 75
40 62 76
43 67 83
42 66 81
42 65 81
38 60 74
38 59 72
37 57 70
40 62 76
40 62 77
34 54 68
40 62 77
39 61 76
38 60 75
40 64 79
39 61 75
44 67 82
39 61 75
39 62 76
42 65 80
35 57 71
42 65 81
41 65 81
42 66 82
41 65 81
36 59 74
45 70 86
39 62 78
40 63 79
38 60 75
38 60 75
42 64 79
44 69 85
41 64 80
42 65 81
39 61 76
40 64 80
41 65 81
42 65 81
44 71 89
42 65 79
41 66 82
44 70 86
41 65 81
42 66 82
41 64 80
46 71 89
42 68 85
43 69 87
41 66 82
45 72 90
43 69 86
39 62 78
44 67 83
45 72 90
45 71 89
42 67 84
44 69 86
46 75 93
49 77 95
47 74 93
44 71 88
43 71 89
42 67 84
41 66 83
44 71 88
44 70 87
47 74 92
44 72 90
44 73 92
47 73 91
45 72 90
47 72 90
49 75 93
46 73 91
44 71 88
47 75 93
48 75 92
46 74 93
48 75 94
47 75 94
44 70 88
45 74 93
46 75 94
51 80 99
47 75 94
48 78 97
49 77 95
45 74 93
46 75 94
45 74 93
44 71 89
49 79 99
49 78 97
47 74 92
46 75 95
48 77 97
46 75 95
47 78 98
49 77 97
48 76 95
48 78 98
46 74 93
48 79 99
48 75 93
47 75 94
46 73 92
47 76 95
51 81 101
47 76 95
49 76 95
50 80 100
48 78 98
51 81 101
48 78 97
47 76 95
48 77 96
50 80 100
47 77 96
50 80 100
48 77 96
48 77 97
48 79 99
51 81 101
49 79 98
52 82 102
45 74 94
47 75 94
50 81 102
49 79 99
47 76 95
49 80 101
47 77 98
47 77 96
50 81 101
50 80 100
52 82 103
49 79 98
47 78 98
48 80 101
50 80 100
51 82 102
48 79 100
50 80 100
50 80 100
48 80 100
48 77 97
48 78 98
47 78 99
50 81 102
49 80 101
52 82 103
50 80 100
51 82 103
50 80 100
49 77 96
52 82 102
49 80 100
48 77 97
51 82 102
51 81 101
47 78 98
51 82 103
50 80 100
50 81 102
51 83 104
49 80 100
50 81 102
50 80 100
49 80 100
50 81 102
50 79 97
49 81 101
50 80 100
47 77 97
51 81 101
51 82 103
52 84 105
52 82 103
49 81 102
49 80 100
49 80 100
50 81 101
50 81 102
49 81 102
49 79 99
50 81 102
50 79 99
52 82 102
48 79 99
50 81 101
50 80 100
50 80 100
49 79 100
48 79 100
49 80 101
51 82 102
48 77 97
48 79 99
51 82 103
50 81 101
49 79 99
47 78 98
49 79 99
51 80 100
48 79 100
47 77 96
47 79 100
48 78 97
51 82 103
50 80 100
48 78 98
50 79 99
48 76 95
48 78 99
49 77 96
49 80 101
49 79 98
49 80 100
48 76 95
50 80 100
49 78 97
50 80 99
48 76 95
49 79 99
50 80 101
46 74 93
47 77 97
49 79 98
47 77 97
47 76 96
48 76 96
51 80 99
49 78 98
49 78 97
50 79 99
46 75 95
46 75 94
47 76 95
45 73 91
48 77 97
48 77 97
47 76 95
47 76 95
45 74 92
46 74 92
48 77 96
46 73 92
48 76 94
46 73 92
48 78 98
50 78 97
46 73 91
44 73 92
48 77 97
48 76 94
48 77 96
45 72 90
46 75 95
49 77 96
46 74 93
48 75 93
48 75 93
45 72 89
44 70 88
45 71 88
47 76 95
51 80 99
45 72 89
45 71 89
41 66 82
47 73 90
44 69 85
45 71 89
44 70 88
47 74 92
46 73 91
44 70 87
48 75 92
48 75 93
43 69 86
44 71 89
45 72 89
47 73 91
47 74 92
45 71 89
44 69 85
43 69 87
45 71 88
46 71 88
41 67 84
42 66 82
44 70 88
41 66 83
42 66 83
42 69 86
39 62 77
44 68 85
40 63 79
40 64 80
43 67 84
43 67 83
43 67 84
42 65 81
44 69 86
43 67 83
41 64 80
44 70 87
43 66 82
43 66 82
42 65 80
44 69 86
41 64 80
47 72 88
40 63 79
41 65 81
41 63 79
45 70 87
42 65 81
42 67 83
43 66 82
40 64 79
40 64 80
39 63 79
43 68 85
39 61 76
40 62 77
41 64 79
41 65 81
43 66 82
39 62 76
40 61 76
40 62 77
40 61 76
36 57 71
37 57 71
41 62 77
41 63 78
39 59 73
39 60 74
40 61 76
41 63 77
37 58 72
39 61 75
39 61 75
39 59 73
39 61 75
41 61 74
39 62 78
38 57 71
34 53 66
39 59 73
38 59 72
32 51 64
36 57 70
36 56 70
31 48 59
37 58 72
34 53 66
40 60 74
38 59 73
38 59 72
38 58 71
38 58 72
39 59 72
35 54 67
38 60 75
38 61 76
34 52 65
38 59 74
42 64 79
38 59 72
40 61 76
38 59 73
36 57 71
40 62 77
36 56 70
40 60 74
36 56 69
43 66 82
41 64 79
39 60 74
39 61 75
36 55 68
39 60 73
35 54 67
38 60 74
43 65 80
39 60 74
42 63 78
37 57 71
39 60 73
37 55 67
29 45 56
37 58 71
39 59 73
38 59 73
35 55 68
37 60 75
40 62 77
38 58 72
41 63 79
40 62 76
40 61 75
37 58 71
41 63 78
38 60 74
39 61 75
43 66 82
40 62 77
43 65 79
39 60 74
42 65 80
39 62 77
39 62 77
39 61 76
39 62 76
40 63 79
42 66 82
39 61 76
41 64 80
39 62 77
41 65 81
40 62 76
42 66 82
42 66 82
42 65 81
43 67 82
40 63 78
40 63 78
46 72 88
44 69 86
43 66 82
40 63 79
46 70 86
39 62 78
39 62 77
43 67 83
42 65 80
44 70 88
44 68 85
42 66 82
44 69 86
45 70 86
45 72 90
45 71 88
44 71 89
47 72 89
46 72 89
46 72 88
42 67 83
39 63 78
40 65 81
44 69 86
45 70 87
45 71 88
44 70 87
47 75 94
42 68 86
38 62 77
45 72 90
43 70 88
45 72 90
44 70 87
43 68 84
40 65 82
44 69 86
44 73 92
46 73 92
45 73 91
46 73 91
44 71 90
44 70 88
46 74 92
46 74 93
48 75 94
42 68 85
46 74 93
46 75 94
49 76 94
44 73 92
44 72 91
45 73 91
49 76 95
47 74 93
44 71 89
47 76 95
46 73 91
48 76 95
48 77 96
49 78 97
48 76 95
47 76 94
46 75 93
48 77 96
47 74 92
47 78 99
42 68 86
46 74 93
50 78 97
48 76 95
49 78 98
46 75 94
45 74 93
47 75 94
46 75 94
49 78 97
51 80 99
49 78 98
46 75 94
48 78 97
46 75 93
48 74 92
46 74 93
48 76 95
47 75 95
50 80 100
49 78 98
47 77 97
49 79 98
50 80 101
48 77 96
46 75 95
49 80 100
47 75 94
50 80 100
49 79 99
50 79 98
46 78 99
48 78 98
49 80 100
50 81 101
50 80 100
50 80 100
51 81 101
49 79 99
48 79 99
48 77 97
50 81 101
50 81 101
51 82 102
48 78 98
45 76 96
48 78 98
46 74 92
50 79 99
48 77 97
50 80 100
51 82 103
50 81 101
48 79 100
51 81 102
48 78 97
51 82 103
53 84 105
52 83 103
50 81 102
50 80 100
52 82 101
50 81 102
48 78 98
50 81 102
51 83 105
51 82 102
51 81 101
51 82 103
52 82 102
50 80 101
50 80 100
49 81 103
51 81 102
54 84 103
51 81 101
52 82 102
52 82 102
48 79 100
50 80 100
54 85 105
49 79 99
49 78 97
50 80 100
50 81 102
48 79 99
49 79 99
49 80 101
51 80 100
49 77 96
51 81 102
50 82 102
50 81 102
49 78 97
48 78 98
49 80 101
48 78 98
49 80 100
52 81 101
49 81 101
50 81 102
48 78 98
47 77 98
49 81 101
47 77 98
49 78 98
48 79 100
50 81 102
50 79 99
48 79 100
49 79 99
49 80 100
50 80 100
50 80 100
49 80 100
48 79 99
50 80 100
51 81 100
54 83 103
49 79 99
48 78 98
49 77 96
48 78 98
49 78 98
49 78 98
47 75 94
52 81 100
49 79 99
44 71 89
48 78 98
50 80 100
50 77 96
46 76 96
49 78 97
51 79 97
49 77 97
46 74 93
48 77 96
47 76 95
47 75 94
48 76 94
51 82 102
48 76 95
47 75 93
46 75 95
47 77 97
49 77 96
49 77 97
49 79 99
45 71 89
48 77 96
50 79 98
45 73 91
48 78 98
48 76 95
47 75 94
50 80 99
42 67 83
48 78 97
45 73 92
44 70 88
46 73 92
45 71 88
46 75 94
44 71 90
46 73 91
45 71 89
45 72 90
44 72 91
45 69 86
47 75 93
42 68 85
43 71 89
48 75 93
45 71 89
44 69 86
46 72 89
46 74 93
45 73 91
43 69 86
46 73 92
43 69 86
45 69 85
43 69 86
45 73 91
45 71 88
44 73 92
42 67 83
42 66 82
48 74 92
46 74 92
43 69 86
46 74 93
44 72 91
45 70 86
47 73 91
45 70 86
44 70 86
44 69 85
46 72 90
42 67 83
42 65 81
44 67 83
41 65 81
44 71 88
46 71 88
40 64 80
44 70 88
42 68 86
42 66 81
42 68 85
44 68 83
40 64 81
42 66 82
44 69 86
44 68 84
41 65 82
41 67 84
40 64 79
41 64 79
39 62 78
42 65 81
42 65 80
39 61 76
41 63 78
41 64 79
39 59 73
41 64 80
38 60 75
39 61 76
36 57 70
36 57 72
44 69 86
41 63 78
37 57 71
42 66 82
40 63 78
36 57 71
42 64 78
42 66 82
39 58 72
41 63 78
42 65 81
38 59 74
40 62 76
36 57 70
39 61 75
37 57 71
43 65 80
39 60 74
39 61 76
40 61 76
39 61 76
37 58 71
40 62 76
41 62 76
38 58 71
38 60 75
38 58 71
41 61 75
36 57 72
35 54 66
38 57 70
45 69 85
41 63 77
38 60 75
40 62 76
38 59 72
37 58 72
40 62 76
33 52 65
37 58 71
38 59 74
42 65 80
36 55 69
42 64 78
36 57 71
33 52 65
36 56 69
33 53 66
36 57 71
40 58 71
39 60 75
35 54 66
44 68 84
35 55 69
36 56 69
39 59 72
39 61 76
37 58 71
40 61 75
40 62 76
37 57 70
36 55 69
37 57 70
38 59 73
41 63 78
42 65 81
38 58 71
35 53 65
42 64 79
41 63 77
39 59 73
40 62 77
37 59 73
37 59 73
39 60 75
40 63 79
43 68 85
41 64 79
41 64 79
43 66 82
41 64 79
40 61 75
43 67 83
40 62 77
45 69 85
41 64 79
40 63 78
41 63 78
42 65 81
39 61 76
43 66 82
41 63 78
42 65 80
44 68 84
43 67 84
44 68 85
44 68 83
42 67 84
40 64 80
45 69 86
42 66 82
41 64 79
41 64 80
41 65 81
41 65 82
38 60 75
45 69 85
43 67 83
41 66 83
41 67 84
44 69 86
43 68 84
41 64 80
43 66 81
43 67 83
44 71 88
45 71 88
43 68 85
42 65 81
45 70 86
45 71 88
45 69 86
42 67 83
47 74 92
45 70 86
46 72 89
45 71 89
47 74 91
45 72 90
43 67 84
46 74 93
45 71 88
46 71 87
46 72 90
48 73 90
49 77 96
45 71 88
46 75 94
45 71 88
44 70 88
46 73 91
48 74 91
46 72 90
46 73 91
48 75 92
42 67 83
45 73 91
44 69 86
48 74 92
47 75 93
46 71 88
42 69 87
49 78 97
49 78 97
48 76 95
48 76 95
45 72 89
46 72 89
47 76 95
47 75 94
47 74 93
47 75 94
49 79 99
44 72 90
50 77 95
50 79 98
48 76 95
45 73 92
48 76 94
47 75 94
46 75 94
44 72 91
47 75 93
48 78 97
49 79 98
45 71 89
48 76 96
45 74 93
44 72 90
49 78 97
50 81 101
48 76 95
47 76 95
46 75 94
48 77 96
46 75 94
48 78 97
50 81 101
51 81 101
50 78 97
49 78 98
47 75 94
49 79 99
50 81 101
47 75 94
52 82 103
48 77 96
50 78 97
49 81 102
49 79 99
48 77 96
48 76 95
47 78 98
48 78 98
48 79 99
49 79 98
49 79 99
51 82 103
48 78 98
53 83 102
49 78 97
50 81 102
47 76 95
52 82 102
50 80 100
47 78 99
49 79 99
50 81 101
50 80 101
51 80 100
48 80 100
51 80 100
50 81 101
49 80 100
48 78 98
49 78 98
51 81 102
50 81 101
50 80 100
53 83 102
50 81 102
50 81 101
50 81 102
50 82 104
49 78 98
49 79 98
48 79 100
50 80 100
53 83 104
49 80 102
51 82 103
51 81 101
50 81 101
50 81 102
50 81 102
49 79 100
52 83 104
50 81 102
47 78 99
50 80 100
51 81 101
50 80 99
50 81 102
50 79 98
52 82 101
48 78 98
50 80 101
49 81 102
49 79 99
50 80 100
48 77 96
50 82 103
49 80 100
49 80 100
51 82 103
50 80 99
49 78 98
49 79 99
49 80 100
50 81 102
51 80 100
48 80 101
51 83 104
47 78 98
46 77 98
47 78 98
48 77 97
52 83 103
49 79 98
50 78 96
49 79 99
48 77 97
49 79 99
50 79 98
51 83 103
47 76 94
51 81 102
50 81 101
47 76 95
47 77 96
49 77 95
48 78 98
48 79 99
49 77 96
48 81 102
47 74 92
47 77 97
49 78 98
47 78 98
48 77 97
48 78 99
47 76 95
46 76 96
48 76 95
45 73 92
45 73 91
46 75 93
46 74 92
49 79 99
49 79 98
43 71 89
44 73 92
45 71 89
46 74 92
48 75 94
47 78 98
47 77 97
45 73 92
49 77 95
47 78 98
47 76 95
45 72 91
44 72 90
47 76 96
44 73 93
47 74 92
52 81 101
43 71 89
48 76 95
43 71 89
48 75 93
46 73 92
47 76 96
42 69 86
46 72 90
44 72 90
47 72 89
47 74 92
48 76 95
47 73 90
43 69 87
47 73 90
44 70 88
47 74 92
47 73 91
46 73 91
42 70 88
44 71 90
45 72 90
41 66 83
47 75 93
44 70 87
45 72 90
46 74 92
46 74 92
48 75 92
48 76 94
46 72 90
43 67 83
46 73 91
45 72 90
43 68 85
43 69 87
44 68 84
40 66 82
42 68 85
41 66 82
40 64 79
42 66 82
41 64 79
44 69 85
39 64 80
40 64 80
39 62 77
43 68 85
43 68 85
44 68 84
43 68 84
43 67 83
39 63 79
40 63 78
43 66 82
42 66 83
42 65 81
41 65 81
40 62 77
40 62 76
39 61 76
40 64 80
43 66 82
45 69 85
42 65 81
41 63 78
43 67 84
41 64 80
43 68 85
43 66 81
40 61 75
39 60 74
41 63 78
43 67 83
40 62 77
39 62 78
41 63 78
39 60 74
40 62 77
40 62 76
41 62 77
42 65 80
37 58 71
41 64 79
42 66 82
38 58 72
39 60 74
42 67 83
41 63 77
37 57 69
38 59 73
40 60 73
41 64 78
42 65 80
34 52 64
39 60 74
37 59 73
37 57 71
35 54 67
39 61 75
35 55 69
42 63 77
39 59 72
41 64 79
37 57 71
41 64 78
40 63 78
33 52 64
35 54 67
40 61 75
40 61 75
39 61 75
39 59 72
40 60 74
40 61 74
37 58 72
37 58 72
40 60 74
42 64 79
38 59 72
37 56 68
39 60 75
42 65 80
39 60 74
37 57 70
43 67 83
41 64 79
37 58 72
41 62 77
38 59 73
43 67 84
38 60 74
42 65 80
41 62 77
37 58 72
38 59 72
42 66 82
41 63 77
40 62 77
39 63 78
38 59 73
36 58 72
41 63 78
42 64 79
38 60 75
36 56 69
40 62 76
37 58 71
35 55 68
37 59 73
42 65 81
41 65 80
40 63 78
41 64 79
39 61 75
39 62 77
42 64 80
44 71 88
41 63 77
41 65 80
43 69 87
37 59 73
43 69 86
39 63 79
43 67 83
42 64 80
37 57 71
41 64 80
42 66 82
45 69 86
39 63 78
38 61 76
41 64 79
41 65 81
39 62 77
45 70 86
43 67 83
41 65 81
44 70 86
39 62 77
45 71 88
41 66 83
45 70 87
43 67 84
46 72 89
44 68 84
46 70 86
42 67 84
40 64 79
42 66 82
45 69 86
42 66 82
40 63 78
44 70 88
44 70 88
45 70 87
41 65 81
44 70 88
48 75 93
46 74 93
42 68 86
47 76 95
44 70 88
46 73 91
46 72 89
45 71 88
47 74 92
44 70 88
48 75 92
42 67 84
45 73 92
45 73 91
44 71 88
46 74 92
45 72 90
49 77 95
45 72 90
43 68 85
49 76 95
46 73 91
45 73 91
42 68 86
45 73 92
46 73 91
45 74 94
47 76 96
45 72 90
44 72 91
50 80 100
45 72 90
45 71 89
45 74 93
45 73 92
46 74 92
48 78 98
46 73 91
51 79 98
46 74 93
49 80 100
46 74 92
47 77 97
46 72 89
48 77 96
48 76 95
47 75 94
47 77 97
48 77 96
48 77 97
48 77 96
51 80 99
46 77 97
50 79 98
48 76 95
49 78 98
50 79 98
48 77 97
49 77 95
46 75 94
47 77 97
49 79 99
51 80 99
47 76 95
50 80 100
48 78 98
49 77 96
47 73 90
48 77 96
50 78 97
52 83 103
46 77 97
51 81 101
50 80 100
49 79 99
48 78 97
47 76 96
48 79 100
50 80 100
49 77 96
50 79 99
50 80 99
50 78 97
49 79 99
51 82 103
46 76 96
51 82 102
50 79 99
50 79 99
48 80 102
47 78 98
48 78 98
51 81 101
51 83 104
50 81 102
48 78 98
51 83 103
51 82 102
50 80 99
48 78 98
51 82 103
49 79 99
49 80 101
49 80 100
50 80 101
49 80 100
51 81 102
52 82 102
50 80 100
49 80 100
50 81 103
52 82 101
48 79 100
48 80 101
49 79 99
51 81 101
52 82 102
46 77 97
50 81 103
51 82 103
49 81 102
49 80 101
50 81 102
52 82 103
51 82 103
50 80 101
48 79 100
49 80 101
51 80 100
49 80 100
50 81 101
52 83 103
48 79 99
50 81 102
48 77 96
50 80 100
48 77 97
47 77 97
49 80 100
48 79 100
48 77 96
48 77 96
51 80 99
47 78 98
48 79 99
51 81 101
49 80 101
49 79 99
48 78 98
50 80 100
49 78 98
48 78 98
50 81 101
50 79 99
53 83 102
50 80 100
50 79 98
51 81 101
51 81 101
49 77 96
49 78 97
47 75 93
49 79 99
45 75 95
47 77 97
48 78 98
48 77 96
50 81 102
49 78 98
51 81 101
47 76 95
45 75 94
47 74 92
48 76 96
48 76 95
48 75 94
50 80 101
48 77 97
48 75 94
46 74 92
46 75 94
49 76 95
49 77 95
48 77 96
46 75 94
48 75 93
49 78 97
48 76 96
48 77 96
46 74 93
48 75 94
47 78 98
45 74 93
45 73 91
46 73 91
46 74 93
46 75 93
44 72 90
48 76 95
43 69 87
44 72 90
47 75 94
46 74 93
48 76 95
48 76 95
48 76 94
48 76 94
45 74 92
46 71 89
44 70 88
45 72 90
45 71 89
47 75 93
49 74 91
47 73 91
45 72 91
43 70 88
45 71 88
42 68 85
46 73 91
45 72 90
45 73 91
46 72 90
40 64 80
42 68 85
45 70 87
44 71 89
43 70 88
46 71 89
44 70 87
45 71 88
46 73 91
42 67 83
45 71 88
42 67 83
40 64 80
46 72 89
42 69 87
43 67 83
44 69 86
40 64 79
43 69 86
45 69 86
46 72 89
44 70 87
44 68 84
41 65 81
44 70 87
44 69 85
41 66 83
38 61 76
42 67 83
41 64 80
46 73 91
40 62 77
43 68 84
42 65 81
42 66 82
42 66 82
45 70 87
44 68 85
41 64 80
41 64 79
39 63 78
46 71 88
40 63 79
40 63 79
40 62 77
39 61 76
42 66 82
38 59 72
40 62 77
38 60 74
36 56 70
39 62 77
39 63 79
36 57 71
42 66 82
38 59 74
40 62 76
36 55 68
39 60 73
41 64 79
36 55 67
41 64 80
40 63 78
39 60 74
40 61 75
37 59 74
41 64 79
37 56 69
39 58 71
39 60 74
41 63 79
39 60 74
38 60 74
41 63 77
40 62 76
41 62 77
39 59 72
39 60 75
41 62 77
41 62 77
35 53 65
38 59 73
38 59 73
39 61 75
40 61 75
37 56 69
37 59 73
40 63 79
37 57 70
38 59 74
40 63 78
40 64 81
39 61 76
39 61 76
38 58 71
42 63 77
42 63 77
38 59 72
39 60 75
42 65 79
40 62 78
38 59 73
40 61 76
35 55 69
40 62 76
40 61 75
39 58 70
39 61 76
39 60 73
38 60 74
40 62 76
38 60 74
40 61 75
41 63 77
41 64 79
42 66 81
39 61 76
40 62 76
41 64 80
41 65 81
40 62 76
39 59 72
41 62 77
37 59 73
35 55 67
38 60 74
36 56 70
40 64 80
39 60 74
41 64 79
41 64 80
41 62 75
42 65 80
42 67 83
40 62 77
39 62 77
46 71 88
43 67 84
42 65 81
41 66 82
40 63 78
43 67 83
40 62 77
42 66 81
42 67 83
41 63 78
44 67 83
40 63 78
45 70 86
41 64 78
38 60 75
41 65 80
39 62 78
41 63 78
38 61 77
42 66 82
44 69 87
40 64 80
45 69 85
46 71 88
43 67 84
38 60 75
42 66 81
42 66 83
46 72 88
45 71 88
47 75 93
41 64 80
46 71 88
44 69 87
44 68 84
42 67 84
43 70 87
49 77 96
40 65 81
43 70 87
40 64 79
44 69 86
43 70 88
45 71 89
46 74 92
44 69 85
44 69 87
42 67 83
47 74 93
44 71 89
45 72 89
41 67 84
45 71 89
44 72 91
44 72 90
46 74 93
48 75 93
45 72 90
45 70 87
46 72 89
48 75 94
44 72 90
45 72 89
45 73 91
48 78 98
46 74 93
45 73 91
45 74 92
46 74 93
46 73 90
49 76 95
47 76 94
47 74 93
46 75 94
46 74 93
45 72 90
44 71 89
47 77 97
45 74 93
47 77 97
48 76 95
49 79 99
44 72 90
47 75 94
46 76 95
48 78 98
48 77 96
48 75 93
45 74 93
46 74 92
47 76 95
48 76 95
49 77 96
47 75 94
47 74 92
49 76 94
47 75 94
51 80 100
49 77 96
48 77 97
50 80 99
47 76 95
50 79 99
47 77 97
50 78 96
49 78 97
48 79 100
44 73 92
47 76 95
48 77 96
46 74 93
49 77 96
49 78 97
47 77 98
49 78 97
49 78 98
48 77 97
47 76 95
50 79 99
50 79 99
48 77 96
50 79 99
51 81 100
48 79 100
47 76 95
50 80 101
48 77 96
46 75 95
51 80 99
50 80 100
48 79 100
51 82 103
46 75 94
49 79 98
47 79 100
49 79 99
52 83 104
50 80 100
50 80 100
52 83 103
51 81 101
48 78 98
47 77 97
49 80 100
48 78 98
50 81 102
48 79 99
49 80 100
48 76 95
48 77 96
49 81 102
51 81 101
47 77 97
49 81 102
51 81 101
50 81 101
50 79 99
49 78 98
49 79 99
49 80 101
50 81 102
51 80 99
52 83 104
49 79 100
50 81 102
50 81 101
51 82 103
47 77 96
52 83 104
49 79 99
51 79 98
48 78 98
48 77 96
51 81 101
48 79 99
49 79 99
50 81 102
48 77 96
48 77 97
51 82 103
50 81 102
51 81 101
50 81 101
48 80 102
48 78 99
49 79 99
50 80 100
50 81 101
49 79 99
48 79 100
48 79 99
49 77 96
48 79 100
48 80 101
50 81 103
50 81 101
51 80 100
50 80 100
51 81 101
50 80 100
51 81 100
51 82 103
48 79 99
52 82 101
50 79 98
48 76 95
46 75 95
49 78 98
49 80 101
48 76 95
50 80 100
50 80 100
49 78 98
48 76 95
47 76 95
45 73 92
47 77 97
44 73 91
48 78 98
45 71 89
44 72 91
47 75 93
47 76 95
47 75 94
50 79 98
49 76 94
49 79 98
45 75 94
46 76 96
48 77 97
43 70 88
47 75 94
46 75 93
46 74 92
48 75 93
47 75 94
43 71 89
45 71 89
48 75 93
46 75 94
48 77 96
48 76 95
45 71 89
44 72 90
48 75 93
48 77 96
46 73 92
48 75 94
47 73 91
49 78 97
47 74 92
44 72 91
46 74 92
48 76 94
44 73 92
44 71 89
47 73 91
47 75 94
44 69 85
44 70 88
48 77 96
47 73 90
45 72 90
45 73 91
47 76 95
45 70 88
46 72 89
45 72 90
44 69 85
42 68 85
44 71 88
45 71 88
42 67 84
45 72 90
43 70 88
46 73 91
48 75 93
43 69 87
44 70 87
45 71 89
43 69 86
40 63 79
45 71 87
39 64 80
43 68 84
44 69 85
40 62 76
40 65 82
44 70 87
40 63 79
46 73 90
42 67 84
43 67 82
40 63 78
39 62 77
40 64 81
41 66 82
45 68 84
42 67 83
43 68 85
42 64 79
43 68 85
42 66 82
42 63 78
43 67 83
46 71 87
44 69 86
42 65 81
45 71 88
44 69 86
37 58 72
39 62 77
36 56 70
42 66 81
40 64 80
38 60 75
42 66 82
39 62 77
34 54 67
44 68 83
41 64 79
44 67 83
39 61 76
44 68 83
40 63 78
38 60 74
42 68 84
39 61 76
40 64 79
39 61 76
39 60 73
35 55 69
43 66 81
41 65 81
41 64 78
38 62 77
38 59 73
41 63 78
36 56 70
39 62 76
41 63 77
39 61 75
39 59 72
40 63 77
38 59 73
42 63 77
39 61 75
36 57 71
41 62 76
40 60 74
41 63 78
36 58 72
33 52 65
37 58 72
38 59 74
41 64 79
38 59 73
38 59 72
40 63 78
39 60 74
38 60 75
40 62 76
37 57 70
39 59 73
40 61 75
40 60 74
38 59 73
43 67 83
37 57 71
40 62 77
42 64 79
39 60 74
38 59 73
39 59 73
39 60 74
42 64 78
39 60 74
40 62 77
39 61 76
38 59 73
41 63 78
37 59 73
38 59 72
40 60 73
41 63 78
42 64 79
40 63 78
37 58 71
45 70 86
42 64 79
43 66 81
41 63 77
41 65 81
43 67 82
42 66 81
44 69 86
37 58 72
40 64 79
42 67 83
39 62 77
41 64 79
39 61 76
41 63 78
36 59 74
42 66 82
37 59 74
40 64 80
39 63 79
41 65 81
43 69 86
38 60 74
39 63 78
41 66 82
40 63 79
42 66 83
40 63 78
41 64 80
41 65 81
42 64 79
43 67 82
37 60 76
42 66 82
43 69 86
44 70 87
43 66 82
42 64 79
44 68 85
47 72 88
46 72 89
42 68 85
47 75 93
45 69 86
44 67 83
45 70 87
43 71 90
43 69 86
44 72 90
46 71 87
42 67 83
40 64 79
45 72 91
45 72 91
41 65 81
44 70 87
46 73 90
44 70 87
46 71 88
44 70 87
46 71 88
44 70 87
41 66 82
45 73 92
42 67 83
44 70 87
46 73 91
41 64 80
43 70 88
45 72 90
51 79 98
46 72 90
47 74 92
43 68 85
41 66 83
45 71 89
44 71 89
44 70 88
44 71 89
46 72 90
46 72 90
45 73 91
47 75 93
47 75 94
46 74 92
49 78 97
47 78 98
46 75 95
47 76 95
49 78 98
45 71 89
48 77 96
45 73 91
46 75 94
46 73 91
46 74 93
46 73 92
49 77 96
44 70 88
46 75 94
49 77 95
47 77 97
47 76 96
47 73 91
45 73 92
49 79 98
46 75 94
49 78 98
50 81 102
47 76 95
46 73 92
47 76 95
47 77 96
49 79 99
49 79 99
50 79 98
46 75 94
49 78 97
49 79 98
48 78 97
49 79 98
49 78 98
46 75 94
49 79 99
50 79 98
50 80 100
48 79 99
49 80 100
46 75 94
49 78 98
48 76 95
51 80 99
48 79 99
49 77 96
52 82 102
47 75 94
49 79 99
47 77 97
47 76 95
50 80 99
47 77 97
49 79 99
51 79 98
49 81 102
47 76 95
47 77 96
49 78 98
49 80 100
51 82 103
50 79 99
48 78 98
50 80 101
49 79 99
48 78 97
49 79 98
49 79 98
52 82 101
49 80 101
50 80 99
52 82 103
49 80 101
52 82 101
49 80 101
52 82 103
49 79 99
52 82 102
54 84 105
51 81 101
52 83 104
51 81 101
50 80 101
51 80 100
51 82 102
49 81 101
51 82 102
52 83 104
51 81 101
47 78 98
51 81 101
52 82 103
52 83 103
50 80 100
48 78 97
50 81 102
50 79 98
50 80 100
51 80 100
48 78 98
48 79 99
50 80 100
48 78 98
50 81 102
48 76 94
51 82 103
49 78 98
53 82 102
50 80 100
47 77 97
49 79 100
50 80 100
48 79 99
48 78 98
48 79 99
51 82 102
50 80 101
51 81 100
50 81 101
50 79 99
48 79 99
45 74 93
50 79 98
50 80 99
48 79 99
52 81 101
48 77 96
48 79 99
48 76 95
49 79 99
50 80 99
47 76 95
48 77 97
49 78 97
50 79 99
50 80 100
47 77 97
47 75 94
51 80 100
43 69 87
47 78 98
49 77 96
48 77 97
49 78 97
45 75 94
46 74 93
46 75 95
48 76 94
49 78 97
46 76 96
47 75 94
47 74 93
48 78 98
47 75 94
48 74 92
46 73 91
49 78 97
49 77 95
46 72 90
46 75 94
47 75 94
49 79 98
48 76 95
45 73 91
47 73 91
48 75 94
44 71 89
45 71 89
43 69 87
46 73 91
46 74 92
49 77 96
45 73 91
46 73 91
45 72 91
47 74 92
46 76 96
45 71 89
45 72 90
46 74 92
43 70 87
47 74 93
46 74 93
44 71 89
42 69 88
44 71 89
46 74 93
47 74 93
43 69 86
45 72 89
44 70 87
46 72 90
44 71 88
42 69 86
46 73 91
44 70 86
46 72 90
40 65 81
45 70 87
45 71 88
45 70 86
46 72 89
41 65 82
42 67 83
44 70 87
40 66 83
43 68 85
42 67 84
43 68 85
45 71 88
46 71 88
45 72 91
42 66 82
42 67 83
43 68 84
44 69 86
45 70 86
44 69 87
42 67 83
36 57 70
44 68 83
39 63 78
42 66 82
40 64 80
47 72 89
39 64 80
44 70 87
42 66 82
39 63 79
42 65 80
41 64 79
40 63 79
41 65 81
38 59 73
37 59 73
40 63 79
42 65 80
37 60 74
40 62 76
41 65 80
41 65 81
40 62 77
41 63 78
41 64 79
43 66 81
41 64 79
39 61 75
41 63 78
40 62 76
39 62 77
40 63 78
40 62 77
40 62 76
42 64 80
42 67 83
39 61 75
40 62 76
43 66 81
39 61 76
37 57 71
36 56 69
40 62 77
36 56 68
38 59 73
42 66 81
40 62 76
37 57 71
39 61 76
42 65 81
36 56 70
37 58 73
42 65 79
39 59 73
42 65 80
43 67 83
39 60 73
44 70 88
42 66 82
39 60 73
40 62 77
38 58 72
42 65 80
39 60 74
37 57 71
40 64 79
39 61 75
39 61 75
38 58 72
40 63 78
38 59 73
38 60 75
41 62 77
34 54 67
39 60 74
44 69 85
40 64 80
39 61 76
41 64 79
38 59 73
38 59 73
35 54 67
38 59 73
42 65 81
41 64 79
43 65 80
41 62 77
40 63 78
35 55 68
40 62 77
40 61 76
38 61 76
40 62 76
39 61 76
39 62 77
39 62 77
40 61 76
39 61 76
42 66 82
41 65 82
38 62 77
42 65 80
41 64 79
41 64 79
38 58 71
45 68 84
37 58 71
39 60 75
43 67 83
43 67 83
41 63 77
36 58 73
43 69 86
43 68 84
42 67 83
41 65 81
40 63 79
44 69 86
43 68 85
44 69 85
42 65 81
43 68 84
44 69 86
42 65 80
42 66 82
44 68 84
46 72 89
43 68 84
45 70 86
41 65 81
42 69 86
46 73 90
46 73 91
42 67 84
43 66 82
42 67 83
45 69 85
45 71 88
44 71 89
43 69 86
43 68 85
42 68 85
42 67 84
44 69 85
42 67 84
43 69 86
44 71 89
45 71 88
41 67 83
44 70 87
43 69 86
43 70 87
46 72 90
43 68 85
47 75 94
47 75 93
47 75 94
44 70 87
47 73 90
49 76 93
47 75 94
47 75 93
48 74 91
45 73 92
45 71 89
45 72 90
45 71 89
44 72 91
46 75 94
47 73 91
46 73 91
48 77 97
47 74 92
48 74 91
48 77 96
47 76 95
48 76 95
45 71 89
45 71 89
46 75 94
47 76 94
43 70 88
46 75 95
49 77 97
47 77 96
48 75 94
45 75 94
49 78 97
45 73 91
49 76 94
48 76 95
44 71 89
48 77 96
46 74 92
47 77 96
49 76 94
48 78 98
47 76 95
51 80 99
47 76 95
46 75 95
46 75 94
48 76 95
48 76 95
43 72 91
47 77 97
49 78 98
47 75 94
48 77 96
47 76 95
49 79 99
50 79 99
50 80 99
49 81 102
48 77 96
50 81 101
50 80 100
50 79 99
47 76 94
46 77 98
51 80 99
45 75 95
49 79 99
49 79 99
47 76 96
48 79 99
50 78 97
50 80 100
50 80 99
48 76 95
49 79 99
49 79 99
50 80 100
50 81 101
50 79 99
51 80 99
46 76 95
50 80 100
48 78 98
52 82 103
48 79 99
50 81 101
50 81 102
49 79 99
49 78 97
50 80 101
51 82 102
49 79 99
49 79 99
48 77 97
51 80 100
49 78 98
47 77 98
51 83 104
51 81 102
50 81 102
51 81 102
50 79 99
50 79 99
50 82 104
51 83 104
49 78 98
48 78 98
51 80 100
48 78 98
48 80 101
52 83 103
50 80 100
53 83 104
51 81 101
50 80 100
48 79 99
48 78 99
50 81 101
50 79 99
48 77 97
52 83 103
50 79 99
48 79 100
50 79 99
51 82 102
50 80 100
49 78 98
50 80 100
47 77 96
47 76 96
50 81 101
48 80 101
49 79 99
49 79 100
48 78 98
50 80 100
48 77 96
51 81 101
49 79 99
49 78 97
50 80 100
48 77 97
49 80 100
51 80 100
49 77 96
50 80 100
51 81 101
49 79 98
51 79 99
49 79 99
51 81 100
46 76 96
52 80 99
46 75 94
48 79 99
51 81 101
47 76 96
48 78 98
48 79 99
42 70 89
50 80 100
49 79 99
47 78 98
49 78 98
47 75 93
49 79 98
48 77 97
49 79 98
48 79 99
45 75 94
47 77 97
47 75 94
49 78 97
47 74 92
48 78 98
47 75 93
51 80 99
45 72 90
49 77 96
47 74 92
47 77 97
49 75 93
47 76 95
46 74 93
48 76 95
44 71 88
49 77 96
44 71 89
47 76 95
42 68 86
48 78 98
48 76 95
47 74 92
48 75 93
46 73 91
46 73 91
50 78 96
48 75 93
46 72 89
45 72 90
47 75 93
47 75 94
48 77 96
45 73 92
45 73 92
43 68 85
45 71 88
46 74 93
48 74 91
46 73 91
47 74 91
45 73 92
46 74 92
42 66 82
45 72 90
48 76 95
43 69 87
44 68 85
45 69 86
45 73 91
45 73 92
45 71 89
45 71 89
43 69 86
46 72 90
43 69 87
44 70 87
47 73 91
41 67 83
46 74 92
46 73 90
45 71 88
44 71 89
44 68 85
44 68 84
41 66 83
41 65 81
42 65 80
44 69 86
44 69 86
43 68 85
43 68 84
40 65 81
45 70 87
41 64 80
44 67 83
44 68 85
40 63 78
39 64 80
42 66 82
40 63 79
42 66 83
43 68 85
39 62 77
44 70 87
44 69 86
39 63 78
46 72 90
43 68 84
45 70 86
40 62 77
41 64 80
42 66 82
40 63 79
45 70 87
42 66 82
36 59 73
40 61 75
38 59 73
45 68 84
42 67 83
41 63 78
42 65 81
39 63 79
39 63 79
41 63 77
41 63 77
41 64 80
43 67 83
41 64 79
37 57 70
42 65 80
37 60 75
42 67 83
41 64 79
33 53 66
35 54 66
40 63 78
38 59 72
38 59 73
39 60 74
42 65 79
39 61 75
37 58 72
37 58 73
38 59 73
40 62 76
37 58 71
42 65 81
38 59 72
41 64 79
32 51 64
38 60 75
35 57 71
38 58 72
40 62 77
34 53 65
37 56 70
39 61 76
40 62 76
38 59 74
36 56 69
36 57 71
38 58 72
37 59 73
40 61 76
39 61 75
37 58 72
40 62 77
36 56 69
39 61 76
42 64 79
39 62 77
39 61 76
40 64 79
42 65 80
37 57 70
42 65 81
39 60 74
39 61 75
39 60 75
43 67 83
39 61 76
40 62 77
42 66 82
38 60 74
43 67 83
40 61 75
40 63 78
41 66 83
46 71 87
43 67 83
39 60 74
41 64 80
43 68 85
42 67 83
40 63 78
43 68 84
39 60 74
41 65 81
38 60 74
38 60 74
41 66 82
42 66 82
41 63 78
41 65 80
42 64 79
45 70 87
39 61 75
43 67 82
44 69 86
43 67 83
43 68 84
39 63 79
41 63 78
44 70 87
43 67 83
42 65 81
44 70 87
44 70 88
43 68 85
42 66 82
45 71 89
46 74 92
42 68 85
43 67 84
43 69 86
44 68 84
46 72 89
46 71 88
45 70 87
46 71 89
45 71 88
46 73 91
42 67 84
41 64 80
44 71 89
46 72 89
45 71 89
41 66 82
44 71 89
45 70 88
46 73 91
46 72 90
45 70 87
48 74 92
47 74 91
43 69 87
41 67 84
47 74 92
43 69 86
46 73 91
45 72 89
46 73 91
46 72 89
47 74 92
48 76 95
45 71 89
45 72 90
43 69 86
42 67 84
44 72 91
45 71 89
43 71 90
45 73 92
49 78 97
45 73 92
46 74 93
48 75 93
45 73 91
44 71 88
46 73 92
48 75 93
46 74 92
49 77 96
45 74 93
46 72 90
47 76 95
49 77 97
47 76 96
46 75 95
46 75 95
45 73 91
48 77 96
47 77 96
50 81 102
44 71 89
48 77 97
48 76 94
46 74 92
49 79 99
48 75 94
49 79 99
50 80 99
47 77 96
48 75 93
46 74 93
46 75 94
46 75 94
50 78 96
47 75 93
49 76 95
45 75 94
46 76 96
49 78 98
47 75 93
47 75 93
51 80 100
49 78 98
47 75 94
48 77 97
49 78 97
49 79 98
50 78 98
47 75 94
48 77 97
49 79 99
49 79 99
50 78 98
47 77 97
49 80 102
49 78 98
48 77 96
51 81 101
44 73 91
49 79 99
46 75 94
48 78 98
48 78 99
48 78 98
50 80 101
49 79 99
51 80 99
48 78 97
50 81 101
47 78 98
49 79 99
49 79 99
49 79 99
50 80 101
47 76 95
49 80 100
48 79 99
49 79 100
51 82 103
51 81 102
50 81 102
49 80 100
50 80 101
50 81 101
49 79 99
50 80 100
49 80 102
50 79 98
50 81 102
51 82 103
52 82 103
48 77 97
50 81 101
50 81 101
51 82 103
46 76 96
50 80 100
50 80 100
50 80 101
53 84 105
48 78 98
53 84 104
50 80 100
49 80 100
51 82 103
49 79 99
48 80 101
50 81 102
48 78 98
50 80 101
51 81 101
51 81 100
47 78 98
50 81 101
49 79 99
53 85 105
48 78 97
47 77 96
50 80 100
51 82 102
50 80 99
49 79 100
49 78 98
48 77 97
47 78 98
47 76 95
48 78 97
47 78 98
50 82 103
48 78 97
49 79 99
51 81 101
48 77 96
47 76 95
50 78 97
47 78 99
49 78 98
44 73 92
48 76 94
48 77 96
49 78 97
47 76 96
48 79 100
47 78 99
48 77 97
48 77 97
45 74 93
48 75 94
47 76 95
47 75 94
46 74 93
47 76 95
49 78 98
46 76 95
46 77 97
50 78 96
45 74 93
46 73 91
49 77 96
46 75 95
49 77 96
48 77 97
48 77 96
46 76 96
47 75 94
47 76 95
41 69 87
47 76 96
46 76 96
48 76 95
48 76 95
48 75 93
47 75 94
41 68 86
44 73 93
46 75 95
43 69 87
48 75 93
46 74 93
44 72 90
46 73 91
47 75 95
48 76 94
46 71 88
47 74 92
42 68 86
44 72 90
46 74 92
47 73 91
44 68 84
45 72 90
44 69 86
46 73 91
47 76 95
47 75 93
45 71 89
42 66 82
46 72 89
46 72 90
43 67 83
44 71 89
47 73 91
45 71 88
46 73 91
46 74 92
42 67 83
47 75 94
40 66 83
45 70 87
43 68 85
42 67 84
43 68 84
45 71 88
41 64 80
41 65 81
43 68 84
42 66 82
43 69 86
43 68 85
41 66 83
42 66 82
41 65 81
43 68 85
40 64 79
42 68 85
45 72 89
42 66 82
42 68 84
42 65 80
45 70 87
46 73 91
41 64 80
41 65 81
41 64 79
42 66 82
47 72 88
39 62 78
39 61 76
43 67 82
41 65 81
42 67 84
43 65 80
41 66 83
40 65 81
42 67 84
44 69 86
45 71 88
40 63 79
38 57 70
43 66 81
39 60 74
42 67 84
40 62 76
42 64 79
39 61 75
41 63 77
40 62 77
38 61 76
37 58 72
39 59 72
41 64 80
41 64 79
35 55 68
43 66 82
41 65 81
40 63 79
38 59 74
40 63 78
39 62 77
38 60 75
41 63 79
42 65 81
37 57 71
43 66 81
40 61 76
39 61 75
40 63 78
41 65 81
36 55 68
38 59 73
38 60 74
41 63 77
45 68 84
39 61 75
43 68 85
39 61 76
38 59 73
40 63 79
35 56 70
44 68 85
38 60 75
36 56 70
39 60 74
40 62 77
42 66 82
37 57 71
39 62 77
38 58 71
40 61 75
43 65 80
39 61 76
40 61 75
39 60 75
39 61 75
41 63 77
40 62 76
41 64 80
41 64 80
39 61 75
39 62 78
37 58 72
41 64 79
40 64 80
42 64 78
43 65 80
44 68 84
37 57 71
37 59 74
38 60 75
42 65 81
39 61 76
41 63 77
43 67 83
45 68 83
39 61 76
40 62 76
39 61 76
42 65 81
42 66 82
41 65 81
45 69 86
39 62 77
42 65 81
40 60 73
42 64 80
42 65 80
42 64 79
45 68 83
41 65 81
42 65 81
43 68 85
42 67 83
43 67 83
39 60 74
47 73 90
41 64 80
41 66 82
44 70 87
42 67 84
42 68 85
43 67 84
44 68 84
41 65 80
43 69 86
42 66 82
47 72 88
41 66 82
42 66 81
42 65 81
45 70 86
44 71 88
44 71 89
41 67 84
40 63 78
44 68 84
43 69 87
44 69 86
45 71 88
43 69 87
44 71 89
46 73 91
44 71 88
48 76 95
43 68 84
42 67 84
43 70 88
46 73 91
45 72 90
47 74 92
41 67 84
44 70 87
42 67 83
46 74 92
48 75 93
45 72 90
46 72 89
48 75 93
46 72 89
43 69 87
47 74 93
46 73 92
44 73 92
45 73 92
48 75 94
47 75 94
48 76 94
45 73 92
47 76 95
44 71 89
43 70 88
44 71 89
46 74 93
44 70 87
46 75 94
45 74 94
48 77 97
46 75 95
48 76 95
49 76 94
47 75 94
49 78 97
46 74 92
45 73 91
47 76 96
47 75 94
46 75 94
47 73 91
46 74 93
49 78 98
48 77 96
49 79 99
46 75 94
47 74 92
45 75 95
49 78 97
48 78 97
45 73 92
48 77 97
45 74 93
48 77 97
50 79 99
47 77 97
52 82 103
45 72 90
47 76 95
48 77 96
48 78 99
45 73 92
49 80 100
49 79 99
48 76 94
50 78 97
49 78 98
48 77 97
49 79 99
49 78 98
50 79 99
48 78 98
47 76 96
46 74 93
46 76 96
49 77 97
51 81 101
47 77 97
47 75 94
48 78 98
47 75 94
49 78 97
50 80 100
50 80 100
48 78 98
52 81 101
49 79 98
50 80 100
47 75 94
48 78 98
51 82 103
47 78 98
47 77 97
50 80 100
50 79 98
49 79 100
49 80 100
49 80 100
52 82 102
48 78 98
48 78 98
50 81 101
49 78 98
49 79 99
51 81 101
49 80 100
49 80 100
49 80 101
48 78 99
48 78 98
47 77 98
50 81 101
48 79 100
51 80 99
51 82 102
50 81 102
50 80 100
51 81 101
50 81 101
49 80 100
50 80 100
52 82 103
50 79 99
50 81 102
49 79 99
49 79 98
49 79 99
49 81 102
49 80 100
51 81 101
49 78 98
49 79 99
47 77 96
51 81 102
52 82 102
51 79 98
49 80 100
52 83 103
52 83 103
48 76 94
50 80 101
48 79 100
46 75 95
49 81 102
48 78 99
49 77 96
49 79 99
50 79 98
48 79 99
46 76 95
47 77 97
47 74 93
49 77 96
49 80 100
48 78 98
48 77 96
48 77 96
48 77 96
47 74 92
49 79 99
47 77 98
48 77 97
51 81 100
48 78 98
47 76 95
47 76 96
50 80 101
47 77 96
48 75 93
47 77 97
44 70 88
46 74 92
46 74 93
52 82 103
46 73 91
47 77 96
48 77 96
47 76 95
45 72 90
48 76 95
48 76 95
47 76 95
44 71 89
44 72 91
46 74 93
47 78 98
47 75 94
45 73 92
47 75 93
47 76 95
44 72 90
45 74 93
48 77 97
45 72 91
48 77 96
48 77 96
48 76 95
47 74 92
48 77 96
45 72 91
47 74 93
46 73 92
47 74 93
44 71 89
44 71 90
46 74 93
46 74 93
46 76 95
48 77 97
48 76 95
49 76 93
42 70 88
45 73 91
44 70 87
44 71 89
44 71 89
48 78 97
47 75 94
46 71 88
44 71 89
44 70 87
46 74 93
45 73 91
45 73 92
43 68 84
42 67 84
44 70 87
46 73 91
45 73 91
43 68 84
49 78 98
43 69 86
47 74 92
46 71 88
44 70 87
43 68 85
41 66 83
43 69 87
42 65 80
46 71 88
44 71 89
44 70 88
43 69 86
38 60 75
46 72 89
42 65 81
43 70 88
43 69 86
41 66 82
42 67 83
45 68 84
45 71 89
44 70 88
47 71 87
46 72 89
41 66 83
42 65 81
38 60 74
43 67 83
41 65 81
42 67 84
42 66 82
40 62 76
44 69 85
42 65 80
40 63 78
40 65 82
43 68 85
43 66 81
43 67 83
43 69 86
44 70 87
41 65 80
43 66 82
42 66 81
40 65 81
42 65 81
35 56 70
41 64 79
41 65 81
36 57 71
40 63 78
46 71 87
42 64 79
41 64 80
41 65 80
37 58 72
37 59 74
41 65 80
43 66 81
45 69 85
41 65 80
40 62 78
40 63 79
38 59 73
40 60 74
42 64 79
41 64 79
41 64 79
36 57 70
41 64 79
35 54 67
39 61 76
38 59 72
37 58 71
42 66 83
41 65 80
41 63 78
37 57 70
40 62 77
39 61 76
37 58 71
40 61 75
40 62 77
43 65 80
41 65 81
39 61 76
41 63 77
41 65 81
36 56 70
41 63 78
39 59 73
37 59 73
40 62 77
42 66 82
38 61 76
39 61 75
40 63 79
39 61 75
40 61 76
37 57 71
40 63 78
41 64 79
41 64 79
39 61 76
40 62 76
37 55 68
42 66 82
41 65 81
38 60 74
39 61 75
44 70 88
38 61 76
39 60 74
39 63 78
39 62 76
43 68 85
39 61 75
43 67 83
39 61 76
46 71 88
40 64 79
39 62 78
43 67 83
44 68 83
39 62 78
36 58 72
42 66 83
43 68 85
40 64 79
42 66 82
41 64 80
42 66 82
43 67 83
43 67 84
41 66 83
43 67 83
41 65 81
43 69 86
43 67 83
41 65 81
43 68 85
46 72 90
43 67 83
46 72 89
45 71 88
43 66 81
43 68 85
43 67 83
44 71 89
46 70 86
43 66 81
42 64 80
46 71 88
41 65 82
44 68 84
46 73 91
43 68 85
46 72 90
44 69 86
42 66 83
45 72 90
44 70 87
42 67 84
44 69 86
43 69 86
43 68 85
45 71 89
48 74 91
43 68 85
46 74 92
48 75 94
43 68 85
46 73 91
45 71 89
45 72 90
47 73 91
41 66 82
46 71 87
45 71 89
46 73 91
46 72 90
45 72 91
44 69 87
45 72 90
47 74 93
47 73 91
47 73 91
45 71 89
47 74 92
45 72 90
45 70 87
45 72 90
46 73 91
46 76 95
43 71 89
46 74 93
47 75 93
46 73 91
46 75 94
48 77 97
46 73 91
46 75 93
43 69 86
43 69 86
46 74 92
45 73 91
44 72 90
49 77 96
45 72 90
47 75 93
47 73 91
46 75 95
48 76 94
44 72 91
46 74 92
47 75 94
48 78 97
50 79 99
48 76 95
49 78 97
50 80 99
47 76 96
45 74 93
45 75 95
47 76 96
48 77 97
46 75 94
46 74 93
49 79 99
49 80 101
48 78 98
49 78 98
49 78 98
48 78 98
46 75 95
45 75 95
46 74 93
47 77 96
50 79 98
48 77 96
48 76 96
48 78 97
48 78 98
50 80 101
50 80 100
49 78 98
49 78 98
50 79 98
50 79 99
50 79 99
47 77 97
48 78 98
48 77 96
49 79 99
50 81 101
47 76 95
50 81 102
50 80 101
51 81 101
49 78 97
48 77 97
49 79 99
51 80 99
48 78 98
48 79 100
52 84 105
50 79 99
50 79 98
52 83 104
51 81 102
52 83 103
50 80 101
50 81 101
50 80 100
48 78 97
50 81 101
51 82 103
50 81 101
49 79 100
50 80 100
52 82 103
49 78 98
53 83 103
51 82 102
48 80 101
52 82 103
51 82 102
49 80 101
50 80 100
48 78 98
48 78 98
48 77 97
52 82 102
52 82 102
50 80 100
49 80 101
49 80 101
51 82 103
52 82 103
48 78 98
50 80 100
47 78 98
50 80 100
51 81 101
50 79 98
47 78 99
48 77 97
48 79 99
48 79 100
49 80 101
50 79 98
51 80 100
48 79 99
48 78 98
49 79 99
50 80 100
48 77 96
48 77 97
48 78 98
50 80 100
49 78 98
50 80 100
49 78 98
47 76 95
48 78 98
50 81 102
48 79 100
47 76 96
45 74 94
46 75 95
50 80 100
49 78 98
50 79 98
51 80 100
46 72 90
48 75 93
47 76 95
46 75 94
49 79 98
49 79 99
48 78 98
48 78 98
47 77 97
46 75 94
48 76 95
45 73 91
48 78 97
49 79 98
50 80 100
47 75 94
47 75 94
47 75 93
46 74 93
47 75 94
45 74 93
46 75 94
47 75 95
44 72 90
46 75 94
45 73 92
50 76 94
49 77 95
47 76 95
47 75 94
44 72 91
48 77 96
46 74 93
47 75 94
50 79 99
50 78 97
48 76 94
46 73 92
46 74 92
45 72 90
48 76 95
46 72 89
50 78 97
47 74 91
47 76 95
45 72 91
48 75 93
45 73 91
48 77 96
46 73 91
47 74 93
49 78 98
45 71 89
44 70 88
44 71 90
46 75 93
45 71 88
43 70 88
47 74 92
43 69 86
46 72 90
45 73 91
40 64 81
45 71 89
42 68 85
47 74 92
43 68 85
44 69 85
44 70 88
44 71 89
43 70 88
43 69 86
44 69 85
42 68 86
43 69 86
44 70 87
44 70 87
41 65 81
43 68 85
43 69 87
44 70 87
45 71 89
44 70 87
43 68 84
42 66 82
37 60 74
43 68 85
45 72 89
43 67 83
45 71 88
42 65 81
40 62 77
40 65 82
45 71 88
43 69 87
42 67 84
41 64 80
38 61 76
42 65 81
42 68 86
42 66 82
41 64 79
45 71 88
40 64 79
42 65 81
38 60 75
40 64 80
44 69 85
40 65 81
43 69 86
39 61 76
36 56 70
40 63 78
42 65 81
39 62 78
38 59 74
41 63 78
40 63 79
41 64 79
42 65 81
39 61 76
38 59 73
39 61 76
39 59 73
42 67 83
41 65 80
37 58 71
40 64 79
41 65 81
41 63 77
43 67 82
41 62 77
39 61 76
39 61 76
45 72 89
41 64 80
41 65 80
39 61 76
42 66 81
41 64 80
36 56 70
40 61 76
42 66 83
39 63 80
38 58 72
39 62 77
42 66 82
41 62 76
44 68 83
44 68 84
41 64 80
41 63 78
40 62 77
40 62 77
39 60 74
39 62 77
40 63 78
42 66 81
40 64 79
36 57 71
39 61 76
37 59 74
39 60 75
39 62 77
42 67 84
41 64 79
36 56 69
40 63 79
41 64 79
40 63 78
42 65 81
43 66 82
39 59 73
36 56 70
38 61 76
42 66 82
38 60 75
40 64 80
40 62 76
38 58 72
41 65 80
45 68 84
40 62 77
39 61 75
41 65 81
39 61 76
38 59 74
40 65 81
44 68 84
41 63 77
43 67 83
43 67 83
40 65 81
42 66 83
47 72 88
40 62 77
42 66 83
42 66 82
44 68 85
42 66 82
45 70 87
41 64 80
38 61 76
43 68 84
40 63 78
42 65 80
43 67 83
41 66 82
47 72 89
41 68 85
45 69 85
46 71 88
44 69 85
43 67 84
41 66 83
47 73 91
46 72 89
40 64 80
42 68 86
43 68 85
47 73 91
42 67 84
43 68 85
45 68 84
43 68 84
39 62 78
44 71 89
45 71 88
44 69 86
48 75 92
45 71 89
44 71 89
44 71 89
45 71 89
48 76 94
46 74 92
43 70 87
44 69 86
43 69 87
47 76 96
46 72 90
45 72 90
43 69 85
44 71 89
46 73 92
44 70 88
45 72 90
41 67 83
47 77 98
48 76 95
44 72 90
45 72 91
44 72 91
46 74 92
49 76 93
44 71 89
45 73 92
47 75 94
41 68 85
45 71 89
50 78 96
50 81 102
48 79 99
44 72 91
47 77 96
48 77 96
48 76 96
48 76 95
48 76 95
45 73 91
42 69 86
46 74 93
47 75 94
47 77 97
44 72 91
49 78 97
47 75 94
47 78 98
46 73 91
48 76 95
45 72 89
47 73 91
46 74 92
47 74 92
48 78 98
48 77 96
47 76 95
47 75 93
49 79 99
47 76 96
51 79 98
50 80 100
47 75 94
48 78 97
46 75 94
50 80 101
50 79 99
47 77 96
47 75 94
46 74 93
48 77 96
50 79 99
47 77 96
47 75 94
45 74 93
47 76 96
50 79 99
50 80 100
47 76 95
50 80 100
48 77 97
48 77 96
49 79 99
47 76 96
50 81 102
49 78 98
48 77 97
48 79 100
49 79 99
51 81 101
46 74 92
51 83 103
50 81 101
48 79 99
45 74 92
48 76 95
51 81 102
49 80 100
49 79 99
46 74 93
50 80 100
48 79 99
48 79 100
49 79 99
47 76 95
49 78 97
49 80 101
51 80 100
49 80 100
53 83 104
51 82 103
54 83 103
51 80 100
52 82 103
51 82 103
50 81 101
51 82 103
49 81 102
49 80 100
51 82 102
50 81 101
51 81 100
46 75 94
49 80 101
53 83 103
48 78 98
50 80 99
49 79 99
48 79 99
48 79 100
51 80 100
49 80 101
48 78 98
47 76 95
48 77 96
49 79 99
49 79 99
46 76 96
49 80 100
46 74 93
49 79 98
51 82 103
48 77 97
50 81 102
48 78 97
48 80 101
48 77 97
51 81 101
49 77 95
52 83 103
50 80 99
48 78 97
43 71 90
49 78 98
49 79 99
47 76 96
49 78 97
49 78 98
47 76 95
50 80 100
48 77 96
50 80 99
50 80 101
49 78 97
45 77 97
49 79 99
50 79 98
47 75 94
47 77 97
45 73 91
51 81 100
47 75 95
50 78 97
48 77 97
45 74 93
49 78 97
47 76 95
48 77 96
49 79 98
47 77 96
46 75 93
46 75 94
46 73 91
49 77 96
48 78 97
48 76 95
49 78 97
47 75 93
46 74 93
50 78 98
47 75 94
47 76 96
48 77 96
47 74 93
48 76 94
49 77 96
47 76 96
45 72 91
47 75 93
47 75 94
47 77 97
46 74 92
45 72 90
48 76 95
49 78 98
49 76 95
46 73 91
46 75 95
48 76 96
46 73 91
47 74 93
45 72 90
47 75 94
46 74 93
45 73 92
44 70 87
44 70 88
45 73 92
46 73 92
44 71 89
44 70 87
47 74 92
44 72 91
45 72 89
46 74 93
49 77 95
45 71 88
47 73 91
48 77 96
48 75 92
45 73 91
48 77 97
47 72 90
44 69 86
45 70 87
42 68 85
44 69 86
47 73 89
43 68 85
45 71 88
45 71 89
43 68 85
44 69 86
44 70 87
44 69 86
40 64 80
43 67 83
45 70 86
43 68 84
39 63 79
43 69 86
41 66 82
45 70 86
40 63 77
44 70 87
42 67 83
45 71 88
44 69 86
41 65 81
44 69 85
46 72 89
39 62 77
44 68 84
44 69 85
43 67 83
42 64 79
42 67 83
38 63 79
43 70 87
42 65 80
43 68 84
45 68 84
45 71 88
39 63 79
41 66 82
45 71 89
39 63 79
43 68 84
42 67 83
40 63 79
45 70 87
41 64 80
45 70 87
43 69 86
38 60 74
41 65 81
42 67 83
40 63 78
41 64 80
40 63 78
37 59 74
40 61 76
44 68 84
39 60 75
40 62 77
39 60 75
41 64 79
41 64 79
42 67 83
43 66 82
39 61 76
37 59 74
39 59 72
39 60 75
40 63 78
38 58 71
35 57 71
38 59 73
38 61 76
40 62 76
39 61 75
40 63 77
39 61 76
44 67 83
40 61 75
42 65 81
40 61 76
39 62 78
42 63 78
43 66 82
41 65 80
41 63 78
40 62 77
43 66 82
37 59 73
41 65 80
42 66 82
39 61 75
43 68 85
41 64 80
41 63 78
41 64 80
41 63 77
40 63 78
41 64 79
41 64 79
39 61 75
39 61 76
38 60 74
43 67 83
43 68 84
40 63 78
36 56 69
40 62 77
39 61 76
40 64 80
40 62 77
37 60 76
39 61 76
40 62 77
42 64 79
40 63 78
47 73 90
44 70 87
40 62 77
41 63 78
37 58 71
40 62 77
43 67 84
41 64 79
39 60 74
40 63 78
43 68 84
40 63 78
43 66 82
38 61 77
41 65 81
39 63 78
42 66 82
39 62 77
45 70 87
39 61 76
39 61 76
38 61 76
40 64 80
39 62 77
44 68 85
42 67 83
42 68 84
43 68 84
42 67 84
42 66 82
42 66 82
45 71 88
40 66 82
46 71 88
43 67 84
44 70 87
44 70 87
41 66 83
44 67 83
43 67 83
45 71 88
46 71 88
46 72 89
44 71 89
42 68 84
44 71 89
45 71 89
46 74 92
46 73 91
37 59 73
43 69 86
41 66 83
43 69 86
41 67 84
45 72 90
48 74 91
41 67 85
47 73 91
44 70 87
43 69 86
46 72 89
45 71 88
46 73 91
41 68 85
44 70 87
46 74 92
48 75 93
44 71 88
43 70 88
43 70 88
46 73 91
44 70 87
44 71 89
53 82 101
44 71 89
45 72 90
47 73 91
48 75 93
46 75 94
43 69 86
47 75 94
47 75 93
45 74 93
43 71 89
46 74 93
50 81 102
50 78 97
45 73 92
46 75 94
48 77 96
47 75 93
44 70 88
45 73 92
46 74 92
50 78 98
45 71 89
48 77 96
49 78 97
47 77 97
50 79 98
48 77 96
47 76 96
45 73 91
48 77 97
48 76 94
46 75 94
50 79 99
48 76 95
48 78 97
47 77 98
46 74 92
51 80 100
47 77 96
49 78 98
50 79 98
48 77 97
48 78 98
46 75 94
49 80 100
49 79 98
47 76 95
48 79 100
48 78 97
49 79 99
47 75 94
50 81 101
50 80 101
49 79 99
46 74 93
49 78 97
49 77 96
44 73 91
47 76 96
50 80 100
50 80 99
49 79 98
48 78 97
49 78 98
48 77 96
49 78 97
48 76 95
47 78 98
46 75 94
48 77 96
49 78 98
51 81 101
51 82 102
50 79 99
48 78 99
48 77 97
50 80 100
50 79 99
48 79 100
52 83 104
45 73 93
50 81 102
50 81 102
51 81 102
46 75 95
50 81 102
48 77 96
52 83 104
51 81 101
50 79 98
49 80 100
50 80 100
51 81 101
49 81 102
49 79 99
48 78 97
52 81 101
48 79 99
48 79 99
50 81 102
50 80 100
47 78 100
53 83 104
50 80 100
50 80 100
48 80 101
49 78 98
50 81 101
49 79 99
52 81 101
48 78 97
49 82 103
51 82 102
49 78 97
50 81 101
49 78 98
48 76 95
51 81 101
47 76 95
48 79 99
48 78 98
47 77 98
48 77 97
50 79 99
48 77 97
46 74 93
48 79 100
49 77 96
49 80 100
48 79 99
47 75 95
50 79 99
49 79 99
51 80 99
48 79 99
52 82 103
51 80 100
50 81 101
48 78 99
50 78 97
47 76 96
47 77 97
48 78 98
47 73 91
46 74 94
46 74 93
50 79 99
50 81 101
47 75 94
46 73 91
49 77 96
51 81 101
49 78 98
47 76 96
48 76 96
46 73 91
48 76 95
50 77 96
46 74 93
42 68 85
46 75 94
46 74 93
46 74 92
45 73 92
48 78 97
46 74 93
47 76 95
49 78 97
43 69 86
50 80 99
46 73 92
46 74 92
45 71 89
47 75 94
47 76 95
48 78 98
47 76 95
45 70 87
46 77 97
48 76 95
44 71 88
44 71 89
47 75 94
47 74 92
44 71 89
46 75 94
47 76 95
50 77 95
42 68 85
43 69 86
47 72 90
48 75 92
44 70 88
48 77 96
47 74 92
46 74 93
46 71 88
41 66 83
47 75 95
44 70 87
46 74 92
46 72 90
48 76 95
47 75 93
43 69 86
42 69 86
44 68 84
44 70 87
45 72 90
46 71 88
46 70 87
42 68 85
45 71 89
44 70 87
47 74 92
43 69 86
43 69 86
45 72 89
38 61 77
42 68 86
43 68 84
42 68 86
42 65 81
45 69 86
42 67 84
43 69 86
41 67 84
43 68 85
46 72 89
42 66 83
38 62 78
43 69 85
46 71 87
44 70 87
42 65 80
45 70 87
44 70 87
42 68 85
42 66 82
46 71 87
42 66 81
42 67 84
43 66 82
42 66 81
45 71 88
37 57 70
41 64 79
47 74 91
40 63 78
39 63 79
44 68 84
40 62 77
41 65 80
40 64 79
41 63 78
41 65 81
42 65 81
40 61 76
37 58 73
41 64 79
44 68 84
41 64 80
41 63 78
39 62 77
43 68 84
42 65 81
44 68 85
43 67 84
42 67 83
38 61 75
42 65 81
37 58 72
39 61 75
38 60 74
42 65 81
42 65 81
42 65 81
37 58 72
40 62 77
42 65 81
41 62 77
42 65 81
41 64 79
44 67 82
39 61 75
39 62 77
37 59 73
43 69 86
41 66 83
40 62 76
37 56 69
37 59 74
38 61 75
39 61 76
37 57 71
41 63 77
38 61 76
41 64 79
41 64 79
44 69 86
40 64 79
40 63 78
39 62 77
38 59 73
39 62 78
40 64 80
42 64 79
38 60 75
40 62 76
42 67 83
42 65 81
38 60 74
39 62 77
42 65 81
38 59 73
37 57 71
42 66 82
41 65 82
45 70 86
39 63 78
39 61 75
44 68 84
38 60 74
41 63 79
43 67 83
42 65 81
37 58 72
42 66 82
44 66 82
41 66 83
45 68 83
44 68 84
40 64 80
42 67 84
43 66 82
44 69 85
37 59 73
39 63 78
43 68 85
42 67 84
44 68 85
44 69 85
40 64 80
43 66 81
40 63 78
40 64 80
45 71 89
43 67 82
41 65 81
43 67 84
43 68 84
41 66 83
44 70 88
39 61 76
43 69 86
42 67 84
46 71 88
45 70 88
42 65 80
41 65 82
44 68 84
40 64 80
44 69 86
43 68 84
39 63 79
41 64 80
44 70 87
45 71 89
43 70 88
41 65 80
44 68 84
42 67 84
44 71 89
44 69 86
45 71 89
43 69 87
45 72 89
43 69 86
47 76 94
44 69 86
46 74 92
45 71 88
42 68 85
43 68 85
44 70 87
47 74 91
48 75 94
43 69 86
44 70 87
43 70 87
48 76 94
50 78 96
47 74 92
47 74 92
47 76 95
45 73 91
44 70 87
45 71 89
48 75 93
45 71 89
48 76 95
43 69 87
47 75 94
44 71 89
45 72 89
46 73 91
48 76 94
48 77 97
44 71 90
46 74 92
45 73 92
46 72 90
47 77 96
48 77 97
45 74 93
45 74 93
45 74 93
48 76 94
44 72 90
45 71 88
47 77 97
44 71 90
51 79 98
46 74 93
46 74 93
49 77 96
49 78 98
49 78 98
48 77 96
49 78 98
48 78 97
46 75 94
49 78 98
48 76 95
47 77 97
49 78 97
51 80 100
52 81 100
49 77 97
52 81 101
49 79 100
48 78 97
48 77 97
47 74 92
49 79 99
49 78 98
46 76 96
48 77 96
50 78 97
49 77 97
46 74 92
50 80 100
48 78 98
49 79 99
49 78 98
50 79 99
49 79 98
48 76 96
49 79 100
49 81 102
45 72 90
50 79 99
49 80 101
46 75 94
47 76 96
50 81 101
49 78 97
48 78 98
48 78 98
48 79 99
50 80 100
48 79 99
49 80 102
49 80 100
47 77 96
48 77 97
50 82 103
46 75 94
50 80 100
50 80 100
49 78 97
49 81 102
47 77 98
49 79 98
51 80 99
50 79 98
50 80 101
48 79 100
50 82 103
53 84 105
51 81 101
50 80 100
48 78 99
49 80 101
50 81 101
51 83 104
50 81 101
52 83 103
47 78 98
50 82 104
50 80 100
49 79 98
49 78 98
50 80 100
50 80 99
50 81 102
51 81 100
49 80 100
49 80 101
49 80 100
47 76 95
50 81 102
49 78 98
48 77 96
49 79 99
48 77 96
50 81 101
49 79 98
46 75 94
49 79 98
51 81 102
49 77 96
50 80 100
48 77 97
50 79 98
49 79 99
49 77 97
48 79 99
49 77 96
51 81 101
50 81 101
50 81 102
49 79 99
48 76 94
48 77 96
46 76 95
46 73 90
48 78 97
51 80 100
48 76 95
50 81 101
49 79 99
48 76 94
51 80 99
46 75 94
49 78 97
48 78 97
48 78 98
47 76 95
46 74 92
49 79 99
47 76 95
46 74 93
45 73 92
47 76 95
49 78 97
49 79 98
47 75 94
48 78 98
46 75 94
46 73 92
51 79 98
47 76 95
46 75 94
48 75 93
49 77 96
45 73 92
45 72 90
46 74 92
47 75 94
49 77 96
47 75 93
48 76 96
48 78 97
47 77 97
49 77 96
49 78 97
50 79 99
44 71 90
46 73 90
47 75 93
45 71 89
47 75 93
47 75 94
46 75 94
45 75 94
48 77 96
48 76 95
43 69 87
44 71 89
43 68 85
47 74 92
45 73 92
50 79 99
44 71 89
46 73 91
47 73 91
44 71 89
46 74 92
45 70 86
45 71 89
47 75 93
44 70 87
48 76 94
47 74 92
47 74 93
47 74 93
46 72 89
46 73 90
47 75 93
46 75 94
44 70 88
44 70 88
42 66 81
46 72 89
44 71 89
48 76 95
43 69 87
44 72 91
45 71 87
42 69 87
42 68 85
45 71 88
42 68 86
42 66 82
45 70 87
41 66 82
42 67 84
46 72 90
44 70 87
45 70 87
43 69 86
44 70 87
41 67 84
46 73 90
40 64 79
39 61 77
44 70 87
39 61 75
44 70 87
43 68 85
43 68 85
44 69 86
45 69 85
43 69 87
42 65 81
41 66 82
46 72 90
47 74 91
45 70 87
41 65 81
44 70 87
43 65 80
41 66 82
44 69 85
43 68 84
46 73 90
39 63 79
39 62 77
38 59 74
43 68 84
39 61 76
40 63 79
39 63 78
41 63 78
45 69 85
41 65 80
43 66 81
42 65 80
36 59 75
38 60 74
41 62 77
43 67 82
43 66 81
41 63 78
41 65 80
38 59 73
40 62 77
41 63 78
41 64 79
40 62 77
42 66 82
39 62 77
38 60 75
42 63 77
41 64 80
37 59 74
37 58 73
41 64 80
44 68 83
38 59 73
40 62 76
40 63 78
39 62 77
42 66 82
38 59 73
44 69 85
43 66 81
39 59 73
39 63 78
44 68 84
43 66 81
39 62 77
40 63 78
41 64 79
43 67 83
43 65 80
40 62 76
41 65 81
39 62 77
39 62 78
44 68 83
40 64 79
45 70 86
42 65 81
44 68 84
43 67 82
44 68 83
40 64 79
42 66 82
42 65 81
37 59 73
44 70 87
40 63 78
40 63 79
40 63 79
36 57 71
43 67 84
39 60 74
39 62 77
38 59 74
40 62 77
43 67 82
41 66 82
43 67 83
39 62 77
41 64 79
46 73 91
43 67 84
39 62 77
46 71 88
41 64 80
41 64 79
40 64 80
42 66 83
39 62 77
41 64 79
41 64 79
45 69 86
45 69 86
42 68 85
45 71 89
42 67 83
45 70 87
41 66 82
46 72 89
43 68 84
45 72 90
42 68 86
44 70 88
45 72 90
45 71 89
42 67 83
46 71 88
46 75 94
44 69 85
47 74 91
46 74 93
41 65 81
44 69 85
42 67 84
43 69 86
44 68 84
44 69 86
45 70 87
44 68 84
41 67 85
43 70 89
43 71 89
43 66 82
44 72 91
46 72 90
43 70 88
45 72 91
49 76 94
42 68 86
46 72 89
42 66 82
44 72 90
46 72 90
46 73 91
47 75 93
45 73 91
44 70 88
46 73 91
49 77 96
47 76 95
42 69 86
47 76 95
46 73 91
46 74 93
44 70 87
44 72 90
46 74 93
46 72 90
50 78 98
47 75 93
49 77 96
48 77 96
48 75 93
50 79 98
48 75 93
48 77 97
47 74 92
48 77 96
46 74 93
47 75 93
46 74 92
47 76 95
49 77 96
47 76 96
44 72 90
48 77 96
48 74 92
47 77 97
47 76 96
47 75 94
49 79 99
46 74 94
46 74 92
46 75 93
47 76 95
48 76 95
47 76 95
45 72 90
47 76 95
48 75 93
45 74 93
45 74 94
49 78 97
49 80 100
47 76 96
47 78 98
49 79 99
51 80 98
48 77 96
50 79 98
49 79 99
47 77 96
47 76 96
47 76 96
48 78 97
47 78 98
47 77 97
47 77 97
50 80 99
46 76 95
49 80 100
48 77 96
48 77 96
48 78 98
51 81 101
50 80 101
49 79 99
49 78 98
49 78 98
48 78 98
47 76 96
50 79 99
48 78 97
50 80 100
50 79 99
49 79 99
48 77 96
52 83 103
50 81 101
48 79 100
48 79 100
52 81 101
51 80 100
51 82 102
47 77 97
51 82 103
51 81 101
49 79 99
50 79 99
50 81 102
51 82 103
47 77 97
52 81 101
50 81 102
50 80 101
48 78 98
52 83 103
50 81 101
50 80 101
49 79 99
51 81 101
49 80 100
50 82 103
47 78 98
51 81 102
52 83 103
48 79 99
53 84 104
47 78 99
49 79 99
50 80 100
48 78 98
50 79 98
49 79 98
50 81 101
51 81 101
49 79 99
50 79 99
49 79 99
50 80 100
48 76 95
53 81 100
47 77 96
49 79 99
48 77 96
51 80 100
49 79 98
49 79 98
49 80 101
48 78 98
47 77 96
49 79 99
49 80 101
49 79 99
47 77 96
47 77 96
49 79 99
49 79 100
50 80 100
48 78 97
47 76 95
48 77 97
48 77 96
49 78 98
50 78 97
48 78 98
49 79 98
50 78 97
49 79 100
50 80 100
48 77 97
49 76 95
50 80 100
49 80 100
46 75 94
50 80 100
49 77 96
49 78 97
48 79 99
48 77 96
46 75 93
48 77 96
46 75 94
45 74 94
47 76 95
47 75 93
46 75 94
50 78 97
45 71 88
47 76 95
49 78 98
51 80 99
49 77 96
46 73 91
45 72 90
47 74 93
47 76 95
48 77 96
44 72 90
46 74 94
48 75 93
45 73 91
47 76 95
44 70 87
47 73 91
45 72 90
47 76 95
50 78 97
48 75 93
48 77 96
49 78 98
48 76 95
45 73 91
44 71 88
47 75 94
46 72 90
43 70 88
46 74 92
46 74 92
45 74 93
49 78 98
43 69 87
45 72 90
44 70 88
44 71 88
46 72 89
45 71 88
45 73 91
45 71 89
46 74 93
45 73 91
45 72 90
45 71 89
44 71 89
47 75 94
47 75 93
44 70 88
44 71 88
43 70 88
44 70 88
41 67 83
45 72 90
45 72 90
44 71 89
44 69 86
48 74 91
42 68 85
43 68 85
43 70 87
44 68 84
48 75 93
43 68 84
42 66 82
42 66 82
45 72 90
43 68 85
45 72 89
45 71 88
43 69 86
45 71 87
42 67 84
43 68 85
46 72 90
42 66 83
47 73 90
44 68 84
41 65 81
42 66 82
42 67 83
41 64 80
38 60 75
47 73 90
43 69 85
42 67 83
40 63 79
38 60 75
42 66 82
42 65 81
41 64 80
37 57 71
41 65 81
40 62 77
43 67 83
41 64 80
41 65 81
45 69 85
41 64 80
44 69 86
41 63 78
44 69 86
45 71 88
39 61 76
43 67 83
40 63 78
41 61 75
41 64 80
43 69 87
40 63 79
39 63 78
42 66 82
41 65 81
39 61 76
42 64 78
42 66 83
42 64 79
43 67 83
38 59 74
38 58 71
42 67 84
39 62 77
38 60 74
41 64 80
39 62 78
42 66 82
40 62 76
38 60 75
40 64 79
43 68 84
43 66 81
39 60 74
43 66 82
41 63 77
41 64 79
40 62 76
43 67 83
38 61 76
41 65 80
44 69 86
41 64 79
41 63 79
40 63 78
42 65 81
43 68 85
40 62 77
41 64 79
41 65 81
42 66 81
39 62 77
39 61 75
43 67 83
43 68 84
39 61 76
39 62 77
42 67 83
42 67 84
44 70 87
38 62 78
43 67 83
42 66 81
42 64 79
38 60 75
41 64 79
41 64 79
43 67 83
43 68 84
44 67 82
40 63 78
42 64 79
43 66 82
45 68 83
43 67 82
46 73 91
42 66 82
45 72 90
40 62 77
41 65 81
42 66 82
42 64 79
42 66 82
44 70 88
43 66 82
43 68 84
39 62 78
42 66 83
40 64 80
43 67 82
42 67 83
46 70 87
41 66 83
42 66 82
44 70 87
44 68 84
44 71 89
43 67 83
47 75 94
45 71 89
41 67 84
46 70 86
46 71 87
44 68 85
43 68 85
41 64 80
41 64 80
42 68 86
43 69 86
43 70 88
46 73 90
46 73 91
44 69 85
44 69 86
48 76 94
44 70 88
47 75 93
47 73 90
43 69 86
47 74 92
47 74 93
45 74 93
44 70 88
48 75 93
46 70 86
43 69 86
46 73 92
45 73 91
47 76 95
44 70 88
42 68 85
44 70 88
46 74 93
45 71 88
45 74 93
45 71 88
48 76 94
46 74 93
46 73 92
48 77 96
47 74 91
46 73 91
47 76 95
45 71 89
46 74 93
46 73 91
45 74 93
46 74 93
50 78 97
44 70 87
45 72 91
45 73 92
43 70 88
48 76 95
48 77 96
47 75 94
49 78 97
46 74 93
49 76 94
48 75 93
45 74 93
49 78 97
49 78 97
49 78 97
47 74 93
48 76 95
49 78 96
46 74 94
47 75 94
48 78 98
48 76 94
49 77 96
46 73 92
46 73 91
48 77 96
48 77 97
48 78 97
45 73 92
46 73 91
47 77 97
48 77 97
48 79 100
47 77 97
49 78 97
50 80 100
46 75 94
49 79 99
47 76 95
46 75 95
45 74 93
47 77 96
47 75 94
51 81 102
46 76 96
49 78 97
48 78 98
50 79 98
49 79 98
50 81 102
50 81 101
48 76 95
51 80 100
49 80 100
48 79 100
48 79 99
49 79 99
50 80 100
52 82 102
49 80 101
50 79 98
50 81 102
47 77 96
48 78 97
53 83 102
51 81 101
48 78 98
51 82 103
51 81 101
50 80 100
48 78 98
49 79 99
49 79 99
50 80 100
46 77 97
47 78 98
49 79 100
52 82 102
47 77 97
48 80 101
50 80 101
51 82 103
